(modified by Matteo Lasagni for EUROMOD 45)
(.../pcb-gcode-3.6.2.4/pcb-gcode.ulp)
(Copyright 2005 - 2012 by John Johnson)
(See readme.txt for licensing terms.)
(This file generated from the board:)
(.../multi_board_pcb/multi_board_support.brd)
(Current profile is .../pcb-gcode-3.6.2.4/profiles/lasagni.pp  )
(This file generated 27/01/16 15:02)
(Settings from pcb-machine.h)
(spindle on time = 3.0000)
(  Tool Size)
(0.2000 )
(spindle speed = 55000.0000)
(tool change at 0.0000 0.0000 25.4000 )
(feed rate xy = F600.00 )
(feed rate z  = F254.00 )
(Z Axis Settings)
(  High     Up        Down     Drill)
(120.7000 	2.5600 	-0.1778 	-2.0000 )
(Settings from pcb-defaults.h)
(isolate min = 0.0254)
(isolate max = 0.5080)
(isolate step = 0.1270)
(Generated top outlines, top drill, )
(Unit of measure: mm)
(Beginning of every file)
(Beginning of every top file)
(Outline Begin)
T04 M06
(Top outline Begin)
(Metric Mode)
G71
(Absolute Coordinates)
G90
S55000
G00 Z120.7000 
G00 X0.0000 Y0.0000 
M03
G04 3.000000
G00 Z2.5600 
G00 X0.9563 Y1.0174 
G01 Z-0.1778 F254.00 
G01 X0.9130 Y1.0924 F600.00 
G01 X0.8906 Y1.1759 
G01 X0.8906 Y198.7375 
G01 X0.8906 Y198.8241 
G01 X0.9130 Y198.9076 
G01 X0.9563 Y198.9826 
G01 X1.0174 Y199.0437 
G01 X1.0924 Y199.0870 
G01 X1.1759 Y199.1094 
G01 X298.8241 Y199.1094 
G01 X298.9076 Y199.0870 
G01 X298.9826 Y199.0437 
G01 X299.0437 Y198.9826 
G01 X299.0870 Y198.9076 
G01 X299.1094 Y198.8241 
G01 X299.1094 Y1.1759 
G01 X299.0870 Y1.0924 
G01 X299.0437 Y1.0174 
G01 X298.9826 Y0.9563 
G01 X298.9076 Y0.9130 
G01 X298.8241 Y0.8906 
G01 X1.1759 Y0.8906 
G01 X1.0924 Y0.9130 
G01 X1.0174 Y0.9563 
G01 X0.9563 Y1.0174 
G00 Z2.5600 
G00 X7.3415 Y13.8713 
G01 Z-0.1778 F254.00 
G01 X7.6816 Y13.7304 F600.00 
G01 X8.2960 Y13.7304 
G01 X8.4575 Y13.7304 
G01 X8.4693 Y13.7336 
G01 X8.4910 Y13.7335 
G01 X8.5125 Y13.7364 
G01 X8.5341 Y13.7335 
G01 X8.5559 Y13.7335 
G01 X8.5768 Y13.7279 
G01 X8.5983 Y13.7251 
G01 X8.6184 Y13.7168 
G01 X8.6394 Y13.7111 
G01 X8.6582 Y13.7003 
G01 X8.6782 Y13.6920 
G01 X8.6901 Y13.6829 
G01 X9.0459 Y13.5355 
G01 X9.4141 Y13.5355 
G01 X9.7542 Y13.6764 
G01 X9.8140 Y13.7362 
G01 X9.8273 Y13.7535 
G01 X9.8445 Y13.7667 
G01 X9.8599 Y13.7821 
G01 X9.8787 Y13.7929 
G01 X9.8959 Y13.8062 
G01 X9.9160 Y13.8145 
G01 X9.9348 Y13.8253 
G01 X9.9558 Y13.8309 
G01 X9.9758 Y13.8393 
G01 X9.9974 Y13.8421 
G01 X10.0184 Y13.8477 
G01 X10.0401 Y13.8477 
G01 X10.0616 Y13.8506 
G01 X10.0832 Y13.8477 
G01 X10.1049 Y13.8477 
G01 X10.1259 Y13.8421 
G01 X10.1474 Y13.8393 
G01 X10.1675 Y13.8309 
G01 X10.1885 Y13.8253 
G01 X10.2073 Y13.8145 
G01 X10.4102 Y13.7304 
G01 X10.7784 Y13.7304 
G01 X11.1185 Y13.8713 
G01 X11.3788 Y14.1316 
G01 X11.5197 Y14.4717 
G01 X11.5197 Y14.5694 
G01 X11.5321 Y14.6158 
G01 X11.5421 Y14.6530 
G01 X11.5612 Y14.6861 
G01 X11.7146 Y15.0564 
G01 X11.7146 Y15.4246 
G01 X11.5612 Y15.7948 
G01 X11.5421 Y15.8280 
G01 X11.5322 Y15.8649 
G01 X11.5197 Y15.9116 
G01 X11.5197 Y16.0093 
G01 X11.4799 Y16.1053 
G01 X11.3788 Y16.3494 
G01 X11.1185 Y16.6097 
G01 X10.8635 Y16.7153 
G01 X10.7784 Y16.7506 
G01 X10.4102 Y16.7506 
G01 X10.3142 Y16.7108 
G01 X10.2985 Y16.7043 
G01 X10.2343 Y16.6777 
G01 X10.2073 Y16.6665 
G01 X10.1885 Y16.6557 
G01 X10.1675 Y16.6500 
G01 X10.1474 Y16.6417 
G01 X10.1259 Y16.6389 
G01 X10.1049 Y16.6333 
G01 X10.0832 Y16.6333 
G01 X10.0616 Y16.6304 
G01 X10.0401 Y16.6333 
G01 X10.0184 Y16.6333 
G01 X9.9974 Y16.6389 
G01 X9.9758 Y16.6417 
G01 X9.9558 Y16.6501 
G01 X9.9348 Y16.6557 
G01 X9.9160 Y16.6665 
G01 X9.8959 Y16.6748 
G01 X9.8787 Y16.6881 
G01 X9.8599 Y16.6989 
G01 X9.8445 Y16.7143 
G01 X9.8273 Y16.7275 
G01 X9.8140 Y16.7448 
G01 X9.7542 Y16.8046 
G01 X9.4141 Y16.9455 
G01 X9.0459 Y16.9455 
G01 X8.6757 Y16.7921 
G01 X8.6426 Y16.7730 
G01 X8.6055 Y16.7631 
G01 X8.6023 Y16.7622 
G01 X8.5591 Y16.7506 
G01 X8.5157 Y16.7506 
G01 X8.4725 Y16.7506 
G01 X8.2663 Y16.7506 
G01 X8.2263 Y16.7340 
G01 X8.1464 Y16.7009 
G01 X8.0606 Y16.6896 
G01 X7.9748 Y16.7009 
G01 X7.8949 Y16.7340 
G01 X7.8549 Y16.7506 
G01 X7.4867 Y16.7506 
G01 X7.1466 Y16.6097 
G01 X6.8863 Y16.3494 
G01 X6.7454 Y16.0093 
G01 X6.7454 Y14.6666 
G01 X6.8863 Y14.3265 
G01 X7.0044 Y14.2084 
G01 X7.3415 Y13.8713 
G00 Z2.5600 
G00 X7.5214 Y14.7509 
G01 Z-0.1778 F254.00 
G01 X7.4946 Y14.8156 F600.00 
G01 X7.4946 Y15.8602 
G01 X7.5214 Y15.9250 
G01 X7.5710 Y15.9746 
G01 X7.6357 Y16.0014 
G01 X7.7058 Y16.0014 
G01 X7.7706 Y15.9746 
G01 X7.8202 Y15.9250 
G01 X7.8470 Y15.8602 
G01 X7.8470 Y14.9237 
G01 X7.9387 Y14.8320 
G01 X8.1825 Y14.8320 
G01 X8.2742 Y14.9237 
G01 X8.2742 Y15.8602 
G01 X8.3010 Y15.9250 
G01 X8.3506 Y15.9746 
G01 X8.4153 Y16.0014 
G01 X8.4854 Y16.0014 
G01 X8.5502 Y15.9746 
G01 X8.5998 Y15.9250 
G01 X8.6266 Y15.8602 
G01 X8.6266 Y14.8156 
G01 X8.5998 Y14.7509 
G01 X8.3553 Y14.5064 
G01 X8.2905 Y14.4796 
G01 X7.8306 Y14.4796 
G01 X7.7659 Y14.5064 
G01 X7.7163 Y14.5560 
G01 X7.5214 Y14.7509 
G00 Z2.5600 
G00 X8.6908 Y14.7509 
G01 Z-0.1778 F254.00 
G01 X8.6640 Y14.8156 F600.00 
G01 X8.6640 Y14.8857 
G01 X8.6908 Y14.9505 
G01 X8.7404 Y15.0001 
G01 X8.8051 Y15.0269 
G01 X8.8752 Y15.0269 
G01 X8.9400 Y15.0001 
G01 X9.0538 Y14.8863 
G01 X9.0538 Y15.0643 
G01 X9.0000 Y15.0643 
G01 X8.9353 Y15.0911 
G01 X8.6927 Y15.3337 
G01 X8.6640 Y15.4003 
G01 X8.6640 Y15.6653 
G01 X8.6908 Y15.7301 
G01 X8.9353 Y15.9746 
G01 X9.0000 Y16.0014 
G01 X9.0538 Y16.0014 
G01 X9.0538 Y16.0551 
G01 X9.0806 Y16.1199 
G01 X9.1302 Y16.1695 
G01 X9.1949 Y16.1963 
G01 X9.2650 Y16.1963 
G01 X9.3298 Y16.1695 
G01 X9.3794 Y16.1199 
G01 X9.4062 Y16.0551 
G01 X9.4062 Y16.0014 
G01 X9.4599 Y16.0014 
G01 X9.5247 Y15.9746 
G01 X9.7692 Y15.7301 
G01 X9.7960 Y15.6653 
G01 X9.7960 Y15.5952 
G01 X9.7692 Y15.5305 
G01 X9.7196 Y15.4809 
G01 X9.6548 Y15.4541 
G01 X9.5847 Y15.4541 
G01 X9.5200 Y15.4809 
G01 X9.4062 Y15.5947 
G01 X9.4062 Y15.4167 
G01 X9.4599 Y15.4167 
G01 X9.5247 Y15.3899 
G01 X9.5743 Y15.3403 
G01 X9.7692 Y15.1454 
G01 X9.7960 Y15.0806 
G01 X9.7960 Y14.8156 
G01 X9.7692 Y14.7509 
G01 X9.5247 Y14.5064 
G01 X9.4599 Y14.4796 
G01 X9.4062 Y14.4796 
G01 X9.4062 Y14.4259 
G01 X9.3794 Y14.3611 
G01 X9.3298 Y14.3115 
G01 X9.2650 Y14.2847 
G01 X9.1949 Y14.2847 
G01 X9.1302 Y14.3115 
G01 X9.0806 Y14.3611 
G01 X9.0538 Y14.4259 
G01 X9.0538 Y14.4796 
G01 X9.0000 Y14.4796 
G01 X8.9353 Y14.5064 
G01 X8.8857 Y14.5560 
G01 X8.6908 Y14.7509 
G00 Z2.5600 
G00 X9.4062 Y14.8863 
G01 Z-0.1778 F254.00 
G01 X9.4436 Y14.9237 F600.00 
G01 X9.4436 Y14.9726 
G01 X9.4062 Y15.0100 
G01 X9.4062 Y14.8863 
G00 Z2.5600 
G00 X9.8602 Y15.1407 
G01 Z-0.1778 F254.00 
G01 X9.8342 Y15.2036 F600.00 
G01 X9.8334 Y15.2755 
G01 X9.8602 Y15.3403 
G01 X9.8651 Y15.3452 
G01 X10.4945 Y15.9746 
G01 X10.5592 Y16.0014 
G01 X10.6293 Y16.0014 
G01 X10.6941 Y15.9746 
G01 X10.7437 Y15.9250 
G01 X10.7705 Y15.8602 
G01 X10.7705 Y15.4167 
G01 X10.8242 Y15.4167 
G01 X10.8890 Y15.3899 
G01 X10.9386 Y15.3403 
G01 X10.9654 Y15.2755 
G01 X10.9654 Y15.2054 
G01 X10.9386 Y15.1407 
G01 X10.8890 Y15.0911 
G01 X10.8242 Y15.0643 
G01 X10.7705 Y15.0643 
G01 X10.7705 Y14.6207 
G01 X10.7437 Y14.5560 
G01 X10.6941 Y14.5064 
G01 X10.6293 Y14.4796 
G01 X10.5592 Y14.4796 
G01 X10.4945 Y14.5064 
G01 X10.4449 Y14.5560 
G01 X10.4181 Y14.6207 
G01 X10.4181 Y15.0643 
G01 X9.9745 Y15.0643 
G01 X9.9098 Y15.0911 
G01 X9.8602 Y15.1407 
G00 Z2.5600 
G00 X9.0538 Y15.4710 
G01 Z-0.1778 F254.00 
G01 X9.0538 Y15.5947 F600.00 
G01 X9.0164 Y15.5573 
G01 X9.0164 Y15.5084 
G01 X9.0538 Y15.4710 
G00 Z2.5600 
G00 X9.3013 Y23.0054 
G01 Z-0.1778 F254.00 
G01 X17.3687 Y23.0054 F600.00 
G01 X17.7820 Y23.1766 
G01 X18.9752 Y24.3698 
G01 X19.3684 Y24.7630 
G01 X19.5396 Y25.1763 
G01 X19.5396 Y29.9213 
G01 X19.5620 Y30.0049 
G01 X19.6053 Y30.0798 
G01 X20.0240 Y30.4986 
G01 X20.0852 Y30.5597 
G01 X20.1601 Y30.6030 
G01 X20.2437 Y30.6254 
G01 X22.4487 Y30.6254 
G01 X22.8620 Y30.7966 
G01 X24.6902 Y32.6248 
G01 X25.0834 Y33.0180 
G01 X25.2546 Y33.4313 
G01 X25.2546 Y36.5869 
G01 X25.2770 Y36.6705 
G01 X25.3203 Y36.7454 
G01 X25.3246 Y36.7498 
G01 X25.3814 Y36.8066 
G01 X25.5254 Y36.9506 
G01 X25.5910 Y37.1088 
G01 X25.5966 Y37.1298 
G01 X25.6075 Y37.1487 
G01 X25.6158 Y37.1687 
G01 X25.6290 Y37.1859 
G01 X25.6399 Y37.2048 
G01 X25.6552 Y37.2201 
G01 X25.6685 Y37.2374 
G01 X25.6857 Y37.2506 
G01 X25.7011 Y37.2659 
G01 X25.7199 Y37.2768 
G01 X25.7371 Y37.2900 
G01 X25.7572 Y37.2983 
G01 X25.7760 Y37.3092 
G01 X25.7970 Y37.3148 
G01 X25.8170 Y37.3231 
G01 X25.8386 Y37.3260 
G01 X25.8596 Y37.3316 
G01 X25.8813 Y37.3316 
G01 X25.9028 Y37.3344 
G01 X25.9244 Y37.3316 
G01 X25.9461 Y37.3316 
G01 X25.9671 Y37.3260 
G01 X25.9832 Y37.3238 
G01 X25.9450 Y37.3397 
G01 X25.9097 Y37.3750 
G01 X25.8906 Y37.4211 
G01 X25.8906 Y38.7789 
G01 X25.9097 Y38.8250 
G01 X25.9450 Y38.8603 
G01 X25.9832 Y38.8761 
G01 X25.9671 Y38.8740 
G01 X25.9461 Y38.8684 
G01 X25.9244 Y38.8684 
G01 X25.9028 Y38.8656 
G01 X25.8813 Y38.8684 
G01 X25.8596 Y38.8684 
G01 X25.8386 Y38.8740 
G01 X25.8170 Y38.8769 
G01 X25.7970 Y38.8852 
G01 X25.7760 Y38.8908 
G01 X25.7572 Y38.9017 
G01 X25.7371 Y38.9100 
G01 X25.7199 Y38.9232 
G01 X25.7011 Y38.9340 
G01 X25.6857 Y38.9494 
G01 X25.6685 Y38.9626 
G01 X25.6552 Y38.9799 
G01 X25.6399 Y38.9952 
G01 X25.6290 Y39.0140 
G01 X25.6158 Y39.0313 
G01 X25.6075 Y39.0513 
G01 X25.5966 Y39.0701 
G01 X25.5910 Y39.0912 
G01 X25.5254 Y39.2494 
G01 X25.2794 Y39.4954 
G01 X24.9580 Y39.6286 
G01 X23.3020 Y39.6286 
G01 X23.0257 Y39.5141 
G01 X22.9458 Y39.4810 
G01 X22.8600 Y39.4697 
G01 X22.7742 Y39.4810 
G01 X22.6943 Y39.5141 
G01 X22.4180 Y39.6286 
G01 X20.7620 Y39.6286 
G01 X20.4857 Y39.5141 
G01 X20.4058 Y39.4810 
G01 X20.3200 Y39.4697 
G01 X20.2342 Y39.4810 
G01 X20.1543 Y39.5141 
G01 X19.8780 Y39.6286 
G01 X18.2220 Y39.6286 
G01 X17.9457 Y39.5141 
G01 X17.8658 Y39.4810 
G01 X17.7800 Y39.4697 
G01 X17.6942 Y39.4810 
G01 X17.6143 Y39.5141 
G01 X17.3380 Y39.6286 
G01 X15.6820 Y39.6286 
G01 X15.3606 Y39.4954 
G01 X15.2166 Y39.3514 
G01 X15.1554 Y39.2903 
G01 X15.0805 Y39.2470 
G01 X14.9969 Y39.2246 
G01 X8.6663 Y39.2246 
G01 X8.2530 Y39.0534 
G01 X5.7898 Y36.5902 
G01 X5.3966 Y36.1970 
G01 X5.2254 Y35.7837 
G01 X5.2254 Y30.1739 
G01 X5.2282 Y30.1523 
G01 X5.2254 Y30.1308 
G01 X5.2254 Y30.1091 
G01 X5.2198 Y30.0881 
G01 X5.2169 Y30.0666 
G01 X5.2086 Y30.0465 
G01 X5.2030 Y30.0255 
G01 X5.1921 Y30.0067 
G01 X4.9754 Y29.4834 
G01 X4.9754 Y28.9366 
G01 X5.1847 Y28.4313 
G01 X5.5713 Y28.0447 
G01 X6.0766 Y27.8354 
G01 X6.5951 Y27.8354 
G01 X6.6786 Y27.8130 
G01 X6.7536 Y27.7697 
G01 X6.8147 Y27.7086 
G01 X6.8580 Y27.6336 
G01 X6.8804 Y27.5501 
G01 X6.8804 Y27.0599 
G01 X6.8580 Y26.9764 
G01 X6.8147 Y26.9014 
G01 X6.7536 Y26.8403 
G01 X6.6786 Y26.7970 
G01 X6.5951 Y26.7746 
G01 X6.0766 Y26.7746 
G01 X5.5713 Y26.5653 
G01 X5.1847 Y26.1786 
G01 X4.9754 Y25.6734 
G01 X4.9754 Y25.1266 
G01 X5.1921 Y24.6033 
G01 X5.2030 Y24.5845 
G01 X5.2086 Y24.5635 
G01 X5.2169 Y24.5434 
G01 X5.2198 Y24.5219 
G01 X5.2254 Y24.5009 
G01 X5.2254 Y24.4792 
G01 X5.2282 Y24.4577 
G01 X5.2254 Y24.4361 
G01 X5.2254 Y23.2713 
G01 X5.3966 Y22.8580 
G01 X5.7130 Y22.5416 
G01 X6.1263 Y22.3704 
G01 X6.5737 Y22.3704 
G01 X6.8353 Y22.4788 
G01 X6.1195 Y23.1946 
G01 X6.0496 Y23.2645 
G01 X6.0002 Y23.3501 
G01 X5.9746 Y23.4456 
G01 X5.9746 Y24.8987 
G01 X5.9513 Y24.9142 
G01 X5.8642 Y25.0013 
G01 X5.7958 Y25.1038 
G01 X5.7486 Y25.2176 
G01 X5.7246 Y25.3384 
G01 X5.7246 Y25.4616 
G01 X5.7486 Y25.5824 
G01 X5.7958 Y25.6962 
G01 X5.8642 Y25.7987 
G01 X5.9513 Y25.8858 
G01 X6.0538 Y25.9542 
G01 X6.1676 Y26.0014 
G01 X6.2884 Y26.0254 
G01 X6.4116 Y26.0254 
G01 X6.5324 Y26.0014 
G01 X6.6462 Y25.9542 
G01 X6.7487 Y25.8858 
G01 X6.8358 Y25.7987 
G01 X6.9042 Y25.6962 
G01 X6.9514 Y25.5824 
G01 X6.9754 Y25.4616 
G01 X6.9754 Y25.3384 
G01 X6.9514 Y25.2176 
G01 X6.9042 Y25.1038 
G01 X6.8358 Y25.0013 
G01 X6.7487 Y24.9142 
G01 X6.7254 Y24.8987 
G01 X6.7254 Y23.6505 
G01 X7.3662 Y23.0097 
G01 X7.4746 Y23.2713 
G01 X7.4746 Y23.7221 
G01 X7.4718 Y23.7436 
G01 X7.4746 Y23.7651 
G01 X7.4746 Y23.7869 
G01 X7.4802 Y23.8079 
G01 X7.4831 Y23.8294 
G01 X7.4914 Y23.8495 
G01 X7.4970 Y23.8704 
G01 X7.5079 Y23.8893 
G01 X7.5162 Y23.9093 
G01 X7.5294 Y23.9266 
G01 X7.5403 Y23.9454 
G01 X7.5556 Y23.9607 
G01 X7.5688 Y23.9780 
G01 X7.5861 Y23.9912 
G01 X7.6014 Y24.0066 
G01 X7.6202 Y24.0174 
G01 X7.6375 Y24.0306 
G01 X7.6576 Y24.0390 
G01 X7.6764 Y24.0498 
G01 X7.6973 Y24.0554 
G01 X7.7174 Y24.0638 
G01 X7.7390 Y24.0666 
G01 X7.7599 Y24.0722 
G01 X7.7817 Y24.0722 
G01 X7.8032 Y24.0750 
G01 X7.8247 Y24.0722 
G01 X7.8465 Y24.0722 
G01 X7.8674 Y24.0666 
G01 X7.8890 Y24.0637 
G01 X7.9090 Y24.0554 
G01 X7.9300 Y24.0498 
G01 X7.9488 Y24.0389 
G01 X7.9996 Y24.0179 
G01 X8.0206 Y24.0123 
G01 X8.0394 Y24.0014 
G01 X8.0595 Y23.9931 
G01 X8.0767 Y23.9799 
G01 X8.0955 Y23.9690 
G01 X8.1109 Y23.9537 
G01 X8.1281 Y23.9404 
G01 X8.1414 Y23.9232 
G01 X8.4948 Y23.5698 
G01 X8.8880 Y23.1766 
G01 X9.3013 Y23.0054 
G00 Z2.5600 
G00 X9.2945 Y23.8296 
G01 Z-0.1778 F254.00 
G01 X9.2246 Y23.8995 F600.00 
G01 X8.3440 Y24.7801 
G01 X8.3166 Y24.7746 
G01 X8.1934 Y24.7746 
G01 X8.0726 Y24.7986 
G01 X7.9588 Y24.8458 
G01 X7.8563 Y24.9142 
G01 X7.7692 Y25.0013 
G01 X7.7008 Y25.1038 
G01 X7.6536 Y25.2176 
G01 X7.6296 Y25.3384 
G01 X7.6296 Y25.4616 
G01 X7.6536 Y25.5824 
G01 X7.7008 Y25.6962 
G01 X7.7692 Y25.7987 
G01 X7.8563 Y25.8858 
G01 X7.9588 Y25.9542 
G01 X8.0726 Y26.0014 
G01 X8.1934 Y26.0254 
G01 X8.3166 Y26.0254 
G01 X8.4374 Y26.0014 
G01 X8.5512 Y25.9542 
G01 X8.6537 Y25.8858 
G01 X8.7408 Y25.7987 
G01 X8.8092 Y25.6962 
G01 X8.8564 Y25.5824 
G01 X8.8804 Y25.4616 
G01 X8.8804 Y25.3384 
G01 X8.8749 Y25.3110 
G01 X9.6805 Y24.5054 
G01 X16.9895 Y24.5054 
G01 X18.0396 Y25.5555 
G01 X18.0396 Y30.5294 
G01 X18.0652 Y30.6249 
G01 X18.1146 Y30.7105 
G01 X19.3846 Y31.9805 
G01 X19.4545 Y32.0504 
G01 X19.5401 Y32.0998 
G01 X19.6356 Y32.1254 
G01 X22.0695 Y32.1254 
G01 X23.7546 Y33.8105 
G01 X23.7546 Y37.3206 
G01 X23.4511 Y37.3206 
G01 X23.4050 Y37.3397 
G01 X23.3697 Y37.3750 
G01 X23.3506 Y37.4211 
G01 X23.3506 Y38.7789 
G01 X23.3697 Y38.8250 
G01 X23.4050 Y38.8603 
G01 X23.4511 Y38.8794 
G01 X24.8089 Y38.8794 
G01 X24.8550 Y38.8603 
G01 X24.8903 Y38.8250 
G01 X24.9094 Y38.7789 
G01 X24.9094 Y37.4211 
G01 X24.8903 Y37.3750 
G01 X24.8550 Y37.3397 
G01 X24.8089 Y37.3206 
G01 X24.5054 Y37.3206 
G01 X24.5054 Y33.6056 
G01 X24.4798 Y33.5101 
G01 X24.4304 Y33.4245 
G01 X24.3605 Y33.3546 
G01 X22.4555 Y31.4496 
G01 X22.3699 Y31.4002 
G01 X22.2744 Y31.3746 
G01 X19.8405 Y31.3746 
G01 X18.7904 Y30.3245 
G01 X18.7904 Y25.3506 
G01 X18.7648 Y25.2551 
G01 X18.7154 Y25.1695 
G01 X17.3755 Y23.8296 
G01 X17.2899 Y23.7802 
G01 X17.1944 Y23.7546 
G01 X9.4756 Y23.7546 
G01 X9.3801 Y23.7802 
G01 X9.2945 Y23.8296 
G00 Z2.5600 
G00 X9.4756 Y26.9296 
G01 Z-0.1778 F254.00 
G01 X8.7563 Y26.9296 F600.00 
G01 X8.7408 Y26.9063 
G01 X8.6537 Y26.8192 
G01 X8.5512 Y26.7508 
G01 X8.4374 Y26.7036 
G01 X8.3166 Y26.6796 
G01 X8.1934 Y26.6796 
G01 X8.0726 Y26.7036 
G01 X7.9588 Y26.7508 
G01 X7.8563 Y26.8192 
G01 X7.7692 Y26.9063 
G01 X7.7008 Y27.0088 
G01 X7.6536 Y27.1226 
G01 X7.6296 Y27.2434 
G01 X7.6296 Y27.3666 
G01 X7.6536 Y27.4874 
G01 X7.7008 Y27.6012 
G01 X7.7692 Y27.7037 
G01 X7.8563 Y27.7908 
G01 X7.9588 Y27.8592 
G01 X8.0726 Y27.9064 
G01 X8.1934 Y27.9304 
G01 X8.3166 Y27.9304 
G01 X8.4374 Y27.9064 
G01 X8.5512 Y27.8592 
G01 X8.6537 Y27.7908 
G01 X8.7408 Y27.7037 
G01 X8.7563 Y27.6804 
G01 X9.3695 Y27.6804 
G01 X9.7846 Y28.0955 
G01 X9.7846 Y32.4344 
G01 X9.8102 Y32.5299 
G01 X9.8596 Y32.6155 
G01 X11.1296 Y33.8855 
G01 X11.1995 Y33.9554 
G01 X11.2851 Y34.0048 
G01 X11.3806 Y34.0304 
G01 X20.1645 Y34.0304 
G01 X21.2146 Y35.0805 
G01 X21.2146 Y37.3206 
G01 X20.9111 Y37.3206 
G01 X20.8650 Y37.3397 
G01 X20.8297 Y37.3750 
G01 X20.8106 Y37.4211 
G01 X20.8106 Y38.7789 
G01 X20.8297 Y38.8250 
G01 X20.8650 Y38.8603 
G01 X20.9111 Y38.8794 
G01 X22.2689 Y38.8794 
G01 X22.3150 Y38.8603 
G01 X22.3503 Y38.8250 
G01 X22.3694 Y38.7789 
G01 X22.3694 Y37.4211 
G01 X22.3503 Y37.3750 
G01 X22.3150 Y37.3397 
G01 X22.2689 Y37.3206 
G01 X21.9654 Y37.3206 
G01 X21.9654 Y34.8756 
G01 X21.9398 Y34.7801 
G01 X21.8904 Y34.6945 
G01 X21.8205 Y34.6246 
G01 X20.5505 Y33.3546 
G01 X20.4649 Y33.3052 
G01 X20.3694 Y33.2796 
G01 X11.5855 Y33.2796 
G01 X10.5354 Y32.2295 
G01 X10.5354 Y27.8906 
G01 X10.5098 Y27.7951 
G01 X10.4604 Y27.7095 
G01 X10.3905 Y27.6396 
G01 X9.7555 Y27.0046 
G01 X9.6699 Y26.9552 
G01 X9.5744 Y26.9296 
G01 X9.4756 Y26.9296 
G00 Z2.5600 
G00 X8.6537 Y28.7242 
G01 Z-0.1778 F254.00 
G01 X8.5512 Y28.6558 F600.00 
G01 X8.4374 Y28.6086 
G01 X8.3166 Y28.5846 
G01 X8.1934 Y28.5846 
G01 X8.0726 Y28.6086 
G01 X7.9588 Y28.6558 
G01 X7.8563 Y28.7242 
G01 X7.7692 Y28.8113 
G01 X7.7008 Y28.9138 
G01 X7.6536 Y29.0276 
G01 X7.6296 Y29.1484 
G01 X7.6296 Y29.2716 
G01 X7.6536 Y29.3924 
G01 X7.7008 Y29.5062 
G01 X7.7692 Y29.6087 
G01 X7.8563 Y29.6958 
G01 X7.8796 Y29.7113 
G01 X7.8796 Y34.3394 
G01 X7.9052 Y34.4349 
G01 X7.9546 Y34.5205 
G01 X8.0245 Y34.5904 
G01 X9.2945 Y35.8604 
G01 X9.3801 Y35.9098 
G01 X9.4756 Y35.9354 
G01 X18.2595 Y35.9354 
G01 X18.6746 Y36.3505 
G01 X18.6746 Y37.3206 
G01 X18.3711 Y37.3206 
G01 X18.3250 Y37.3397 
G01 X18.2897 Y37.3750 
G01 X18.2706 Y37.4211 
G01 X18.2706 Y38.7789 
G01 X18.2897 Y38.8250 
G01 X18.3250 Y38.8603 
G01 X18.3711 Y38.8794 
G01 X19.7289 Y38.8794 
G01 X19.7750 Y38.8603 
G01 X19.8103 Y38.8250 
G01 X19.8294 Y38.7789 
G01 X19.8294 Y37.4211 
G01 X19.8103 Y37.3750 
G01 X19.7750 Y37.3397 
G01 X19.7289 Y37.3206 
G01 X19.4254 Y37.3206 
G01 X19.4254 Y36.1456 
G01 X19.3998 Y36.0501 
G01 X19.3504 Y35.9645 
G01 X18.7154 Y35.3295 
G01 X18.6455 Y35.2596 
G01 X18.5599 Y35.2102 
G01 X18.4644 Y35.1846 
G01 X9.6805 Y35.1846 
G01 X8.6304 Y34.1345 
G01 X8.6304 Y29.7113 
G01 X8.6537 Y29.6958 
G01 X8.7408 Y29.6087 
G01 X8.8092 Y29.5062 
G01 X8.8564 Y29.3924 
G01 X8.8804 Y29.2716 
G01 X8.8804 Y29.1484 
G01 X8.8564 Y29.0276 
G01 X8.8092 Y28.9138 
G01 X8.7408 Y28.8113 
G01 X8.6537 Y28.7242 
G00 Z2.5600 
G00 X6.7487 Y28.7242 
G01 Z-0.1778 F254.00 
G01 X6.6462 Y28.6558 F600.00 
G01 X6.5324 Y28.6086 
G01 X6.4116 Y28.5846 
G01 X6.2884 Y28.5846 
G01 X6.1676 Y28.6086 
G01 X6.0538 Y28.6558 
G01 X5.9513 Y28.7242 
G01 X5.8642 Y28.8113 
G01 X5.7958 Y28.9138 
G01 X5.7486 Y29.0276 
G01 X5.7246 Y29.1484 
G01 X5.7246 Y29.2716 
G01 X5.7486 Y29.3924 
G01 X5.7958 Y29.5062 
G01 X5.8642 Y29.6087 
G01 X5.9513 Y29.6958 
G01 X5.9746 Y29.7113 
G01 X5.9746 Y35.6094 
G01 X6.0002 Y35.7049 
G01 X6.0496 Y35.7905 
G01 X6.1195 Y35.8604 
G01 X8.6595 Y38.4004 
G01 X8.7451 Y38.4498 
G01 X8.8406 Y38.4754 
G01 X8.9394 Y38.4754 
G01 X15.7306 Y38.4754 
G01 X15.7306 Y38.7789 
G01 X15.7497 Y38.8250 
G01 X15.7850 Y38.8603 
G01 X15.8311 Y38.8794 
G01 X17.1889 Y38.8794 
G01 X17.2350 Y38.8603 
G01 X17.2703 Y38.8250 
G01 X17.2894 Y38.7789 
G01 X17.2894 Y37.4211 
G01 X17.2703 Y37.3750 
G01 X17.2350 Y37.3397 
G01 X17.1889 Y37.3206 
G01 X15.8311 Y37.3206 
G01 X15.7850 Y37.3397 
G01 X15.7497 Y37.3750 
G01 X15.7306 Y37.4211 
G01 X15.7306 Y37.7246 
G01 X9.0455 Y37.7246 
G01 X6.7254 Y35.4045 
G01 X6.7254 Y29.7113 
G01 X6.7487 Y29.6958 
G01 X6.8358 Y29.6087 
G01 X6.9042 Y29.5062 
G01 X6.9514 Y29.3924 
G01 X6.9754 Y29.2716 
G01 X6.9754 Y29.1484 
G01 X6.9514 Y29.0276 
G01 X6.9042 Y28.9138 
G01 X6.8358 Y28.8113 
G01 X6.7487 Y28.7242 
G00 Z2.5600 
G00 X30.6254 Y25.9587 
G01 Z-0.1778 F254.00 
G01 X30.6030 Y25.8751 F600.00 
G01 X30.5597 Y25.8002 
G01 X28.6498 Y23.8902 
G01 X28.5886 Y23.8290 
G01 X28.2566 Y23.4970 
G01 X28.0854 Y23.0837 
G01 X28.0854 Y16.7531 
G01 X28.0630 Y16.6695 
G01 X28.0197 Y16.5946 
G01 X27.8145 Y16.3894 
G01 X27.6814 Y16.0680 
G01 X27.6814 Y14.4120 
G01 X27.7958 Y14.1357 
G01 X27.8290 Y14.0558 
G01 X27.8403 Y13.9700 
G01 X27.8290 Y13.8842 
G01 X27.7959 Y13.8043 
G01 X27.6814 Y13.5280 
G01 X27.6814 Y11.8720 
G01 X27.8145 Y11.5506 
G01 X28.0606 Y11.3045 
G01 X28.3820 Y11.1714 
G01 X30.0380 Y11.1714 
G01 X30.3594 Y11.3045 
G01 X30.6054 Y11.5506 
G01 X30.7386 Y11.8720 
G01 X30.7386 Y13.5280 
G01 X30.6241 Y13.8043 
G01 X30.5910 Y13.8842 
G01 X30.5797 Y13.9700 
G01 X30.5910 Y14.0558 
G01 X30.6241 Y14.1357 
G01 X30.7386 Y14.4120 
G01 X30.7386 Y16.0680 
G01 X30.6054 Y16.3894 
G01 X30.4614 Y16.5334 
G01 X30.4002 Y16.5946 
G01 X30.3570 Y16.6695 
G01 X30.3346 Y16.7531 
G01 X30.3346 Y22.3013 
G01 X30.3570 Y22.3849 
G01 X30.4002 Y22.4598 
G01 X30.4373 Y22.4969 
G01 X30.4614 Y22.5210 
G01 X32.7034 Y24.7630 
G01 X32.7137 Y24.7878 
G01 X32.7330 Y24.8344 
G01 X32.7856 Y24.9030 
G01 X32.8543 Y24.9557 
G01 X32.9342 Y24.9888 
G01 X33.0200 Y25.0001 
G01 X33.1058 Y24.9888 
G01 X33.1473 Y24.9716 
G01 X33.1857 Y24.9557 
G01 X33.2544 Y24.9030 
G01 X33.3070 Y24.8344 
G01 X33.3366 Y24.7630 
G01 X35.5786 Y22.5210 
G01 X35.6397 Y22.4598 
G01 X35.6830 Y22.3849 
G01 X35.7054 Y22.3013 
G01 X35.7054 Y16.7531 
G01 X35.6830 Y16.6695 
G01 X35.6397 Y16.5946 
G01 X35.4345 Y16.3894 
G01 X35.3014 Y16.0680 
G01 X35.3014 Y14.4120 
G01 X35.4158 Y14.1357 
G01 X35.4490 Y14.0558 
G01 X35.4603 Y13.9700 
G01 X35.4490 Y13.8842 
G01 X35.4158 Y13.8043 
G01 X35.3014 Y13.5280 
G01 X35.3014 Y11.8720 
G01 X35.4345 Y11.5506 
G01 X35.6806 Y11.3045 
G01 X36.0020 Y11.1714 
G01 X37.6580 Y11.1714 
G01 X37.9794 Y11.3045 
G01 X38.2254 Y11.5506 
G01 X38.3586 Y11.8720 
G01 X38.3586 Y13.5280 
G01 X38.2441 Y13.8043 
G01 X38.2110 Y13.8842 
G01 X38.1997 Y13.9700 
G01 X38.2110 Y14.0558 
G01 X38.2441 Y14.1357 
G01 X38.3586 Y14.4120 
G01 X38.3586 Y16.0680 
G01 X38.2254 Y16.3894 
G01 X38.0814 Y16.5334 
G01 X38.0202 Y16.5946 
G01 X37.9770 Y16.6695 
G01 X37.9546 Y16.7531 
G01 X37.9546 Y23.0837 
G01 X37.7834 Y23.4970 
G01 X37.4514 Y23.8290 
G01 X37.4207 Y23.8597 
G01 X37.3902 Y23.8902 
G01 X35.5110 Y25.7695 
G01 X35.4802 Y25.8002 
G01 X35.4370 Y25.8751 
G01 X35.4146 Y25.9587 
G01 X35.4146 Y36.3014 
G01 X35.4118 Y36.3229 
G01 X35.4146 Y36.3445 
G01 X35.4146 Y36.3662 
G01 X35.4202 Y36.3872 
G01 X35.4231 Y36.4087 
G01 X35.4314 Y36.4288 
G01 X35.4370 Y36.4498 
G01 X35.4479 Y36.4686 
G01 X35.4562 Y36.4887 
G01 X35.4694 Y36.5059 
G01 X35.4802 Y36.5247 
G01 X35.4956 Y36.5401 
G01 X35.5088 Y36.5573 
G01 X35.5261 Y36.5705 
G01 X35.5414 Y36.5859 
G01 X35.5602 Y36.5967 
G01 X35.5775 Y36.6100 
G01 X35.5975 Y36.6183 
G01 X35.6164 Y36.6291 
G01 X35.6373 Y36.6348 
G01 X35.6574 Y36.6431 
G01 X35.6790 Y36.6459 
G01 X35.6999 Y36.6515 
G01 X35.7217 Y36.6515 
G01 X35.7432 Y36.6544 
G01 X35.7647 Y36.6515 
G01 X35.7865 Y36.6515 
G01 X35.8074 Y36.6459 
G01 X35.8290 Y36.6431 
G01 X35.8490 Y36.6348 
G01 X35.8700 Y36.6291 
G01 X35.8888 Y36.6183 
G01 X36.0020 Y36.5714 
G01 X37.6580 Y36.5714 
G01 X37.9343 Y36.6858 
G01 X38.0142 Y36.7190 
G01 X38.1000 Y36.7303 
G01 X38.1858 Y36.7190 
G01 X38.2657 Y36.6859 
G01 X38.5420 Y36.5714 
G01 X40.1980 Y36.5714 
G01 X40.4743 Y36.6858 
G01 X40.5542 Y36.7190 
G01 X40.6400 Y36.7303 
G01 X40.7258 Y36.7190 
G01 X40.8057 Y36.6859 
G01 X41.0820 Y36.5714 
G01 X42.7380 Y36.5714 
G01 X42.9081 Y36.6419 
G01 X42.9881 Y36.6750 
G01 X43.0635 Y36.6849 
G01 X43.0739 Y36.6863 
G01 X43.0880 Y36.6844 
G01 X43.1597 Y36.6750 
G01 X43.1814 Y36.6660 
G01 X43.2396 Y36.6419 
G01 X43.2932 Y36.6007 
G01 X43.3082 Y36.5892 
G01 X43.3609 Y36.5206 
G01 X43.4966 Y36.1930 
G01 X70.0898 Y9.5998 
G01 X70.4830 Y9.2066 
G01 X70.8963 Y9.0354 
G01 X99.2837 Y9.0354 
G01 X99.6970 Y9.2066 
G01 X105.1470 Y14.6566 
G01 X105.2082 Y14.7178 
G01 X105.2832 Y14.7611 
G01 X105.3667 Y14.7835 
G01 X105.4533 Y14.7835 
G01 X105.5368 Y14.7611 
G01 X105.6118 Y14.7178 
G01 X111.1230 Y9.2066 
G01 X111.5363 Y9.0354 
G01 X162.7837 Y9.0354 
G01 X163.1970 Y9.2066 
G01 X163.5290 Y9.5386 
G01 X168.6471 Y14.6566 
G01 X168.7082 Y14.7178 
G01 X168.7832 Y14.7611 
G01 X168.8667 Y14.7835 
G01 X168.9533 Y14.7835 
G01 X169.0368 Y14.7611 
G01 X169.1118 Y14.7178 
G01 X174.6230 Y9.2066 
G01 X175.0363 Y9.0354 
G01 X175.5058 Y9.0354 
G01 X236.4437 Y9.0354 
G01 X236.8570 Y9.2066 
G01 X237.1890 Y9.5386 
G01 X243.5234 Y15.8730 
G01 X243.6946 Y16.2863 
G01 X243.6946 Y36.5869 
G01 X243.7170 Y36.6705 
G01 X243.7603 Y36.7454 
G01 X243.7646 Y36.7498 
G01 X243.8214 Y36.8066 
G01 X243.9654 Y36.9506 
G01 X244.0986 Y37.2720 
G01 X244.0986 Y38.9280 
G01 X243.9654 Y39.2494 
G01 X243.8214 Y39.3934 
G01 X243.7603 Y39.4546 
G01 X243.7170 Y39.5295 
G01 X243.7160 Y39.5331 
G01 X243.6946 Y39.6131 
G01 X243.6946 Y86.1169 
G01 X243.7170 Y86.2005 
G01 X243.7603 Y86.2754 
G01 X243.9654 Y86.4806 
G01 X244.0986 Y86.8020 
G01 X244.0986 Y88.4580 
G01 X243.9654 Y88.7794 
G01 X243.8214 Y88.9234 
G01 X243.7603 Y88.9846 
G01 X243.7170 Y89.0595 
G01 X243.6946 Y89.1431 
G01 X243.6946 Y135.6469 
G01 X243.7170 Y135.7305 
G01 X243.7603 Y135.8054 
G01 X243.7646 Y135.8098 
G01 X243.8214 Y135.8666 
G01 X243.9654 Y136.0106 
G01 X244.0986 Y136.3320 
G01 X244.0986 Y137.9880 
G01 X243.9654 Y138.3094 
G01 X243.7603 Y138.5146 
G01 X243.7170 Y138.5895 
G01 X243.6946 Y138.6731 
G01 X243.6946 Y185.1769 
G01 X243.7170 Y185.2604 
G01 X243.7603 Y185.3354 
G01 X243.9654 Y185.5406 
G01 X244.0986 Y185.8620 
G01 X244.0986 Y187.5180 
G01 X243.9654 Y187.8394 
G01 X243.7194 Y188.0854 
G01 X243.3980 Y188.2186 
G01 X241.7420 Y188.2186 
G01 X241.4657 Y188.1041 
G01 X241.3858 Y188.0710 
G01 X241.3000 Y188.0597 
G01 X241.2142 Y188.0710 
G01 X241.1343 Y188.1041 
G01 X240.8580 Y188.2186 
G01 X239.2020 Y188.2186 
G01 X238.9257 Y188.1041 
G01 X238.8458 Y188.0710 
G01 X238.7600 Y188.0597 
G01 X238.6742 Y188.0710 
G01 X238.5943 Y188.1041 
G01 X238.3180 Y188.2186 
G01 X236.6620 Y188.2186 
G01 X236.4119 Y188.1150 
G01 X236.3261 Y188.1037 
G01 X236.2403 Y188.1150 
G01 X236.2063 Y188.1291 
G01 X236.1604 Y188.1481 
G01 X236.0959 Y188.1976 
G01 X236.0918 Y188.2008 
G01 X236.0391 Y188.2694 
G01 X236.0060 Y188.3493 
G01 X235.9034 Y188.5970 
G01 X235.5714 Y188.9290 
G01 X233.0470 Y191.4534 
G01 X232.6337 Y191.6246 
G01 X166.1463 Y191.6246 
G01 X165.7330 Y191.4534 
G01 X165.4010 Y191.1214 
G01 X162.8766 Y188.5970 
G01 X162.8470 Y188.5256 
G01 X162.7944 Y188.4570 
G01 X162.7257 Y188.4043 
G01 X162.6865 Y188.3881 
G01 X162.6458 Y188.3712 
G01 X162.5600 Y188.3599 
G01 X162.4742 Y188.3712 
G01 X162.3943 Y188.4043 
G01 X162.3256 Y188.4570 
G01 X162.2730 Y188.5256 
G01 X162.2533 Y188.5731 
G01 X162.2434 Y188.5970 
G01 X161.9114 Y188.9290 
G01 X159.3870 Y191.4534 
G01 X158.9737 Y191.6246 
G01 X102.6463 Y191.6246 
G01 X102.2330 Y191.4534 
G01 X101.9010 Y191.1214 
G01 X99.3766 Y188.5970 
G01 X99.3663 Y188.5722 
G01 X99.3470 Y188.5256 
G01 X99.2944 Y188.4570 
G01 X99.2257 Y188.4043 
G01 X99.1458 Y188.3712 
G01 X99.0600 Y188.3599 
G01 X98.9742 Y188.3712 
G01 X98.9327 Y188.3884 
G01 X98.8943 Y188.4043 
G01 X98.8256 Y188.4570 
G01 X98.7730 Y188.5256 
G01 X98.7434 Y188.5970 
G01 X95.8870 Y191.4534 
G01 X95.4737 Y191.6246 
G01 X41.6863 Y191.6246 
G01 X41.2730 Y191.4534 
G01 X40.9410 Y191.1214 
G01 X38.4166 Y188.5970 
G01 X38.3140 Y188.3493 
G01 X38.2809 Y188.2694 
G01 X38.2282 Y188.2008 
G01 X38.1596 Y188.1481 
G01 X38.1118 Y188.1283 
G01 X38.0797 Y188.1150 
G01 X37.9939 Y188.1037 
G01 X37.9081 Y188.1150 
G01 X37.6580 Y188.2186 
G01 X36.0020 Y188.2186 
G01 X35.7257 Y188.1041 
G01 X35.6458 Y188.0710 
G01 X35.5600 Y188.0597 
G01 X35.4742 Y188.0710 
G01 X35.3943 Y188.1041 
G01 X35.1180 Y188.2186 
G01 X33.4620 Y188.2186 
G01 X33.1857 Y188.1041 
G01 X33.1058 Y188.0710 
G01 X33.0200 Y188.0597 
G01 X32.9342 Y188.0710 
G01 X32.8543 Y188.1041 
G01 X32.5780 Y188.2186 
G01 X30.9220 Y188.2186 
G01 X30.6457 Y188.1041 
G01 X30.5658 Y188.0710 
G01 X30.4800 Y188.0597 
G01 X30.3942 Y188.0710 
G01 X30.3143 Y188.1041 
G01 X30.0380 Y188.2186 
G01 X28.3820 Y188.2186 
G01 X28.0606 Y188.0854 
G01 X27.8145 Y187.8394 
G01 X27.7490 Y187.6812 
G01 X27.7434 Y187.6601 
G01 X27.7325 Y187.6413 
G01 X27.7242 Y187.6213 
G01 X27.7110 Y187.6040 
G01 X27.7001 Y187.5852 
G01 X27.6848 Y187.5699 
G01 X27.6715 Y187.5526 
G01 X27.6543 Y187.5394 
G01 X27.6389 Y187.5240 
G01 X27.6201 Y187.5132 
G01 X27.6029 Y187.5000 
G01 X27.5828 Y187.4917 
G01 X27.5640 Y187.4808 
G01 X27.5430 Y187.4752 
G01 X27.5230 Y187.4669 
G01 X27.5014 Y187.4640 
G01 X27.4804 Y187.4584 
G01 X27.4587 Y187.4584 
G01 X27.4372 Y187.4556 
G01 X27.4156 Y187.4584 
G01 X27.3939 Y187.4584 
G01 X27.3729 Y187.4640 
G01 X27.3568 Y187.4661 
G01 X27.3950 Y187.4503 
G01 X27.4303 Y187.4150 
G01 X27.4494 Y187.3689 
G01 X27.4494 Y186.0111 
G01 X27.4303 Y185.9650 
G01 X27.3950 Y185.9297 
G01 X27.3568 Y185.9138 
G01 X27.3729 Y185.9160 
G01 X27.3939 Y185.9216 
G01 X27.4156 Y185.9216 
G01 X27.4372 Y185.9244 
G01 X27.4587 Y185.9216 
G01 X27.4804 Y185.9216 
G01 X27.5014 Y185.9160 
G01 X27.5230 Y185.9131 
G01 X27.5430 Y185.9048 
G01 X27.5640 Y185.8992 
G01 X27.5828 Y185.8883 
G01 X27.6029 Y185.8800 
G01 X27.6201 Y185.8668 
G01 X27.6389 Y185.8559 
G01 X27.6543 Y185.8406 
G01 X27.6715 Y185.8274 
G01 X27.6848 Y185.8101 
G01 X27.7001 Y185.7948 
G01 X27.7110 Y185.7759 
G01 X27.7242 Y185.7587 
G01 X27.7325 Y185.7387 
G01 X27.7434 Y185.7198 
G01 X27.7490 Y185.6988 
G01 X27.8145 Y185.5406 
G01 X28.0606 Y185.2945 
G01 X28.3820 Y185.1614 
G01 X30.0380 Y185.1614 
G01 X30.1511 Y185.2083 
G01 X30.1700 Y185.2191 
G01 X30.1910 Y185.2248 
G01 X30.2110 Y185.2331 
G01 X30.2325 Y185.2359 
G01 X30.2535 Y185.2415 
G01 X30.2753 Y185.2415 
G01 X30.2968 Y185.2444 
G01 X30.3183 Y185.2415 
G01 X30.3401 Y185.2415 
G01 X30.3610 Y185.2359 
G01 X30.3826 Y185.2331 
G01 X30.4026 Y185.2248 
G01 X30.4236 Y185.2191 
G01 X30.4424 Y185.2083 
G01 X30.4625 Y185.2000 
G01 X30.4797 Y185.1867 
G01 X30.4986 Y185.1759 
G01 X30.5139 Y185.1605 
G01 X30.5312 Y185.1473 
G01 X30.5444 Y185.1301 
G01 X30.5597 Y185.1147 
G01 X30.5706 Y185.0959 
G01 X30.5838 Y185.0787 
G01 X30.5921 Y185.0586 
G01 X30.6030 Y185.0398 
G01 X30.6086 Y185.0188 
G01 X30.6169 Y184.9987 
G01 X30.6198 Y184.9772 
G01 X30.6254 Y184.9562 
G01 X30.6254 Y184.9345 
G01 X30.6282 Y184.9129 
G01 X30.6254 Y184.8914 
G01 X30.6254 Y174.5487 
G01 X30.6030 Y174.4651 
G01 X30.5597 Y174.3902 
G01 X28.6498 Y172.4802 
G01 X28.5886 Y172.4190 
G01 X28.2566 Y172.0870 
G01 X28.0854 Y171.6737 
G01 X28.0854 Y165.3431 
G01 X28.0630 Y165.2595 
G01 X28.0197 Y165.1846 
G01 X27.8145 Y164.9794 
G01 X27.6814 Y164.6580 
G01 X27.6814 Y163.0020 
G01 X27.7958 Y162.7257 
G01 X27.8290 Y162.6458 
G01 X27.8403 Y162.5600 
G01 X27.8290 Y162.4742 
G01 X27.7959 Y162.3943 
G01 X27.6814 Y162.1180 
G01 X27.6814 Y160.4620 
G01 X27.8145 Y160.1406 
G01 X27.9586 Y159.9966 
G01 X28.0197 Y159.9354 
G01 X28.0630 Y159.8604 
G01 X28.0854 Y159.7769 
G01 X28.0854 Y138.6731 
G01 X28.0630 Y138.5895 
G01 X28.0197 Y138.5146 
G01 X27.8145 Y138.3094 
G01 X27.7490 Y138.1512 
G01 X27.7434 Y138.1302 
G01 X27.7325 Y138.1114 
G01 X27.7242 Y138.0913 
G01 X27.7110 Y138.0741 
G01 X27.7001 Y138.0552 
G01 X27.6847 Y138.0399 
G01 X27.6715 Y138.0226 
G01 X27.6543 Y138.0094 
G01 X27.6389 Y137.9941 
G01 X27.6201 Y137.9832 
G01 X27.6029 Y137.9700 
G01 X27.5828 Y137.9617 
G01 X27.5640 Y137.9508 
G01 X27.5430 Y137.9452 
G01 X27.5230 Y137.9369 
G01 X27.5014 Y137.9340 
G01 X27.4804 Y137.9284 
G01 X27.4587 Y137.9284 
G01 X27.4372 Y137.9256 
G01 X27.4156 Y137.9284 
G01 X27.3939 Y137.9284 
G01 X27.3729 Y137.9340 
G01 X27.3568 Y137.9361 
G01 X27.3950 Y137.9203 
G01 X27.4303 Y137.8850 
G01 X27.4494 Y137.8389 
G01 X27.4494 Y136.4811 
G01 X27.4303 Y136.4350 
G01 X27.3950 Y136.3997 
G01 X27.3568 Y136.3838 
G01 X27.3729 Y136.3860 
G01 X27.3939 Y136.3916 
G01 X27.4156 Y136.3916 
G01 X27.4372 Y136.3944 
G01 X27.4587 Y136.3916 
G01 X27.4804 Y136.3916 
G01 X27.5014 Y136.3860 
G01 X27.5230 Y136.3831 
G01 X27.5430 Y136.3748 
G01 X27.5640 Y136.3692 
G01 X27.5828 Y136.3583 
G01 X27.6029 Y136.3500 
G01 X27.6201 Y136.3368 
G01 X27.6389 Y136.3259 
G01 X27.6543 Y136.3106 
G01 X27.6715 Y136.2973 
G01 X27.6847 Y136.2801 
G01 X27.7001 Y136.2648 
G01 X27.7110 Y136.2459 
G01 X27.7242 Y136.2287 
G01 X27.7325 Y136.2086 
G01 X27.7434 Y136.1898 
G01 X27.7490 Y136.1688 
G01 X27.8145 Y136.0106 
G01 X28.0606 Y135.7645 
G01 X28.3820 Y135.6314 
G01 X30.0380 Y135.6314 
G01 X30.1511 Y135.6783 
G01 X30.1700 Y135.6891 
G01 X30.1910 Y135.6948 
G01 X30.2110 Y135.7031 
G01 X30.2325 Y135.7059 
G01 X30.2535 Y135.7115 
G01 X30.2753 Y135.7115 
G01 X30.2968 Y135.7144 
G01 X30.3183 Y135.7115 
G01 X30.3401 Y135.7115 
G01 X30.3610 Y135.7059 
G01 X30.3826 Y135.7031 
G01 X30.4027 Y135.6948 
G01 X30.4236 Y135.6891 
G01 X30.4424 Y135.6783 
G01 X30.4625 Y135.6700 
G01 X30.4797 Y135.6567 
G01 X30.4986 Y135.6459 
G01 X30.5139 Y135.6305 
G01 X30.5312 Y135.6173 
G01 X30.5444 Y135.6001 
G01 X30.5597 Y135.5847 
G01 X30.5706 Y135.5659 
G01 X30.5838 Y135.5487 
G01 X30.5921 Y135.5286 
G01 X30.6030 Y135.5098 
G01 X30.6086 Y135.4888 
G01 X30.6169 Y135.4687 
G01 X30.6198 Y135.4472 
G01 X30.6254 Y135.4262 
G01 X30.6254 Y135.4045 
G01 X30.6282 Y135.3829 
G01 X30.6254 Y135.3614 
G01 X30.6254 Y125.0187 
G01 X30.6030 Y124.9351 
G01 X30.5597 Y124.8602 
G01 X28.6498 Y122.9502 
G01 X28.5886 Y122.8890 
G01 X28.2566 Y122.5570 
G01 X28.0854 Y122.1437 
G01 X28.0854 Y115.8131 
G01 X28.0630 Y115.7295 
G01 X28.0197 Y115.6546 
G01 X27.8145 Y115.4494 
G01 X27.6814 Y115.1280 
G01 X27.6814 Y113.4720 
G01 X27.7958 Y113.1957 
G01 X27.8290 Y113.1158 
G01 X27.8403 Y113.0300 
G01 X27.8290 Y112.9442 
G01 X27.7959 Y112.8643 
G01 X27.6814 Y112.5880 
G01 X27.6814 Y110.9320 
G01 X27.8145 Y110.6106 
G01 X27.9586 Y110.4666 
G01 X28.0197 Y110.4054 
G01 X28.0630 Y110.3304 
G01 X28.0854 Y110.2469 
G01 X28.0854 Y89.1431 
G01 X28.0630 Y89.0595 
G01 X28.0197 Y88.9846 
G01 X27.9586 Y88.9234 
G01 X27.8145 Y88.7794 
G01 X27.7490 Y88.6212 
G01 X27.7434 Y88.6002 
G01 X27.7325 Y88.5814 
G01 X27.7242 Y88.5613 
G01 X27.7110 Y88.5441 
G01 X27.7001 Y88.5252 
G01 X27.6847 Y88.5099 
G01 X27.6715 Y88.4926 
G01 X27.6543 Y88.4794 
G01 X27.6389 Y88.4641 
G01 X27.6201 Y88.4532 
G01 X27.6029 Y88.4400 
G01 X27.5828 Y88.4317 
G01 X27.5640 Y88.4208 
G01 X27.5430 Y88.4152 
G01 X27.5229 Y88.4069 
G01 X27.5014 Y88.4040 
G01 X27.4804 Y88.3984 
G01 X27.4587 Y88.3984 
G01 X27.4372 Y88.3956 
G01 X27.4156 Y88.3984 
G01 X27.3939 Y88.3984 
G01 X27.3729 Y88.4040 
G01 X27.3568 Y88.4062 
G01 X27.3950 Y88.3903 
G01 X27.4303 Y88.3550 
G01 X27.4494 Y88.3089 
G01 X27.4494 Y86.9511 
G01 X27.4303 Y86.9050 
G01 X27.3950 Y86.8697 
G01 X27.3568 Y86.8538 
G01 X27.3729 Y86.8560 
G01 X27.3939 Y86.8616 
G01 X27.4156 Y86.8616 
G01 X27.4372 Y86.8644 
G01 X27.4587 Y86.8616 
G01 X27.4804 Y86.8616 
G01 X27.5014 Y86.8560 
G01 X27.5229 Y86.8531 
G01 X27.5430 Y86.8448 
G01 X27.5640 Y86.8392 
G01 X27.5828 Y86.8283 
G01 X27.6029 Y86.8200 
G01 X27.6201 Y86.8068 
G01 X27.6389 Y86.7959 
G01 X27.6543 Y86.7806 
G01 X27.6715 Y86.7674 
G01 X27.6847 Y86.7501 
G01 X27.7001 Y86.7348 
G01 X27.7110 Y86.7159 
G01 X27.7242 Y86.6987 
G01 X27.7325 Y86.6786 
G01 X27.7434 Y86.6598 
G01 X27.7490 Y86.6388 
G01 X27.8145 Y86.4806 
G01 X28.0606 Y86.2345 
G01 X28.3820 Y86.1014 
G01 X30.0380 Y86.1014 
G01 X30.1511 Y86.1483 
G01 X30.1700 Y86.1591 
G01 X30.1910 Y86.1648 
G01 X30.2110 Y86.1731 
G01 X30.2325 Y86.1759 
G01 X30.2535 Y86.1815 
G01 X30.2753 Y86.1815 
G01 X30.2968 Y86.1844 
G01 X30.3183 Y86.1815 
G01 X30.3401 Y86.1815 
G01 X30.3610 Y86.1759 
G01 X30.3826 Y86.1731 
G01 X30.4027 Y86.1648 
G01 X30.4236 Y86.1591 
G01 X30.4424 Y86.1483 
G01 X30.4625 Y86.1400 
G01 X30.4797 Y86.1267 
G01 X30.4986 Y86.1159 
G01 X30.5139 Y86.1005 
G01 X30.5312 Y86.0873 
G01 X30.5444 Y86.0701 
G01 X30.5597 Y86.0547 
G01 X30.5706 Y86.0359 
G01 X30.5838 Y86.0187 
G01 X30.5921 Y85.9986 
G01 X30.6030 Y85.9798 
G01 X30.6086 Y85.9588 
G01 X30.6169 Y85.9387 
G01 X30.6198 Y85.9172 
G01 X30.6254 Y85.8962 
G01 X30.6254 Y85.8745 
G01 X30.6282 Y85.8529 
G01 X30.6254 Y85.8314 
G01 X30.6254 Y75.4887 
G01 X30.6030 Y75.4051 
G01 X30.5597 Y75.3302 
G01 X28.6498 Y73.4202 
G01 X28.2566 Y73.0270 
G01 X28.0854 Y72.6137 
G01 X28.0854 Y66.2831 
G01 X28.0630 Y66.1995 
G01 X28.0197 Y66.1246 
G01 X28.0153 Y66.1202 
G01 X27.9586 Y66.0634 
G01 X27.8145 Y65.9194 
G01 X27.6814 Y65.5980 
G01 X27.6814 Y63.9420 
G01 X27.7958 Y63.6657 
G01 X27.8290 Y63.5858 
G01 X27.8403 Y63.5000 
G01 X27.8290 Y63.4142 
G01 X27.7959 Y63.3343 
G01 X27.6814 Y63.0580 
G01 X27.6814 Y61.4020 
G01 X27.8145 Y61.0806 
G01 X27.9586 Y60.9366 
G01 X28.0197 Y60.8754 
G01 X28.0630 Y60.8005 
G01 X28.0640 Y60.7969 
G01 X28.0854 Y60.7169 
G01 X28.0854 Y39.6131 
G01 X28.0630 Y39.5295 
G01 X28.0197 Y39.4546 
G01 X27.8145 Y39.2494 
G01 X27.7490 Y39.0911 
G01 X27.7434 Y39.0701 
G01 X27.7325 Y39.0513 
G01 X27.7242 Y39.0313 
G01 X27.7110 Y39.0140 
G01 X27.7001 Y38.9952 
G01 X27.6848 Y38.9799 
G01 X27.6715 Y38.9626 
G01 X27.6543 Y38.9494 
G01 X27.6389 Y38.9340 
G01 X27.6201 Y38.9232 
G01 X27.6029 Y38.9100 
G01 X27.5828 Y38.9017 
G01 X27.5640 Y38.8908 
G01 X27.5430 Y38.8852 
G01 X27.5230 Y38.8769 
G01 X27.5014 Y38.8740 
G01 X27.4804 Y38.8684 
G01 X27.4587 Y38.8684 
G01 X27.4372 Y38.8656 
G01 X27.4156 Y38.8684 
G01 X27.3939 Y38.8684 
G01 X27.3729 Y38.8740 
G01 X27.3568 Y38.8761 
G01 X27.3950 Y38.8603 
G01 X27.4303 Y38.8250 
G01 X27.4494 Y38.7789 
G01 X27.4494 Y37.4211 
G01 X27.4303 Y37.3750 
G01 X27.3950 Y37.3397 
G01 X27.3568 Y37.3238 
G01 X27.3729 Y37.3260 
G01 X27.3939 Y37.3316 
G01 X27.4156 Y37.3316 
G01 X27.4372 Y37.3344 
G01 X27.4587 Y37.3316 
G01 X27.4804 Y37.3316 
G01 X27.5014 Y37.3260 
G01 X27.5230 Y37.3231 
G01 X27.5430 Y37.3148 
G01 X27.5640 Y37.3092 
G01 X27.5828 Y37.2983 
G01 X27.6029 Y37.2900 
G01 X27.6201 Y37.2768 
G01 X27.6389 Y37.2659 
G01 X27.6543 Y37.2506 
G01 X27.6715 Y37.2374 
G01 X27.6848 Y37.2201 
G01 X27.7001 Y37.2048 
G01 X27.7110 Y37.1859 
G01 X27.7242 Y37.1687 
G01 X27.7325 Y37.1487 
G01 X27.7434 Y37.1298 
G01 X27.7490 Y37.1088 
G01 X27.8145 Y36.9506 
G01 X28.0606 Y36.7045 
G01 X28.3820 Y36.5714 
G01 X30.0380 Y36.5714 
G01 X30.1511 Y36.6183 
G01 X30.1700 Y36.6291 
G01 X30.1910 Y36.6348 
G01 X30.2110 Y36.6431 
G01 X30.2325 Y36.6459 
G01 X30.2535 Y36.6515 
G01 X30.2753 Y36.6515 
G01 X30.2968 Y36.6544 
G01 X30.3183 Y36.6515 
G01 X30.3401 Y36.6515 
G01 X30.3610 Y36.6459 
G01 X30.3826 Y36.6431 
G01 X30.4026 Y36.6348 
G01 X30.4236 Y36.6291 
G01 X30.4424 Y36.6183 
G01 X30.4625 Y36.6100 
G01 X30.4797 Y36.5967 
G01 X30.4986 Y36.5859 
G01 X30.5139 Y36.5705 
G01 X30.5312 Y36.5573 
G01 X30.5444 Y36.5401 
G01 X30.5597 Y36.5247 
G01 X30.5706 Y36.5059 
G01 X30.5838 Y36.4887 
G01 X30.5921 Y36.4686 
G01 X30.6030 Y36.4498 
G01 X30.6086 Y36.4288 
G01 X30.6169 Y36.4087 
G01 X30.6198 Y36.3872 
G01 X30.6254 Y36.3662 
G01 X30.6254 Y36.3445 
G01 X30.6282 Y36.3229 
G01 X30.6254 Y36.3014 
G01 X30.6254 Y25.9587 
G00 Z2.5600 
G00 X31.3746 Y25.5555 
G01 Z-0.1778 F254.00 
G01 X31.3746 Y37.3206 F600.00 
G01 X31.0711 Y37.3206 
G01 X31.0250 Y37.3397 
G01 X30.9897 Y37.3750 
G01 X30.9706 Y37.4211 
G01 X30.9706 Y38.7789 
G01 X30.9897 Y38.8250 
G01 X31.0250 Y38.8603 
G01 X31.0711 Y38.8794 
G01 X32.4289 Y38.8794 
G01 X32.4750 Y38.8603 
G01 X32.5103 Y38.8250 
G01 X32.5294 Y38.7789 
G01 X32.5294 Y37.4211 
G01 X32.5103 Y37.3750 
G01 X32.4750 Y37.3397 
G01 X32.4289 Y37.3206 
G01 X32.1254 Y37.3206 
G01 X32.1254 Y25.3506 
G01 X32.0998 Y25.2551 
G01 X32.0504 Y25.1695 
G01 X29.5854 Y22.7045 
G01 X29.5854 Y16.0194 
G01 X29.8889 Y16.0194 
G01 X29.9350 Y16.0003 
G01 X29.9703 Y15.9650 
G01 X29.9894 Y15.9189 
G01 X29.9894 Y14.5611 
G01 X29.9703 Y14.5150 
G01 X29.9350 Y14.4797 
G01 X29.8889 Y14.4606 
G01 X28.5311 Y14.4606 
G01 X28.4850 Y14.4797 
G01 X28.4497 Y14.5150 
G01 X28.4306 Y14.5611 
G01 X28.4306 Y15.9189 
G01 X28.4497 Y15.9650 
G01 X28.4850 Y16.0003 
G01 X28.5311 Y16.0194 
G01 X28.8346 Y16.0194 
G01 X28.8346 Y22.9094 
G01 X28.8602 Y23.0049 
G01 X28.9096 Y23.0905 
G01 X28.9795 Y23.1604 
G01 X31.3746 Y25.5555 
G00 Z2.5600 
G00 X33.9146 Y25.4494 
G01 Z-0.1778 F254.00 
G01 X33.9146 Y37.3206 F600.00 
G01 X33.6111 Y37.3206 
G01 X33.5650 Y37.3397 
G01 X33.5297 Y37.3750 
G01 X33.5106 Y37.4211 
G01 X33.5106 Y38.7789 
G01 X33.5297 Y38.8250 
G01 X33.5650 Y38.8603 
G01 X33.6111 Y38.8794 
G01 X34.9689 Y38.8794 
G01 X35.0150 Y38.8603 
G01 X35.0503 Y38.8250 
G01 X35.0694 Y38.7789 
G01 X35.0694 Y37.4211 
G01 X35.0503 Y37.3750 
G01 X35.0150 Y37.3397 
G01 X34.9689 Y37.3206 
G01 X34.6654 Y37.3206 
G01 X34.6654 Y25.5555 
G01 X37.0605 Y23.1604 
G01 X37.1304 Y23.0905 
G01 X37.1798 Y23.0049 
G01 X37.2054 Y22.9094 
G01 X37.2054 Y16.0194 
G01 X37.5089 Y16.0194 
G01 X37.5550 Y16.0003 
G01 X37.5903 Y15.9650 
G01 X37.6094 Y15.9189 
G01 X37.6094 Y14.5611 
G01 X37.5903 Y14.5150 
G01 X37.5550 Y14.4797 
G01 X37.5089 Y14.4606 
G01 X36.1511 Y14.4606 
G01 X36.1050 Y14.4797 
G01 X36.0697 Y14.5150 
G01 X36.0506 Y14.5611 
G01 X36.0506 Y15.9189 
G01 X36.0697 Y15.9650 
G01 X36.1050 Y16.0003 
G01 X36.1511 Y16.0194 
G01 X36.4546 Y16.0194 
G01 X36.4546 Y22.7045 
G01 X33.9896 Y25.1695 
G01 X33.9402 Y25.2551 
G01 X33.9146 Y25.3506 
G01 X33.9146 Y25.4494 
G00 Z2.5600 
G00 X36.0697 Y37.3750 
G01 Z-0.1778 F254.00 
G01 X36.0506 Y37.4211 F600.00 
G01 X36.0506 Y38.7789 
G01 X36.0697 Y38.8250 
G01 X36.1050 Y38.8603 
G01 X36.1511 Y38.8794 
G01 X36.4546 Y38.8794 
G01 X36.4546 Y61.4506 
G01 X36.1511 Y61.4506 
G01 X36.1050 Y61.4697 
G01 X36.0697 Y61.5050 
G01 X36.0506 Y61.5511 
G01 X36.0506 Y62.9089 
G01 X36.0697 Y62.9550 
G01 X36.1050 Y62.9903 
G01 X36.1511 Y63.0094 
G01 X37.5089 Y63.0094 
G01 X37.5550 Y62.9903 
G01 X37.5903 Y62.9550 
G01 X37.6094 Y62.9089 
G01 X37.6094 Y61.5511 
G01 X37.5903 Y61.5050 
G01 X37.5550 Y61.4697 
G01 X37.5089 Y61.4506 
G01 X37.2054 Y61.4506 
G01 X37.2054 Y38.8794 
G01 X37.5089 Y38.8794 
G01 X37.5550 Y38.8603 
G01 X37.5903 Y38.8250 
G01 X37.6094 Y38.7789 
G01 X37.6094 Y37.4211 
G01 X37.5903 Y37.3750 
G01 X37.5550 Y37.3397 
G01 X37.5089 Y37.3206 
G01 X36.1511 Y37.3206 
G01 X36.1050 Y37.3397 
G01 X36.0697 Y37.3750 
G00 Z2.5600 
G00 X38.6097 Y37.3750 
G01 Z-0.1778 F254.00 
G01 X38.5906 Y37.4211 F600.00 
G01 X38.5906 Y38.7789 
G01 X38.6097 Y38.8250 
G01 X38.6450 Y38.8603 
G01 X38.6911 Y38.8794 
G01 X40.0489 Y38.8794 
G01 X40.0950 Y38.8603 
G01 X40.1303 Y38.8250 
G01 X40.1494 Y38.7789 
G01 X40.1494 Y37.4211 
G01 X40.1303 Y37.3750 
G01 X40.0950 Y37.3397 
G01 X40.0489 Y37.3206 
G01 X38.6911 Y37.3206 
G01 X38.6450 Y37.3397 
G01 X38.6097 Y37.3750 
G00 Z2.5600 
G00 X41.1497 Y37.3750 
G01 Z-0.1778 F254.00 
G01 X41.1306 Y37.4211 F600.00 
G01 X41.1306 Y38.7789 
G01 X41.1497 Y38.8250 
G01 X41.1850 Y38.8603 
G01 X41.2311 Y38.8794 
G01 X42.5889 Y38.8794 
G01 X42.6350 Y38.8603 
G01 X42.6703 Y38.8250 
G01 X42.6894 Y38.7789 
G01 X42.6894 Y37.4211 
G01 X42.6703 Y37.3750 
G01 X42.6350 Y37.3397 
G01 X42.5889 Y37.3206 
G01 X41.2311 Y37.3206 
G01 X41.1850 Y37.3397 
G01 X41.1497 Y37.3750 
G00 Z2.5600 
G00 X43.6897 Y37.3750 
G01 Z-0.1778 F254.00 
G01 X43.6706 Y37.4211 F600.00 
G01 X43.6706 Y38.7789 
G01 X43.6897 Y38.8250 
G01 X43.7250 Y38.8603 
G01 X43.7711 Y38.8794 
G01 X44.0746 Y38.8794 
G01 X44.0746 Y86.8506 
G01 X43.7711 Y86.8506 
G01 X43.7250 Y86.8697 
G01 X43.6897 Y86.9050 
G01 X43.6706 Y86.9511 
G01 X43.6706 Y88.3089 
G01 X43.6897 Y88.3550 
G01 X43.7250 Y88.3903 
G01 X43.7711 Y88.4094 
G01 X44.0746 Y88.4094 
G01 X44.0746 Y136.3806 
G01 X43.7711 Y136.3806 
G01 X43.7250 Y136.3997 
G01 X43.6897 Y136.4350 
G01 X43.6706 Y136.4811 
G01 X43.6706 Y137.8389 
G01 X43.6897 Y137.8850 
G01 X43.7250 Y137.9203 
G01 X43.7711 Y137.9394 
G01 X44.0746 Y137.9394 
G01 X44.0746 Y185.9106 
G01 X43.7711 Y185.9106 
G01 X43.7250 Y185.9297 
G01 X43.6897 Y185.9650 
G01 X43.6706 Y186.0111 
G01 X43.6706 Y187.3689 
G01 X43.6897 Y187.4150 
G01 X43.7250 Y187.4503 
G01 X43.7711 Y187.4694 
G01 X45.1289 Y187.4694 
G01 X45.1750 Y187.4503 
G01 X45.2103 Y187.4150 
G01 X45.2294 Y187.3689 
G01 X45.2294 Y186.0111 
G01 X45.2103 Y185.9650 
G01 X45.1750 Y185.9297 
G01 X45.1289 Y185.9106 
G01 X44.8254 Y185.9106 
G01 X44.8254 Y137.9394 
G01 X45.1289 Y137.9394 
G01 X45.1750 Y137.9203 
G01 X45.2103 Y137.8850 
G01 X45.2294 Y137.8389 
G01 X45.2294 Y136.4811 
G01 X45.2103 Y136.4350 
G01 X45.1750 Y136.3997 
G01 X45.1289 Y136.3806 
G01 X44.8254 Y136.3806 
G01 X44.8254 Y88.4094 
G01 X45.1289 Y88.4094 
G01 X45.1750 Y88.3903 
G01 X45.2103 Y88.3550 
G01 X45.2294 Y88.3089 
G01 X45.2294 Y86.9511 
G01 X45.2103 Y86.9050 
G01 X45.1750 Y86.8697 
G01 X45.1289 Y86.8506 
G01 X44.8254 Y86.8506 
G01 X44.8254 Y38.8794 
G01 X45.1289 Y38.8794 
G01 X45.1750 Y38.8603 
G01 X45.2103 Y38.8250 
G01 X45.2294 Y38.7789 
G01 X45.2294 Y37.4211 
G01 X45.2103 Y37.3750 
G01 X45.1750 Y37.3397 
G01 X45.1289 Y37.3206 
G01 X44.8254 Y37.3206 
G01 X44.8254 Y36.9855 
G01 X71.2755 Y10.5354 
G01 X98.9045 Y10.5354 
G01 X105.0346 Y16.6655 
G01 X105.0346 Y37.3206 
G01 X104.7311 Y37.3206 
G01 X104.6850 Y37.3397 
G01 X104.6497 Y37.3750 
G01 X104.6306 Y37.4211 
G01 X104.6306 Y38.7789 
G01 X104.6497 Y38.8250 
G01 X104.6850 Y38.8603 
G01 X104.7311 Y38.8794 
G01 X105.0346 Y38.8794 
G01 X105.0346 Y86.8506 
G01 X104.7311 Y86.8506 
G01 X104.6850 Y86.8697 
G01 X104.6497 Y86.9050 
G01 X104.6306 Y86.9511 
G01 X104.6306 Y88.3089 
G01 X104.6497 Y88.3550 
G01 X104.6850 Y88.3903 
G01 X104.7311 Y88.4094 
G01 X105.0346 Y88.4094 
G01 X105.0346 Y136.3806 
G01 X104.7311 Y136.3806 
G01 X104.6850 Y136.3997 
G01 X104.6497 Y136.4350 
G01 X104.6306 Y136.4811 
G01 X104.6306 Y137.8389 
G01 X104.6497 Y137.8850 
G01 X104.6850 Y137.9203 
G01 X104.7311 Y137.9394 
G01 X105.0346 Y137.9394 
G01 X105.0346 Y185.9106 
G01 X104.7311 Y185.9106 
G01 X104.6850 Y185.9297 
G01 X104.6497 Y185.9650 
G01 X104.6306 Y186.0111 
G01 X104.6306 Y187.3689 
G01 X104.6497 Y187.4150 
G01 X104.6850 Y187.4503 
G01 X104.7311 Y187.4694 
G01 X106.0889 Y187.4694 
G01 X106.1350 Y187.4503 
G01 X106.1703 Y187.4150 
G01 X106.1894 Y187.3689 
G01 X106.1894 Y186.0111 
G01 X106.1703 Y185.9650 
G01 X106.1350 Y185.9297 
G01 X106.0889 Y185.9106 
G01 X105.7854 Y185.9106 
G01 X105.7854 Y137.9394 
G01 X106.0889 Y137.9394 
G01 X106.1350 Y137.9203 
G01 X106.1703 Y137.8850 
G01 X106.1894 Y137.8389 
G01 X106.1894 Y136.4811 
G01 X106.1703 Y136.4350 
G01 X106.1350 Y136.3997 
G01 X106.0889 Y136.3806 
G01 X105.7854 Y136.3806 
G01 X105.7854 Y88.4094 
G01 X106.0889 Y88.4094 
G01 X106.1350 Y88.3903 
G01 X106.1703 Y88.3550 
G01 X106.1894 Y88.3089 
G01 X106.1894 Y86.9511 
G01 X106.1703 Y86.9050 
G01 X106.1350 Y86.8697 
G01 X106.0889 Y86.8506 
G01 X105.7854 Y86.8506 
G01 X105.7854 Y38.8794 
G01 X106.0889 Y38.8794 
G01 X106.1350 Y38.8603 
G01 X106.1703 Y38.8250 
G01 X106.1894 Y38.7789 
G01 X106.1894 Y37.4211 
G01 X106.1703 Y37.3750 
G01 X106.1350 Y37.3397 
G01 X106.0889 Y37.3206 
G01 X105.7854 Y37.3206 
G01 X105.7854 Y16.6655 
G01 X111.9155 Y10.5354 
G01 X162.4045 Y10.5354 
G01 X168.5346 Y16.6655 
G01 X168.5346 Y37.3206 
G01 X168.2311 Y37.3206 
G01 X168.1850 Y37.3397 
G01 X168.1497 Y37.3750 
G01 X168.1306 Y37.4211 
G01 X168.1306 Y38.7789 
G01 X168.1497 Y38.8250 
G01 X168.1850 Y38.8603 
G01 X168.2311 Y38.8794 
G01 X168.5346 Y38.8794 
G01 X168.5346 Y86.8506 
G01 X168.2311 Y86.8506 
G01 X168.1850 Y86.8697 
G01 X168.1497 Y86.9050 
G01 X168.1306 Y86.9511 
G01 X168.1306 Y88.3089 
G01 X168.1497 Y88.3550 
G01 X168.1850 Y88.3903 
G01 X168.2311 Y88.4094 
G01 X168.5346 Y88.4094 
G01 X168.5346 Y136.3806 
G01 X168.2311 Y136.3806 
G01 X168.1850 Y136.3997 
G01 X168.1497 Y136.4350 
G01 X168.1306 Y136.4811 
G01 X168.1306 Y137.8389 
G01 X168.1497 Y137.8850 
G01 X168.1850 Y137.9203 
G01 X168.2311 Y137.9394 
G01 X168.5346 Y137.9394 
G01 X168.5346 Y185.9106 
G01 X168.2311 Y185.9106 
G01 X168.1850 Y185.9297 
G01 X168.1497 Y185.9650 
G01 X168.1306 Y186.0111 
G01 X168.1306 Y187.3689 
G01 X168.1497 Y187.4150 
G01 X168.1850 Y187.4503 
G01 X168.2311 Y187.4694 
G01 X169.5889 Y187.4694 
G01 X169.6350 Y187.4503 
G01 X169.6703 Y187.4150 
G01 X169.6894 Y187.3689 
G01 X169.6894 Y186.0111 
G01 X169.6703 Y185.9650 
G01 X169.6350 Y185.9297 
G01 X169.5889 Y185.9106 
G01 X169.2854 Y185.9106 
G01 X169.2854 Y137.9394 
G01 X169.5889 Y137.9394 
G01 X169.6350 Y137.9203 
G01 X169.6703 Y137.8850 
G01 X169.6894 Y137.8389 
G01 X169.6894 Y136.4811 
G01 X169.6703 Y136.4350 
G01 X169.6350 Y136.3997 
G01 X169.5889 Y136.3806 
G01 X169.2854 Y136.3806 
G01 X169.2854 Y88.4094 
G01 X169.5889 Y88.4094 
G01 X169.6350 Y88.3903 
G01 X169.6703 Y88.3550 
G01 X169.6894 Y88.3089 
G01 X169.6894 Y86.9511 
G01 X169.6703 Y86.9050 
G01 X169.6350 Y86.8697 
G01 X169.5889 Y86.8506 
G01 X169.2854 Y86.8506 
G01 X169.2854 Y38.8794 
G01 X169.5889 Y38.8794 
G01 X169.6350 Y38.8603 
G01 X169.6703 Y38.8250 
G01 X169.6894 Y38.7789 
G01 X169.6894 Y37.4211 
G01 X169.6703 Y37.3750 
G01 X169.6350 Y37.3397 
G01 X169.5889 Y37.3206 
G01 X169.2854 Y37.3206 
G01 X169.2854 Y16.6655 
G01 X175.4155 Y10.5354 
G01 X236.0645 Y10.5354 
G01 X242.1946 Y16.6655 
G01 X242.1946 Y37.3206 
G01 X241.8911 Y37.3206 
G01 X241.8450 Y37.3397 
G01 X241.8097 Y37.3750 
G01 X241.7906 Y37.4211 
G01 X241.7906 Y38.7789 
G01 X241.8097 Y38.8250 
G01 X241.8450 Y38.8603 
G01 X241.8911 Y38.8794 
G01 X242.1946 Y38.8794 
G01 X242.1946 Y86.8506 
G01 X241.8911 Y86.8506 
G01 X241.8450 Y86.8697 
G01 X241.8097 Y86.9050 
G01 X241.7906 Y86.9511 
G01 X241.7906 Y88.3089 
G01 X241.8097 Y88.3550 
G01 X241.8450 Y88.3903 
G01 X241.8911 Y88.4094 
G01 X242.1946 Y88.4094 
G01 X242.1946 Y136.3806 
G01 X241.8911 Y136.3806 
G01 X241.8450 Y136.3997 
G01 X241.8097 Y136.4350 
G01 X241.7906 Y136.4811 
G01 X241.7906 Y137.8389 
G01 X241.8097 Y137.8850 
G01 X241.8450 Y137.9203 
G01 X241.8911 Y137.9394 
G01 X242.1946 Y137.9394 
G01 X242.1946 Y185.9106 
G01 X241.8911 Y185.9106 
G01 X241.8450 Y185.9297 
G01 X241.8097 Y185.9650 
G01 X241.7906 Y186.0111 
G01 X241.7906 Y187.3689 
G01 X241.8097 Y187.4150 
G01 X241.8450 Y187.4503 
G01 X241.8911 Y187.4694 
G01 X243.2489 Y187.4694 
G01 X243.2950 Y187.4503 
G01 X243.3303 Y187.4150 
G01 X243.3494 Y187.3689 
G01 X243.3494 Y186.0111 
G01 X243.3303 Y185.9650 
G01 X243.2950 Y185.9297 
G01 X243.2489 Y185.9106 
G01 X242.9454 Y185.9106 
G01 X242.9454 Y137.9394 
G01 X243.2489 Y137.9394 
G01 X243.2950 Y137.9203 
G01 X243.3303 Y137.8850 
G01 X243.3494 Y137.8389 
G01 X243.3494 Y136.4811 
G01 X243.3303 Y136.4350 
G01 X243.2950 Y136.3997 
G01 X243.2489 Y136.3806 
G01 X242.9454 Y136.3806 
G01 X242.9454 Y88.4094 
G01 X243.2489 Y88.4094 
G01 X243.2950 Y88.3903 
G01 X243.3303 Y88.3550 
G01 X243.3494 Y88.3089 
G01 X243.3494 Y86.9511 
G01 X243.3303 Y86.9050 
G01 X243.2950 Y86.8697 
G01 X243.2489 Y86.8506 
G01 X242.9454 Y86.8506 
G01 X242.9454 Y38.8794 
G01 X243.2489 Y38.8794 
G01 X243.2950 Y38.8603 
G01 X243.3303 Y38.8250 
G01 X243.3494 Y38.7789 
G01 X243.3494 Y37.4211 
G01 X243.3303 Y37.3750 
G01 X243.2950 Y37.3397 
G01 X243.2489 Y37.3206 
G01 X242.9454 Y37.3206 
G01 X242.9454 Y16.4606 
G01 X242.9198 Y16.3651 
G01 X242.8704 Y16.2795 
G01 X236.5204 Y9.9295 
G01 X236.4505 Y9.8596 
G01 X236.3649 Y9.8102 
G01 X236.2694 Y9.7846 
G01 X175.2106 Y9.7846 
G01 X175.1151 Y9.8102 
G01 X175.0295 Y9.8596 
G01 X168.9100 Y15.9791 
G01 X162.8604 Y9.9295 
G01 X162.7905 Y9.8596 
G01 X162.7049 Y9.8102 
G01 X162.6094 Y9.7846 
G01 X111.7106 Y9.7846 
G01 X111.6151 Y9.8102 
G01 X111.5295 Y9.8596 
G01 X105.4100 Y15.9791 
G01 X99.2905 Y9.8596 
G01 X99.2049 Y9.8102 
G01 X99.1094 Y9.7846 
G01 X71.0706 Y9.7846 
G01 X70.9751 Y9.8102 
G01 X70.8895 Y9.8596 
G01 X70.8196 Y9.9295 
G01 X44.1496 Y36.5995 
G01 X44.1002 Y36.6851 
G01 X44.0746 Y36.7806 
G01 X44.0746 Y37.3206 
G01 X43.7711 Y37.3206 
G01 X43.7250 Y37.3397 
G01 X43.6897 Y37.3750 
G00 Z2.5600 
G00 X45.9786 Y37.2720 
G01 Z-0.1778 F254.00 
G01 X45.9786 Y38.9280 F600.00 
G01 X45.8454 Y39.2494 
G01 X45.7014 Y39.3934 
G01 X45.6403 Y39.4546 
G01 X45.5970 Y39.5295 
G01 X45.5960 Y39.5331 
G01 X45.5746 Y39.6131 
G01 X45.5746 Y86.1169 
G01 X45.5970 Y86.2005 
G01 X45.6403 Y86.2754 
G01 X45.6446 Y86.2798 
G01 X45.7014 Y86.3366 
G01 X45.8454 Y86.4806 
G01 X45.9786 Y86.8020 
G01 X45.9786 Y88.4580 
G01 X45.8454 Y88.7794 
G01 X45.7014 Y88.9234 
G01 X45.6403 Y88.9846 
G01 X45.5970 Y89.0595 
G01 X45.5960 Y89.0631 
G01 X45.5746 Y89.1431 
G01 X45.5746 Y135.6469 
G01 X45.5970 Y135.7304 
G01 X45.6403 Y135.8054 
G01 X45.8454 Y136.0106 
G01 X45.9786 Y136.3320 
G01 X45.9786 Y137.9880 
G01 X45.8454 Y138.3094 
G01 X45.7014 Y138.4534 
G01 X45.6403 Y138.5146 
G01 X45.5970 Y138.5895 
G01 X45.5746 Y138.6731 
G01 X45.5746 Y185.1769 
G01 X45.5970 Y185.2605 
G01 X45.6403 Y185.3354 
G01 X45.6446 Y185.3398 
G01 X45.7014 Y185.3966 
G01 X45.8454 Y185.5406 
G01 X45.9786 Y185.8620 
G01 X45.9786 Y187.5180 
G01 X45.9317 Y187.6311 
G01 X45.9209 Y187.6500 
G01 X45.9152 Y187.6710 
G01 X45.9069 Y187.6910 
G01 X45.9041 Y187.7125 
G01 X45.8985 Y187.7335 
G01 X45.8985 Y187.7553 
G01 X45.8956 Y187.7768 
G01 X45.8985 Y187.7983 
G01 X45.8985 Y187.8201 
G01 X45.9041 Y187.8410 
G01 X45.9069 Y187.8626 
G01 X45.9152 Y187.8826 
G01 X45.9209 Y187.9036 
G01 X45.9317 Y187.9224 
G01 X45.9400 Y187.9425 
G01 X45.9532 Y187.9598 
G01 X45.9641 Y187.9786 
G01 X45.9795 Y187.9939 
G01 X45.9927 Y188.0112 
G01 X46.0099 Y188.0244 
G01 X46.0253 Y188.0397 
G01 X46.0441 Y188.0506 
G01 X46.0613 Y188.0638 
G01 X46.0814 Y188.0721 
G01 X46.1002 Y188.0830 
G01 X46.1212 Y188.0886 
G01 X46.1413 Y188.0969 
G01 X46.1628 Y188.0998 
G01 X46.1838 Y188.1054 
G01 X46.2055 Y188.1054 
G01 X46.2270 Y188.1082 
G01 X46.2486 Y188.1054 
G01 X68.9249 Y188.1054 
G01 X69.0085 Y188.0830 
G01 X69.0834 Y188.0397 
G01 X69.1446 Y187.9786 
G01 X69.1879 Y187.9036 
G01 X69.2103 Y187.8201 
G01 X69.2103 Y187.7335 
G01 X69.1879 Y187.6500 
G01 X69.1446 Y187.5750 
G01 X69.1000 Y187.5304 
G01 X69.0834 Y187.5139 
G01 X66.3566 Y184.7870 
G01 X66.1854 Y184.3737 
G01 X66.1854 Y178.7639 
G01 X66.1882 Y178.7423 
G01 X66.1854 Y178.7208 
G01 X66.1854 Y178.6991 
G01 X66.1798 Y178.6781 
G01 X66.1769 Y178.6566 
G01 X66.1686 Y178.6365 
G01 X66.1630 Y178.6155 
G01 X66.1521 Y178.5967 
G01 X65.9354 Y178.0734 
G01 X65.9354 Y177.5266 
G01 X66.1447 Y177.0214 
G01 X66.5314 Y176.6347 
G01 X67.0366 Y176.4254 
G01 X67.5551 Y176.4254 
G01 X67.6386 Y176.4030 
G01 X67.7136 Y176.3597 
G01 X67.7747 Y176.2986 
G01 X67.8180 Y176.2236 
G01 X67.8404 Y176.1401 
G01 X67.8404 Y175.6499 
G01 X67.8180 Y175.5664 
G01 X67.7747 Y175.4914 
G01 X67.7136 Y175.4303 
G01 X67.6386 Y175.3870 
G01 X67.5551 Y175.3646 
G01 X67.0366 Y175.3646 
G01 X66.5314 Y175.1553 
G01 X66.1447 Y174.7686 
G01 X65.9354 Y174.2634 
G01 X65.9354 Y173.7166 
G01 X66.1521 Y173.1933 
G01 X66.1630 Y173.1745 
G01 X66.1686 Y173.1535 
G01 X66.1769 Y173.1334 
G01 X66.1798 Y173.1119 
G01 X66.1854 Y173.0909 
G01 X66.1854 Y173.0692 
G01 X66.1882 Y173.0477 
G01 X66.1854 Y173.0261 
G01 X66.1854 Y171.8613 
G01 X66.3566 Y171.4480 
G01 X66.6730 Y171.1316 
G01 X67.0863 Y170.9604 
G01 X67.5337 Y170.9604 
G01 X67.7953 Y171.0688 
G01 X67.0795 Y171.7846 
G01 X67.0096 Y171.8545 
G01 X66.9602 Y171.9401 
G01 X66.9346 Y172.0356 
G01 X66.9346 Y173.4887 
G01 X66.9113 Y173.5042 
G01 X66.8242 Y173.5913 
G01 X66.7558 Y173.6938 
G01 X66.7086 Y173.8076 
G01 X66.6846 Y173.9284 
G01 X66.6846 Y174.0516 
G01 X66.7086 Y174.1724 
G01 X66.7558 Y174.2862 
G01 X66.8242 Y174.3887 
G01 X66.9113 Y174.4758 
G01 X67.0138 Y174.5442 
G01 X67.1276 Y174.5914 
G01 X67.2484 Y174.6154 
G01 X67.3716 Y174.6154 
G01 X67.4924 Y174.5914 
G01 X67.6062 Y174.5442 
G01 X67.7087 Y174.4758 
G01 X67.7958 Y174.3887 
G01 X67.8642 Y174.2862 
G01 X67.9114 Y174.1724 
G01 X67.9354 Y174.0516 
G01 X67.9354 Y173.9284 
G01 X67.9114 Y173.8076 
G01 X67.8642 Y173.6938 
G01 X67.7958 Y173.5913 
G01 X67.7087 Y173.5042 
G01 X67.6854 Y173.4887 
G01 X67.6854 Y172.2405 
G01 X68.3262 Y171.5997 
G01 X68.4346 Y171.8613 
G01 X68.4346 Y172.3121 
G01 X68.4318 Y172.3336 
G01 X68.4346 Y172.3551 
G01 X68.4346 Y172.3769 
G01 X68.4402 Y172.3979 
G01 X68.4431 Y172.4194 
G01 X68.4514 Y172.4395 
G01 X68.4570 Y172.4604 
G01 X68.4679 Y172.4793 
G01 X68.4762 Y172.4993 
G01 X68.4894 Y172.5166 
G01 X68.5002 Y172.5354 
G01 X68.5156 Y172.5507 
G01 X68.5288 Y172.5680 
G01 X68.5461 Y172.5812 
G01 X68.5614 Y172.5966 
G01 X68.5802 Y172.6074 
G01 X68.5975 Y172.6206 
G01 X68.6176 Y172.6290 
G01 X68.6364 Y172.6398 
G01 X68.6573 Y172.6454 
G01 X68.6774 Y172.6538 
G01 X68.6990 Y172.6566 
G01 X68.7199 Y172.6622 
G01 X68.7417 Y172.6622 
G01 X68.7632 Y172.6650 
G01 X68.7847 Y172.6622 
G01 X68.8065 Y172.6622 
G01 X68.8274 Y172.6566 
G01 X68.8490 Y172.6538 
G01 X68.8690 Y172.6454 
G01 X68.8900 Y172.6398 
G01 X68.9088 Y172.6290 
G01 X68.9596 Y172.6079 
G01 X68.9806 Y172.6023 
G01 X68.9994 Y172.5914 
G01 X69.0195 Y172.5831 
G01 X69.0367 Y172.5699 
G01 X69.0555 Y172.5590 
G01 X69.0709 Y172.5437 
G01 X69.0881 Y172.5305 
G01 X69.1014 Y172.5132 
G01 X69.4548 Y172.1598 
G01 X69.8480 Y171.7666 
G01 X70.2613 Y171.5954 
G01 X78.3287 Y171.5954 
G01 X78.7420 Y171.7666 
G01 X79.9352 Y172.9598 
G01 X80.3284 Y173.3530 
G01 X80.4996 Y173.7663 
G01 X80.4996 Y178.5113 
G01 X80.5220 Y178.5949 
G01 X80.5653 Y178.6698 
G01 X80.9840 Y179.0886 
G01 X81.0452 Y179.1497 
G01 X81.1201 Y179.1930 
G01 X81.2037 Y179.2154 
G01 X83.4087 Y179.2154 
G01 X83.8220 Y179.3866 
G01 X85.6502 Y181.2148 
G01 X86.0434 Y181.6080 
G01 X86.2146 Y182.0213 
G01 X86.2146 Y185.1769 
G01 X86.2370 Y185.2605 
G01 X86.2802 Y185.3354 
G01 X86.2846 Y185.3398 
G01 X86.3414 Y185.3966 
G01 X86.4854 Y185.5406 
G01 X86.5510 Y185.6988 
G01 X86.5566 Y185.7198 
G01 X86.5675 Y185.7387 
G01 X86.5758 Y185.7587 
G01 X86.5890 Y185.7759 
G01 X86.5999 Y185.7948 
G01 X86.6152 Y185.8101 
G01 X86.6285 Y185.8274 
G01 X86.6457 Y185.8406 
G01 X86.6611 Y185.8559 
G01 X86.6799 Y185.8668 
G01 X86.6971 Y185.8800 
G01 X86.7172 Y185.8883 
G01 X86.7360 Y185.8992 
G01 X86.7570 Y185.9048 
G01 X86.7770 Y185.9131 
G01 X86.7986 Y185.9160 
G01 X86.8196 Y185.9216 
G01 X86.8413 Y185.9216 
G01 X86.8628 Y185.9244 
G01 X86.8844 Y185.9216 
G01 X86.9061 Y185.9216 
G01 X86.9271 Y185.9160 
G01 X86.9432 Y185.9138 
G01 X86.9050 Y185.9297 
G01 X86.8697 Y185.9650 
G01 X86.8506 Y186.0111 
G01 X86.8506 Y187.3689 
G01 X86.8697 Y187.4150 
G01 X86.9050 Y187.4503 
G01 X86.9511 Y187.4694 
G01 X88.3089 Y187.4694 
G01 X88.3550 Y187.4503 
G01 X88.3903 Y187.4150 
G01 X88.4094 Y187.3689 
G01 X88.4094 Y186.0111 
G01 X88.3903 Y185.9650 
G01 X88.3550 Y185.9297 
G01 X88.3168 Y185.9138 
G01 X88.3329 Y185.9160 
G01 X88.3539 Y185.9216 
G01 X88.3756 Y185.9216 
G01 X88.3972 Y185.9244 
G01 X88.4187 Y185.9216 
G01 X88.4404 Y185.9216 
G01 X88.4614 Y185.9160 
G01 X88.4830 Y185.9131 
G01 X88.5030 Y185.9048 
G01 X88.5240 Y185.8992 
G01 X88.5428 Y185.8883 
G01 X88.5629 Y185.8800 
G01 X88.5801 Y185.8668 
G01 X88.5989 Y185.8559 
G01 X88.6143 Y185.8406 
G01 X88.6315 Y185.8273 
G01 X88.6447 Y185.8101 
G01 X88.6601 Y185.7948 
G01 X88.6710 Y185.7759 
G01 X88.6842 Y185.7587 
G01 X88.6925 Y185.7386 
G01 X88.7034 Y185.7198 
G01 X88.7090 Y185.6988 
G01 X88.7745 Y185.5406 
G01 X89.0206 Y185.2945 
G01 X89.3420 Y185.1614 
G01 X90.9980 Y185.1614 
G01 X91.1111 Y185.2083 
G01 X91.1300 Y185.2191 
G01 X91.1510 Y185.2248 
G01 X91.1710 Y185.2331 
G01 X91.1925 Y185.2359 
G01 X91.2135 Y185.2415 
G01 X91.2353 Y185.2415 
G01 X91.2568 Y185.2444 
G01 X91.2783 Y185.2415 
G01 X91.3001 Y185.2415 
G01 X91.3210 Y185.2359 
G01 X91.3426 Y185.2331 
G01 X91.3627 Y185.2248 
G01 X91.3836 Y185.2191 
G01 X91.4024 Y185.2083 
G01 X91.4225 Y185.2000 
G01 X91.4397 Y185.1867 
G01 X91.4586 Y185.1759 
G01 X91.4739 Y185.1605 
G01 X91.4912 Y185.1473 
G01 X91.5044 Y185.1301 
G01 X91.5197 Y185.1147 
G01 X91.5306 Y185.0959 
G01 X91.5438 Y185.0787 
G01 X91.5521 Y185.0586 
G01 X91.5630 Y185.0398 
G01 X91.5686 Y185.0188 
G01 X91.5769 Y184.9987 
G01 X91.5798 Y184.9772 
G01 X91.5854 Y184.9562 
G01 X91.5854 Y184.9345 
G01 X91.5882 Y184.9129 
G01 X91.5854 Y184.8914 
G01 X91.5854 Y174.5487 
G01 X91.5630 Y174.4651 
G01 X91.5197 Y174.3902 
G01 X89.6098 Y172.4802 
G01 X89.5486 Y172.4190 
G01 X89.2166 Y172.0870 
G01 X89.0454 Y171.6737 
G01 X89.0454 Y165.3431 
G01 X89.0230 Y165.2595 
G01 X88.9797 Y165.1846 
G01 X88.7745 Y164.9794 
G01 X88.6414 Y164.6580 
G01 X88.6414 Y163.0020 
G01 X88.7558 Y162.7257 
G01 X88.7890 Y162.6458 
G01 X88.8003 Y162.5600 
G01 X88.7890 Y162.4742 
G01 X88.7558 Y162.3943 
G01 X88.6414 Y162.1180 
G01 X88.6414 Y160.4620 
G01 X88.7745 Y160.1406 
G01 X88.9186 Y159.9966 
G01 X88.9797 Y159.9354 
G01 X89.0230 Y159.8604 
G01 X89.0454 Y159.7769 
G01 X89.0454 Y138.6731 
G01 X89.0230 Y138.5895 
G01 X88.9797 Y138.5146 
G01 X88.9753 Y138.5102 
G01 X88.9186 Y138.4534 
G01 X88.7745 Y138.3094 
G01 X88.7090 Y138.1512 
G01 X88.7034 Y138.1302 
G01 X88.6925 Y138.1114 
G01 X88.6842 Y138.0913 
G01 X88.6710 Y138.0741 
G01 X88.6601 Y138.0552 
G01 X88.6447 Y138.0399 
G01 X88.6315 Y138.0226 
G01 X88.6143 Y138.0094 
G01 X88.5989 Y137.9941 
G01 X88.5801 Y137.9832 
G01 X88.5629 Y137.9700 
G01 X88.5428 Y137.9617 
G01 X88.5240 Y137.9508 
G01 X88.5030 Y137.9452 
G01 X88.4830 Y137.9369 
G01 X88.4614 Y137.9340 
G01 X88.4404 Y137.9284 
G01 X88.4187 Y137.9284 
G01 X88.3972 Y137.9256 
G01 X88.3756 Y137.9284 
G01 X88.3539 Y137.9284 
G01 X88.3329 Y137.9340 
G01 X88.3168 Y137.9361 
G01 X88.3550 Y137.9203 
G01 X88.3903 Y137.8850 
G01 X88.4094 Y137.8389 
G01 X88.4094 Y136.4811 
G01 X88.3903 Y136.4350 
G01 X88.3550 Y136.3997 
G01 X88.3168 Y136.3838 
G01 X88.3329 Y136.3860 
G01 X88.3539 Y136.3916 
G01 X88.3756 Y136.3916 
G01 X88.3972 Y136.3944 
G01 X88.4187 Y136.3916 
G01 X88.4404 Y136.3916 
G01 X88.4614 Y136.3860 
G01 X88.4830 Y136.3831 
G01 X88.5030 Y136.3748 
G01 X88.5240 Y136.3692 
G01 X88.5428 Y136.3583 
G01 X88.5629 Y136.3500 
G01 X88.5801 Y136.3368 
G01 X88.5989 Y136.3259 
G01 X88.6143 Y136.3106 
G01 X88.6315 Y136.2973 
G01 X88.6447 Y136.2801 
G01 X88.6601 Y136.2648 
G01 X88.6710 Y136.2459 
G01 X88.6842 Y136.2287 
G01 X88.6925 Y136.2086 
G01 X88.7034 Y136.1898 
G01 X88.7090 Y136.1688 
G01 X88.7745 Y136.0106 
G01 X89.0206 Y135.7645 
G01 X89.3420 Y135.6314 
G01 X90.9980 Y135.6314 
G01 X91.1111 Y135.6783 
G01 X91.1300 Y135.6891 
G01 X91.1509 Y135.6948 
G01 X91.1710 Y135.7031 
G01 X91.1925 Y135.7059 
G01 X91.2135 Y135.7115 
G01 X91.2353 Y135.7115 
G01 X91.2568 Y135.7144 
G01 X91.2783 Y135.7115 
G01 X91.3001 Y135.7115 
G01 X91.3210 Y135.7059 
G01 X91.3426 Y135.7031 
G01 X91.3626 Y135.6948 
G01 X91.3836 Y135.6891 
G01 X91.4024 Y135.6783 
G01 X91.4225 Y135.6700 
G01 X91.4398 Y135.6567 
G01 X91.4586 Y135.6459 
G01 X91.4739 Y135.6305 
G01 X91.4912 Y135.6173 
G01 X91.5044 Y135.6001 
G01 X91.5197 Y135.5847 
G01 X91.5306 Y135.5659 
G01 X91.5438 Y135.5487 
G01 X91.5521 Y135.5286 
G01 X91.5630 Y135.5098 
G01 X91.5686 Y135.4888 
G01 X91.5769 Y135.4687 
G01 X91.5798 Y135.4472 
G01 X91.5854 Y135.4262 
G01 X91.5854 Y135.4045 
G01 X91.5882 Y135.3829 
G01 X91.5854 Y135.3614 
G01 X91.5854 Y125.0187 
G01 X91.5630 Y124.9351 
G01 X91.5197 Y124.8602 
G01 X89.6098 Y122.9502 
G01 X89.2166 Y122.5570 
G01 X89.0454 Y122.1437 
G01 X89.0454 Y115.8131 
G01 X89.0230 Y115.7295 
G01 X88.9797 Y115.6546 
G01 X88.9753 Y115.6502 
G01 X88.9186 Y115.5934 
G01 X88.7745 Y115.4494 
G01 X88.6414 Y115.1280 
G01 X88.6414 Y113.4720 
G01 X88.7558 Y113.1957 
G01 X88.7890 Y113.1158 
G01 X88.8003 Y113.0300 
G01 X88.7890 Y112.9442 
G01 X88.7558 Y112.8643 
G01 X88.6414 Y112.5880 
G01 X88.6414 Y110.9320 
G01 X88.7745 Y110.6106 
G01 X88.9186 Y110.4666 
G01 X88.9797 Y110.4054 
G01 X89.0230 Y110.3305 
G01 X89.0240 Y110.3269 
G01 X89.0454 Y110.2469 
G01 X89.0454 Y89.1431 
G01 X89.0230 Y89.0595 
G01 X88.9797 Y88.9846 
G01 X88.7745 Y88.7794 
G01 X88.7090 Y88.6212 
G01 X88.7034 Y88.6001 
G01 X88.6925 Y88.5813 
G01 X88.6842 Y88.5613 
G01 X88.6710 Y88.5440 
G01 X88.6601 Y88.5252 
G01 X88.6448 Y88.5099 
G01 X88.6315 Y88.4926 
G01 X88.6143 Y88.4794 
G01 X88.5989 Y88.4640 
G01 X88.5801 Y88.4532 
G01 X88.5629 Y88.4400 
G01 X88.5428 Y88.4317 
G01 X88.5240 Y88.4208 
G01 X88.5030 Y88.4152 
G01 X88.4830 Y88.4069 
G01 X88.4614 Y88.4040 
G01 X88.4404 Y88.3984 
G01 X88.4187 Y88.3984 
G01 X88.3972 Y88.3956 
G01 X88.3756 Y88.3984 
G01 X88.3539 Y88.3984 
G01 X88.3329 Y88.4040 
G01 X88.3168 Y88.4061 
G01 X88.3550 Y88.3903 
G01 X88.3903 Y88.3550 
G01 X88.4094 Y88.3089 
G01 X88.4094 Y86.9511 
G01 X88.3903 Y86.9050 
G01 X88.3550 Y86.8697 
G01 X88.3168 Y86.8538 
G01 X88.3329 Y86.8560 
G01 X88.3539 Y86.8616 
G01 X88.3756 Y86.8616 
G01 X88.3972 Y86.8644 
G01 X88.4187 Y86.8616 
G01 X88.4404 Y86.8616 
G01 X88.4614 Y86.8560 
G01 X88.4830 Y86.8531 
G01 X88.5030 Y86.8448 
G01 X88.5240 Y86.8392 
G01 X88.5428 Y86.8283 
G01 X88.5629 Y86.8200 
G01 X88.5801 Y86.8068 
G01 X88.5989 Y86.7959 
G01 X88.6143 Y86.7806 
G01 X88.6315 Y86.7674 
G01 X88.6448 Y86.7501 
G01 X88.6601 Y86.7348 
G01 X88.6710 Y86.7160 
G01 X88.6842 Y86.6987 
G01 X88.6925 Y86.6787 
G01 X88.7034 Y86.6598 
G01 X88.7090 Y86.6388 
G01 X88.7745 Y86.4806 
G01 X89.0206 Y86.2345 
G01 X89.3420 Y86.1014 
G01 X90.9980 Y86.1014 
G01 X91.1111 Y86.1483 
G01 X91.1300 Y86.1591 
G01 X91.1509 Y86.1648 
G01 X91.1710 Y86.1731 
G01 X91.1925 Y86.1759 
G01 X91.2135 Y86.1815 
G01 X91.2353 Y86.1815 
G01 X91.2568 Y86.1844 
G01 X91.2783 Y86.1815 
G01 X91.3001 Y86.1815 
G01 X91.3210 Y86.1759 
G01 X91.3426 Y86.1731 
G01 X91.3626 Y86.1648 
G01 X91.3836 Y86.1591 
G01 X91.4024 Y86.1483 
G01 X91.4225 Y86.1400 
G01 X91.4398 Y86.1267 
G01 X91.4586 Y86.1159 
G01 X91.4739 Y86.1005 
G01 X91.4912 Y86.0873 
G01 X91.5044 Y86.0701 
G01 X91.5197 Y86.0547 
G01 X91.5306 Y86.0359 
G01 X91.5438 Y86.0187 
G01 X91.5521 Y85.9986 
G01 X91.5630 Y85.9798 
G01 X91.5686 Y85.9588 
G01 X91.5769 Y85.9387 
G01 X91.5798 Y85.9172 
G01 X91.5854 Y85.8962 
G01 X91.5854 Y85.8745 
G01 X91.5882 Y85.8529 
G01 X91.5854 Y85.8314 
G01 X91.5854 Y75.4887 
G01 X91.5630 Y75.4051 
G01 X91.5197 Y75.3302 
G01 X89.6098 Y73.4202 
G01 X89.5486 Y73.3590 
G01 X89.2166 Y73.0270 
G01 X89.0454 Y72.6137 
G01 X89.0454 Y66.2831 
G01 X89.0230 Y66.1995 
G01 X88.9797 Y66.1246 
G01 X88.7745 Y65.9194 
G01 X88.6414 Y65.5980 
G01 X88.6414 Y63.9420 
G01 X88.7558 Y63.6657 
G01 X88.7890 Y63.5858 
G01 X88.8003 Y63.5000 
G01 X88.7890 Y63.4142 
G01 X88.7558 Y63.3343 
G01 X88.6414 Y63.0580 
G01 X88.6414 Y61.4020 
G01 X88.7745 Y61.0806 
G01 X88.9186 Y60.9366 
G01 X88.9797 Y60.8754 
G01 X89.0230 Y60.8004 
G01 X89.0454 Y60.7169 
G01 X89.0454 Y39.6131 
G01 X89.0230 Y39.5295 
G01 X88.9797 Y39.4546 
G01 X88.9186 Y39.3934 
G01 X88.7745 Y39.2494 
G01 X88.7090 Y39.0912 
G01 X88.7034 Y39.0702 
G01 X88.6925 Y39.0514 
G01 X88.6842 Y39.0313 
G01 X88.6710 Y39.0141 
G01 X88.6601 Y38.9952 
G01 X88.6447 Y38.9799 
G01 X88.6315 Y38.9626 
G01 X88.6143 Y38.9494 
G01 X88.5989 Y38.9341 
G01 X88.5801 Y38.9232 
G01 X88.5629 Y38.9100 
G01 X88.5428 Y38.9017 
G01 X88.5240 Y38.8908 
G01 X88.5030 Y38.8852 
G01 X88.4830 Y38.8769 
G01 X88.4614 Y38.8740 
G01 X88.4404 Y38.8684 
G01 X88.4187 Y38.8684 
G01 X88.3972 Y38.8656 
G01 X88.3756 Y38.8684 
G01 X88.3539 Y38.8684 
G01 X88.3329 Y38.8740 
G01 X88.3168 Y38.8762 
G01 X88.3550 Y38.8603 
G01 X88.3903 Y38.8250 
G01 X88.4094 Y38.7789 
G01 X88.4094 Y37.4211 
G01 X88.3903 Y37.3750 
G01 X88.3550 Y37.3397 
G01 X88.3168 Y37.3238 
G01 X88.3329 Y37.3260 
G01 X88.3539 Y37.3316 
G01 X88.3756 Y37.3316 
G01 X88.3972 Y37.3344 
G01 X88.4187 Y37.3316 
G01 X88.4404 Y37.3316 
G01 X88.4614 Y37.3260 
G01 X88.4830 Y37.3231 
G01 X88.5030 Y37.3148 
G01 X88.5240 Y37.3092 
G01 X88.5428 Y37.2983 
G01 X88.5629 Y37.2900 
G01 X88.5801 Y37.2768 
G01 X88.5989 Y37.2659 
G01 X88.6143 Y37.2506 
G01 X88.6315 Y37.2373 
G01 X88.6447 Y37.2201 
G01 X88.6601 Y37.2048 
G01 X88.6710 Y37.1859 
G01 X88.6842 Y37.1687 
G01 X88.6925 Y37.1486 
G01 X88.7034 Y37.1298 
G01 X88.7090 Y37.1088 
G01 X88.7745 Y36.9506 
G01 X89.0206 Y36.7045 
G01 X89.3420 Y36.5714 
G01 X90.9980 Y36.5714 
G01 X91.1111 Y36.6183 
G01 X91.1300 Y36.6291 
G01 X91.1510 Y36.6348 
G01 X91.1710 Y36.6431 
G01 X91.1925 Y36.6459 
G01 X91.2135 Y36.6515 
G01 X91.2353 Y36.6515 
G01 X91.2568 Y36.6544 
G01 X91.2783 Y36.6515 
G01 X91.3001 Y36.6515 
G01 X91.3210 Y36.6459 
G01 X91.3426 Y36.6431 
G01 X91.3627 Y36.6348 
G01 X91.3836 Y36.6291 
G01 X91.4024 Y36.6183 
G01 X91.4225 Y36.6100 
G01 X91.4397 Y36.5967 
G01 X91.4586 Y36.5859 
G01 X91.4739 Y36.5705 
G01 X91.4912 Y36.5573 
G01 X91.5044 Y36.5401 
G01 X91.5197 Y36.5247 
G01 X91.5306 Y36.5059 
G01 X91.5438 Y36.4887 
G01 X91.5521 Y36.4686 
G01 X91.5630 Y36.4498 
G01 X91.5686 Y36.4288 
G01 X91.5769 Y36.4087 
G01 X91.5798 Y36.3872 
G01 X91.5854 Y36.3662 
G01 X91.5854 Y36.3445 
G01 X91.5882 Y36.3229 
G01 X91.5854 Y36.3014 
G01 X91.5854 Y25.9587 
G01 X91.5630 Y25.8751 
G01 X91.5197 Y25.8002 
G01 X89.6098 Y23.8902 
G01 X89.5486 Y23.8290 
G01 X89.2166 Y23.4970 
G01 X89.0454 Y23.0837 
G01 X89.0454 Y16.7531 
G01 X89.0230 Y16.6695 
G01 X88.9797 Y16.5946 
G01 X88.7745 Y16.3894 
G01 X88.6414 Y16.0680 
G01 X88.6414 Y14.4120 
G01 X88.7558 Y14.1357 
G01 X88.7890 Y14.0558 
G01 X88.8003 Y13.9700 
G01 X88.7890 Y13.8842 
G01 X88.7558 Y13.8043 
G01 X88.6414 Y13.5280 
G01 X88.6414 Y11.8720 
G01 X88.6883 Y11.7589 
G01 X88.6991 Y11.7400 
G01 X88.7048 Y11.7190 
G01 X88.7131 Y11.6990 
G01 X88.7159 Y11.6774 
G01 X88.7215 Y11.6565 
G01 X88.7215 Y11.6347 
G01 X88.7244 Y11.6132 
G01 X88.7215 Y11.5917 
G01 X88.7215 Y11.5699 
G01 X88.7159 Y11.5490 
G01 X88.7131 Y11.5274 
G01 X88.7048 Y11.5073 
G01 X88.6991 Y11.4864 
G01 X88.6883 Y11.4675 
G01 X88.6800 Y11.4475 
G01 X88.6667 Y11.4302 
G01 X88.6559 Y11.4114 
G01 X88.6405 Y11.3961 
G01 X88.6273 Y11.3788 
G01 X88.6101 Y11.3656 
G01 X88.5947 Y11.3503 
G01 X88.5759 Y11.3394 
G01 X88.5587 Y11.3262 
G01 X88.5386 Y11.3179 
G01 X88.5198 Y11.3070 
G01 X88.4988 Y11.3014 
G01 X88.4787 Y11.2931 
G01 X88.4572 Y11.2902 
G01 X88.4362 Y11.2846 
G01 X88.4145 Y11.2846 
G01 X88.3929 Y11.2818 
G01 X88.3714 Y11.2846 
G01 X71.7652 Y11.2846 
G01 X71.6787 Y11.2846 
G01 X71.5951 Y11.3070 
G01 X71.5202 Y11.3503 
G01 X69.8653 Y13.0051 
G01 X69.8220 Y13.0801 
G01 X69.7996 Y13.1636 
G01 X69.7996 Y13.2502 
G01 X69.8220 Y13.3337 
G01 X69.8653 Y13.4087 
G01 X69.9265 Y13.4698 
G01 X70.0014 Y13.5131 
G01 X70.0850 Y13.5355 
G01 X70.3741 Y13.5355 
G01 X70.7299 Y13.6829 
G01 X70.7417 Y13.6920 
G01 X70.7618 Y13.7003 
G01 X70.7806 Y13.7111 
G01 X70.8016 Y13.7168 
G01 X70.8217 Y13.7251 
G01 X70.8432 Y13.7279 
G01 X70.8641 Y13.7335 
G01 X70.8859 Y13.7335 
G01 X70.9075 Y13.7364 
G01 X70.9290 Y13.7335 
G01 X70.9506 Y13.7336 
G01 X70.9624 Y13.7304 
G01 X71.6003 Y13.7304 
G01 X71.7383 Y13.7304 
G01 X71.7684 Y13.7429 
G01 X71.8008 Y13.7563 
G01 X72.0785 Y13.8713 
G01 X72.2538 Y14.0466 
G01 X72.2578 Y14.0505 
G01 X72.2713 Y14.0641 
G01 X72.3102 Y14.1029 
G01 X72.3324 Y14.1252 
G01 X72.5337 Y14.3265 
G01 X72.6259 Y14.5490 
G01 X72.6746 Y14.6666 
G01 X72.6746 Y14.8912 
G01 X72.6746 Y15.0569 
G01 X72.6746 Y15.0668 
G01 X72.6726 Y15.0766 
G01 X72.6746 Y15.1100 
G01 X72.6746 Y15.8144 
G01 X72.5337 Y16.1545 
G01 X72.2578 Y16.4304 
G01 X72.0785 Y16.6097 
G01 X71.7384 Y16.7506 
G01 X71.4238 Y16.7506 
G01 X71.3904 Y16.7486 
G01 X71.3806 Y16.7506 
G01 X71.3707 Y16.7506 
G01 X71.2105 Y16.7506 
G01 X70.9624 Y16.7506 
G01 X70.9506 Y16.7474 
G01 X70.9290 Y16.7474 
G01 X70.9076 Y16.7446 
G01 X70.8860 Y16.7475 
G01 X70.8641 Y16.7475 
G01 X70.8432 Y16.7531 
G01 X70.8218 Y16.7559 
G01 X70.8016 Y16.7642 
G01 X70.7806 Y16.7699 
G01 X70.7618 Y16.7807 
G01 X70.7419 Y16.7889 
G01 X70.7299 Y16.7981 
G01 X70.3741 Y16.9455 
G01 X70.0059 Y16.9455 
G01 X69.6356 Y16.7921 
G01 X69.6025 Y16.7730 
G01 X69.5656 Y16.7631 
G01 X69.5189 Y16.7506 
G01 X69.2263 Y16.7506 
G01 X69.1863 Y16.7340 
G01 X69.1064 Y16.7009 
G01 X69.0206 Y16.6896 
G01 X68.9348 Y16.7009 
G01 X68.8549 Y16.7340 
G01 X68.8149 Y16.7506 
G01 X68.4467 Y16.7506 
G01 X68.1066 Y16.6097 
G01 X67.8463 Y16.3494 
G01 X67.7054 Y16.0093 
G01 X67.7054 Y15.9151 
G01 X67.6830 Y15.8315 
G01 X67.6397 Y15.7566 
G01 X67.5786 Y15.6954 
G01 X67.5036 Y15.6521 
G01 X67.4201 Y15.6297 
G01 X67.3335 Y15.6297 
G01 X67.2500 Y15.6521 
G01 X67.1750 Y15.6954 
G01 X46.0377 Y36.8327 
G01 X46.0205 Y36.8459 
G01 X46.0073 Y36.8632 
G01 X45.9919 Y36.8785 
G01 X45.9810 Y36.8973 
G01 X45.9678 Y36.9146 
G01 X45.9595 Y36.9346 
G01 X45.9486 Y36.9534 
G01 X45.9430 Y36.9744 
G01 X45.9347 Y36.9945 
G01 X45.9319 Y37.0160 
G01 X45.9262 Y37.0370 
G01 X45.9262 Y37.0588 
G01 X45.9234 Y37.0803 
G01 X45.9262 Y37.1018 
G01 X45.9262 Y37.1235 
G01 X45.9319 Y37.1445 
G01 X45.9347 Y37.1661 
G01 X45.9430 Y37.1861 
G01 X45.9486 Y37.2071 
G01 X45.9595 Y37.2259 
G01 X45.9786 Y37.2720 
G00 Z2.5600 
G00 X29.9350 Y37.3397 
G01 Z-0.1778 F254.00 
G01 X29.8889 Y37.3206 F600.00 
G01 X28.5311 Y37.3206 
G01 X28.4850 Y37.3397 
G01 X28.4497 Y37.3750 
G01 X28.4306 Y37.4211 
G01 X28.4306 Y38.7789 
G01 X28.4497 Y38.8250 
G01 X28.4850 Y38.8603 
G01 X28.5311 Y38.8794 
G01 X28.8346 Y38.8794 
G01 X28.8346 Y61.4506 
G01 X28.5311 Y61.4506 
G01 X28.4850 Y61.4697 
G01 X28.4497 Y61.5050 
G01 X28.4306 Y61.5511 
G01 X28.4306 Y62.9089 
G01 X28.4497 Y62.9550 
G01 X28.4850 Y62.9903 
G01 X28.5311 Y63.0094 
G01 X29.8889 Y63.0094 
G01 X29.9350 Y62.9903 
G01 X29.9703 Y62.9550 
G01 X29.9894 Y62.9089 
G01 X29.9894 Y61.5511 
G01 X29.9703 Y61.5050 
G01 X29.9350 Y61.4697 
G01 X29.8889 Y61.4506 
G01 X29.5854 Y61.4506 
G01 X29.5854 Y38.8794 
G01 X29.8889 Y38.8794 
G01 X29.9350 Y38.8603 
G01 X29.9703 Y38.8250 
G01 X29.9894 Y38.7789 
G01 X29.9894 Y37.4211 
G01 X29.9703 Y37.3750 
G01 X29.9350 Y37.3397 
G00 Z2.5600 
G00 X27.3453 Y37.3206 
G01 Z-0.1778 F254.00 
G01 X27.0454 Y37.3206 F600.00 
G01 X27.0454 Y37.3174 
G01 X27.3375 Y37.3174 
G01 X27.3453 Y37.3206 
G00 Z2.5600 
G00 X26.2946 Y37.3206 
G01 Z-0.1778 F254.00 
G01 X25.9947 Y37.3206 F600.00 
G01 X26.0025 Y37.3174 
G01 X26.2946 Y37.3174 
G01 X26.2946 Y37.3206 
G00 Z2.5600 
G00 X26.3414 Y38.8794 
G01 Z-0.1778 F254.00 
G01 X26.3414 Y38.8826 F600.00 
G01 X26.0025 Y38.8826 
G01 X25.9947 Y38.8794 
G01 X26.3414 Y38.8794 
G00 Z2.5600 
G00 X26.9986 Y38.8794 
G01 Z-0.1778 F254.00 
G01 X27.3453 Y38.8794 F600.00 
G01 X27.3375 Y38.8826 
G01 X26.9986 Y38.8826 
G01 X26.9986 Y38.8794 
G00 Z2.5600 
G00 X28.4497 Y64.0450 
G01 Z-0.1778 F254.00 
G01 X28.4306 Y64.0911 F600.00 
G01 X28.4306 Y65.4489 
G01 X28.4497 Y65.4950 
G01 X28.4850 Y65.5303 
G01 X28.5311 Y65.5494 
G01 X28.8346 Y65.5494 
G01 X28.8346 Y72.4394 
G01 X28.8602 Y72.5349 
G01 X28.9096 Y72.6205 
G01 X28.9795 Y72.6904 
G01 X31.3746 Y75.0855 
G01 X31.3746 Y86.8506 
G01 X31.0711 Y86.8506 
G01 X31.0250 Y86.8697 
G01 X30.9897 Y86.9050 
G01 X30.9706 Y86.9511 
G01 X30.9706 Y88.3089 
G01 X30.9897 Y88.3550 
G01 X31.0250 Y88.3903 
G01 X31.0711 Y88.4094 
G01 X32.4289 Y88.4094 
G01 X32.4750 Y88.3903 
G01 X32.5103 Y88.3550 
G01 X32.5294 Y88.3089 
G01 X32.5294 Y86.9511 
G01 X32.5103 Y86.9050 
G01 X32.4750 Y86.8697 
G01 X32.4289 Y86.8506 
G01 X32.1254 Y86.8506 
G01 X32.1254 Y74.8806 
G01 X32.0998 Y74.7851 
G01 X32.0504 Y74.6995 
G01 X29.5854 Y72.2345 
G01 X29.5854 Y65.5494 
G01 X29.8889 Y65.5494 
G01 X29.9350 Y65.5303 
G01 X29.9703 Y65.4950 
G01 X29.9894 Y65.4489 
G01 X29.9894 Y64.0911 
G01 X29.9703 Y64.0450 
G01 X29.9350 Y64.0097 
G01 X29.8889 Y63.9906 
G01 X28.5311 Y63.9906 
G01 X28.4850 Y64.0097 
G01 X28.4497 Y64.0450 
G00 Z2.5600 
G00 X36.0697 Y64.0450 
G01 Z-0.1778 F254.00 
G01 X36.0506 Y64.0911 F600.00 
G01 X36.0506 Y65.4489 
G01 X36.0697 Y65.4950 
G01 X36.1050 Y65.5303 
G01 X36.1511 Y65.5494 
G01 X36.4546 Y65.5494 
G01 X36.4546 Y72.2345 
G01 X33.9896 Y74.6995 
G01 X33.9402 Y74.7851 
G01 X33.9146 Y74.8806 
G01 X33.9146 Y74.9794 
G01 X33.9146 Y86.8506 
G01 X33.6111 Y86.8506 
G01 X33.5650 Y86.8697 
G01 X33.5297 Y86.9050 
G01 X33.5106 Y86.9511 
G01 X33.5106 Y88.3089 
G01 X33.5297 Y88.3550 
G01 X33.5650 Y88.3903 
G01 X33.6111 Y88.4094 
G01 X34.9689 Y88.4094 
G01 X35.0150 Y88.3903 
G01 X35.0503 Y88.3550 
G01 X35.0694 Y88.3089 
G01 X35.0694 Y86.9511 
G01 X35.0503 Y86.9050 
G01 X35.0150 Y86.8697 
G01 X34.9689 Y86.8506 
G01 X34.6654 Y86.8506 
G01 X34.6654 Y75.0855 
G01 X37.0605 Y72.6904 
G01 X37.1304 Y72.6205 
G01 X37.1798 Y72.5349 
G01 X37.2054 Y72.4394 
G01 X37.2054 Y65.5494 
G01 X37.5089 Y65.5494 
G01 X37.5550 Y65.5303 
G01 X37.5903 Y65.4950 
G01 X37.6094 Y65.4489 
G01 X37.6094 Y64.0911 
G01 X37.5903 Y64.0450 
G01 X37.5550 Y64.0097 
G01 X37.5089 Y63.9906 
G01 X36.1511 Y63.9906 
G01 X36.1050 Y64.0097 
G01 X36.0697 Y64.0450 
G00 Z2.5600 
G00 X36.0697 Y86.9050 
G01 Z-0.1778 F254.00 
G01 X36.0506 Y86.9511 F600.00 
G01 X36.0506 Y88.3089 
G01 X36.0697 Y88.3550 
G01 X36.1050 Y88.3903 
G01 X36.1511 Y88.4094 
G01 X36.4546 Y88.4094 
G01 X36.4546 Y110.9806 
G01 X36.1511 Y110.9806 
G01 X36.1050 Y110.9997 
G01 X36.0697 Y111.0350 
G01 X36.0506 Y111.0811 
G01 X36.0506 Y112.4389 
G01 X36.0697 Y112.4850 
G01 X36.1050 Y112.5203 
G01 X36.1511 Y112.5394 
G01 X37.5089 Y112.5394 
G01 X37.5550 Y112.5203 
G01 X37.5903 Y112.4850 
G01 X37.6094 Y112.4389 
G01 X37.6094 Y111.0811 
G01 X37.5903 Y111.0350 
G01 X37.5550 Y110.9997 
G01 X37.5089 Y110.9806 
G01 X37.2054 Y110.9806 
G01 X37.2054 Y88.4094 
G01 X37.5089 Y88.4094 
G01 X37.5550 Y88.3903 
G01 X37.5903 Y88.3550 
G01 X37.6094 Y88.3089 
G01 X37.6094 Y86.9511 
G01 X37.5903 Y86.9050 
G01 X37.5550 Y86.8697 
G01 X37.5089 Y86.8506 
G01 X36.1511 Y86.8506 
G01 X36.1050 Y86.8697 
G01 X36.0697 Y86.9050 
G00 Z2.5600 
G00 X38.6097 Y86.9050 
G01 Z-0.1778 F254.00 
G01 X38.5906 Y86.9511 F600.00 
G01 X38.5906 Y88.3089 
G01 X38.6097 Y88.3550 
G01 X38.6450 Y88.3903 
G01 X38.6911 Y88.4094 
G01 X40.0489 Y88.4094 
G01 X40.0950 Y88.3903 
G01 X40.1303 Y88.3550 
G01 X40.1494 Y88.3089 
G01 X40.1494 Y86.9511 
G01 X40.1303 Y86.9050 
G01 X40.0950 Y86.8697 
G01 X40.0489 Y86.8506 
G01 X38.6911 Y86.8506 
G01 X38.6450 Y86.8697 
G01 X38.6097 Y86.9050 
G00 Z2.5600 
G00 X41.1497 Y86.9050 
G01 Z-0.1778 F254.00 
G01 X41.1306 Y86.9511 F600.00 
G01 X41.1306 Y88.3089 
G01 X41.1497 Y88.3550 
G01 X41.1850 Y88.3903 
G01 X41.2311 Y88.4094 
G01 X42.5889 Y88.4094 
G01 X42.6350 Y88.3903 
G01 X42.6703 Y88.3550 
G01 X42.6894 Y88.3089 
G01 X42.6894 Y86.9511 
G01 X42.6703 Y86.9050 
G01 X42.6350 Y86.8697 
G01 X42.5889 Y86.8506 
G01 X41.2311 Y86.8506 
G01 X41.1850 Y86.8697 
G01 X41.1497 Y86.9050 
G00 Z2.5600 
G00 X29.9703 Y86.9050 
G01 Z-0.1778 F254.00 
G01 X29.9350 Y86.8697 F600.00 
G01 X29.8889 Y86.8506 
G01 X28.5311 Y86.8506 
G01 X28.4850 Y86.8697 
G01 X28.4497 Y86.9050 
G01 X28.4306 Y86.9511 
G01 X28.4306 Y88.3089 
G01 X28.4497 Y88.3550 
G01 X28.4850 Y88.3903 
G01 X28.5311 Y88.4094 
G01 X28.8346 Y88.4094 
G01 X28.8346 Y110.9806 
G01 X28.5311 Y110.9806 
G01 X28.4850 Y110.9997 
G01 X28.4497 Y111.0350 
G01 X28.4306 Y111.0811 
G01 X28.4306 Y112.4389 
G01 X28.4497 Y112.4850 
G01 X28.4850 Y112.5203 
G01 X28.5311 Y112.5394 
G01 X29.8889 Y112.5394 
G01 X29.9350 Y112.5203 
G01 X29.9703 Y112.4850 
G01 X29.9894 Y112.4389 
G01 X29.9894 Y111.0811 
G01 X29.9703 Y111.0350 
G01 X29.9350 Y110.9997 
G01 X29.8889 Y110.9806 
G01 X29.5854 Y110.9806 
G01 X29.5854 Y88.4094 
G01 X29.8889 Y88.4094 
G01 X29.9350 Y88.3903 
G01 X29.9703 Y88.3550 
G01 X29.9894 Y88.3089 
G01 X29.9894 Y86.9511 
G01 X29.9703 Y86.9050 
G00 Z2.5600 
G00 X27.3453 Y86.8506 
G01 Z-0.1778 F254.00 
G01 X27.0454 Y86.8506 F600.00 
G01 X27.0454 Y86.8474 
G01 X27.3375 Y86.8474 
G01 X27.3453 Y86.8506 
G00 Z2.5600 
G00 X26.2946 Y86.8506 
G01 Z-0.1778 F254.00 
G01 X25.9947 Y86.8506 F600.00 
G01 X26.0025 Y86.8474 
G01 X26.2946 Y86.8474 
G01 X26.2946 Y86.8506 
G00 Z2.5600 
G00 X25.9832 Y86.8538 
G01 Z-0.1778 F254.00 
G01 X25.9450 Y86.8697 F600.00 
G01 X25.9097 Y86.9050 
G01 X25.8906 Y86.9511 
G01 X25.8906 Y88.3089 
G01 X25.9097 Y88.3550 
G01 X25.9450 Y88.3903 
G01 X25.9832 Y88.4062 
G01 X25.9671 Y88.4040 
G01 X25.9461 Y88.3984 
G01 X25.9244 Y88.3984 
G01 X25.9028 Y88.3956 
G01 X25.8813 Y88.3984 
G01 X25.8596 Y88.3984 
G01 X25.8386 Y88.4040 
G01 X25.8170 Y88.4069 
G01 X25.7970 Y88.4152 
G01 X25.7760 Y88.4208 
G01 X25.7572 Y88.4317 
G01 X25.7371 Y88.4400 
G01 X25.7199 Y88.4532 
G01 X25.7011 Y88.4641 
G01 X25.6857 Y88.4794 
G01 X25.6685 Y88.4926 
G01 X25.6552 Y88.5099 
G01 X25.6399 Y88.5252 
G01 X25.6290 Y88.5441 
G01 X25.6158 Y88.5613 
G01 X25.6075 Y88.5814 
G01 X25.5966 Y88.6002 
G01 X25.5910 Y88.6212 
G01 X25.5254 Y88.7794 
G01 X25.2794 Y89.0254 
G01 X24.9580 Y89.1586 
G01 X23.3020 Y89.1586 
G01 X23.0257 Y89.0441 
G01 X22.9458 Y89.0110 
G01 X22.8600 Y88.9997 
G01 X22.7742 Y89.0110 
G01 X22.6943 Y89.0441 
G01 X22.4180 Y89.1586 
G01 X20.7620 Y89.1586 
G01 X20.4857 Y89.0441 
G01 X20.4058 Y89.0110 
G01 X20.3200 Y88.9997 
G01 X20.2342 Y89.0110 
G01 X20.1543 Y89.0441 
G01 X19.8780 Y89.1586 
G01 X18.2220 Y89.1586 
G01 X17.9457 Y89.0441 
G01 X17.8658 Y89.0110 
G01 X17.7800 Y88.9997 
G01 X17.6942 Y89.0110 
G01 X17.6143 Y89.0441 
G01 X17.3380 Y89.1586 
G01 X15.6820 Y89.1586 
G01 X15.3606 Y89.0254 
G01 X15.2166 Y88.8814 
G01 X15.1554 Y88.8203 
G01 X15.0805 Y88.7770 
G01 X14.9969 Y88.7546 
G01 X8.6663 Y88.7546 
G01 X8.2530 Y88.5834 
G01 X5.7898 Y86.1202 
G01 X5.7286 Y86.0590 
G01 X5.3966 Y85.7270 
G01 X5.2254 Y85.3137 
G01 X5.2254 Y79.7039 
G01 X5.2282 Y79.6823 
G01 X5.2254 Y79.6608 
G01 X5.2254 Y79.6391 
G01 X5.2198 Y79.6181 
G01 X5.2169 Y79.5966 
G01 X5.2086 Y79.5765 
G01 X5.2030 Y79.5555 
G01 X5.1921 Y79.5367 
G01 X4.9754 Y79.0134 
G01 X4.9754 Y78.4666 
G01 X5.1847 Y77.9613 
G01 X5.5713 Y77.5747 
G01 X6.0766 Y77.3654 
G01 X6.5951 Y77.3654 
G01 X6.6786 Y77.3430 
G01 X6.7536 Y77.2997 
G01 X6.8147 Y77.2386 
G01 X6.8580 Y77.1636 
G01 X6.8804 Y77.0801 
G01 X6.8804 Y76.5899 
G01 X6.8580 Y76.5064 
G01 X6.8147 Y76.4314 
G01 X6.7536 Y76.3702 
G01 X6.6786 Y76.3270 
G01 X6.5951 Y76.3046 
G01 X6.0766 Y76.3046 
G01 X5.5713 Y76.0953 
G01 X5.1847 Y75.7086 
G01 X4.9754 Y75.2034 
G01 X4.9754 Y74.6566 
G01 X5.1921 Y74.1333 
G01 X5.2030 Y74.1145 
G01 X5.2086 Y74.0935 
G01 X5.2169 Y74.0734 
G01 X5.2198 Y74.0519 
G01 X5.2254 Y74.0309 
G01 X5.2254 Y74.0092 
G01 X5.2282 Y73.9877 
G01 X5.2254 Y73.9661 
G01 X5.2254 Y72.8013 
G01 X5.3966 Y72.3880 
G01 X5.7130 Y72.0716 
G01 X6.1263 Y71.9004 
G01 X6.5737 Y71.9004 
G01 X6.8353 Y72.0088 
G01 X6.0496 Y72.7945 
G01 X6.0002 Y72.8801 
G01 X5.9746 Y72.9756 
G01 X5.9746 Y74.4287 
G01 X5.9513 Y74.4442 
G01 X5.8642 Y74.5313 
G01 X5.7958 Y74.6338 
G01 X5.7486 Y74.7476 
G01 X5.7246 Y74.8684 
G01 X5.7246 Y74.9916 
G01 X5.7486 Y75.1124 
G01 X5.7958 Y75.2262 
G01 X5.8642 Y75.3287 
G01 X5.9513 Y75.4158 
G01 X6.0538 Y75.4842 
G01 X6.1676 Y75.5314 
G01 X6.2884 Y75.5554 
G01 X6.4116 Y75.5554 
G01 X6.5324 Y75.5314 
G01 X6.6462 Y75.4842 
G01 X6.7487 Y75.4158 
G01 X6.8358 Y75.3287 
G01 X6.9042 Y75.2262 
G01 X6.9514 Y75.1124 
G01 X6.9754 Y74.9916 
G01 X6.9754 Y74.8684 
G01 X6.9514 Y74.7476 
G01 X6.9042 Y74.6338 
G01 X6.8358 Y74.5313 
G01 X6.7487 Y74.4442 
G01 X6.7254 Y74.4287 
G01 X6.7254 Y73.1805 
G01 X7.3662 Y72.5397 
G01 X7.4746 Y72.8013 
G01 X7.4746 Y73.2521 
G01 X7.4718 Y73.2736 
G01 X7.4746 Y73.2951 
G01 X7.4746 Y73.3169 
G01 X7.4802 Y73.3379 
G01 X7.4831 Y73.3594 
G01 X7.4914 Y73.3795 
G01 X7.4970 Y73.4004 
G01 X7.5079 Y73.4193 
G01 X7.5162 Y73.4393 
G01 X7.5294 Y73.4566 
G01 X7.5403 Y73.4754 
G01 X7.5556 Y73.4907 
G01 X7.5688 Y73.5080 
G01 X7.5861 Y73.5212 
G01 X7.6014 Y73.5366 
G01 X7.6202 Y73.5474 
G01 X7.6375 Y73.5606 
G01 X7.6575 Y73.5690 
G01 X7.6764 Y73.5798 
G01 X7.6973 Y73.5854 
G01 X7.7174 Y73.5938 
G01 X7.7390 Y73.5966 
G01 X7.7599 Y73.6022 
G01 X7.7817 Y73.6022 
G01 X7.8032 Y73.6050 
G01 X7.8247 Y73.6022 
G01 X7.8465 Y73.6022 
G01 X7.8674 Y73.5966 
G01 X7.8890 Y73.5938 
G01 X7.9090 Y73.5854 
G01 X7.9300 Y73.5798 
G01 X7.9489 Y73.5690 
G01 X7.9996 Y73.5479 
G01 X8.0206 Y73.5423 
G01 X8.0394 Y73.5314 
G01 X8.0595 Y73.5231 
G01 X8.0767 Y73.5099 
G01 X8.0955 Y73.4990 
G01 X8.1109 Y73.4837 
G01 X8.1281 Y73.4705 
G01 X8.1414 Y73.4532 
G01 X8.4948 Y73.0998 
G01 X8.5560 Y73.0386 
G01 X8.8880 Y72.7066 
G01 X9.3013 Y72.5354 
G01 X17.3687 Y72.5354 
G01 X17.7820 Y72.7066 
G01 X18.9752 Y73.8998 
G01 X19.3684 Y74.2930 
G01 X19.5396 Y74.7063 
G01 X19.5396 Y79.4513 
G01 X19.5620 Y79.5349 
G01 X19.6053 Y79.6098 
G01 X20.0240 Y80.0286 
G01 X20.0852 Y80.0897 
G01 X20.1601 Y80.1330 
G01 X20.2437 Y80.1554 
G01 X22.4487 Y80.1554 
G01 X22.8620 Y80.3266 
G01 X24.6902 Y82.1548 
G01 X25.0834 Y82.5480 
G01 X25.2546 Y82.9613 
G01 X25.2546 Y86.1169 
G01 X25.2770 Y86.2005 
G01 X25.3203 Y86.2754 
G01 X25.5254 Y86.4806 
G01 X25.5910 Y86.6388 
G01 X25.5966 Y86.6598 
G01 X25.6075 Y86.6786 
G01 X25.6158 Y86.6987 
G01 X25.6290 Y86.7159 
G01 X25.6399 Y86.7348 
G01 X25.6552 Y86.7501 
G01 X25.6685 Y86.7673 
G01 X25.6857 Y86.7806 
G01 X25.7011 Y86.7959 
G01 X25.7199 Y86.8068 
G01 X25.7371 Y86.8200 
G01 X25.7572 Y86.8283 
G01 X25.7760 Y86.8392 
G01 X25.7970 Y86.8448 
G01 X25.8170 Y86.8531 
G01 X25.8386 Y86.8560 
G01 X25.8596 Y86.8616 
G01 X25.8813 Y86.8616 
G01 X25.9028 Y86.8644 
G01 X25.9244 Y86.8616 
G01 X25.9461 Y86.8616 
G01 X25.9671 Y86.8560 
G01 X25.9832 Y86.8538 
G00 Z2.5600 
G00 X24.8550 Y86.8697 
G01 Z-0.1778 F254.00 
G01 X24.8089 Y86.8506 F600.00 
G01 X24.5054 Y86.8506 
G01 X24.5054 Y83.1356 
G01 X24.4798 Y83.0401 
G01 X24.4304 Y82.9545 
G01 X24.3605 Y82.8846 
G01 X22.4555 Y80.9796 
G01 X22.3699 Y80.9302 
G01 X22.2744 Y80.9046 
G01 X19.8405 Y80.9046 
G01 X18.7904 Y79.8545 
G01 X18.7904 Y74.8806 
G01 X18.7648 Y74.7851 
G01 X18.7154 Y74.6995 
G01 X18.6455 Y74.6296 
G01 X17.3755 Y73.3596 
G01 X17.2899 Y73.3102 
G01 X17.1944 Y73.2846 
G01 X9.4756 Y73.2846 
G01 X9.3801 Y73.3102 
G01 X9.2945 Y73.3596 
G01 X9.2246 Y73.4295 
G01 X8.3440 Y74.3101 
G01 X8.3166 Y74.3046 
G01 X8.1934 Y74.3046 
G01 X8.0726 Y74.3286 
G01 X7.9588 Y74.3758 
G01 X7.8563 Y74.4442 
G01 X7.7692 Y74.5313 
G01 X7.7008 Y74.6338 
G01 X7.6536 Y74.7476 
G01 X7.6296 Y74.8684 
G01 X7.6296 Y74.9916 
G01 X7.6536 Y75.1124 
G01 X7.7008 Y75.2262 
G01 X7.7692 Y75.3287 
G01 X7.8563 Y75.4158 
G01 X7.9588 Y75.4842 
G01 X8.0726 Y75.5314 
G01 X8.1934 Y75.5554 
G01 X8.3166 Y75.5554 
G01 X8.4374 Y75.5314 
G01 X8.5512 Y75.4842 
G01 X8.6537 Y75.4158 
G01 X8.7408 Y75.3287 
G01 X8.8092 Y75.2262 
G01 X8.8564 Y75.1124 
G01 X8.8804 Y74.9916 
G01 X8.8804 Y74.8684 
G01 X8.8749 Y74.8410 
G01 X9.6805 Y74.0354 
G01 X16.9895 Y74.0354 
G01 X18.0396 Y75.0855 
G01 X18.0396 Y80.0594 
G01 X18.0652 Y80.1549 
G01 X18.1146 Y80.2405 
G01 X19.3846 Y81.5105 
G01 X19.4545 Y81.5804 
G01 X19.5401 Y81.6298 
G01 X19.6356 Y81.6554 
G01 X22.0695 Y81.6554 
G01 X23.7546 Y83.3405 
G01 X23.7546 Y86.8506 
G01 X23.4511 Y86.8506 
G01 X23.4050 Y86.8697 
G01 X23.3697 Y86.9050 
G01 X23.3506 Y86.9511 
G01 X23.3506 Y88.3089 
G01 X23.3697 Y88.3550 
G01 X23.4050 Y88.3903 
G01 X23.4511 Y88.4094 
G01 X24.8089 Y88.4094 
G01 X24.8550 Y88.3903 
G01 X24.8903 Y88.3550 
G01 X24.9094 Y88.3089 
G01 X24.9094 Y86.9511 
G01 X24.8903 Y86.9050 
G01 X24.8550 Y86.8697 
G00 Z2.5600 
G00 X22.3150 Y86.8697 
G01 Z-0.1778 F254.00 
G01 X22.2689 Y86.8506 F600.00 
G01 X21.9654 Y86.8506 
G01 X21.9654 Y84.4056 
G01 X21.9398 Y84.3101 
G01 X21.8904 Y84.2245 
G01 X21.8205 Y84.1546 
G01 X20.5505 Y82.8846 
G01 X20.4649 Y82.8352 
G01 X20.3694 Y82.8096 
G01 X11.5855 Y82.8096 
G01 X10.5354 Y81.7595 
G01 X10.5354 Y77.4206 
G01 X10.5098 Y77.3251 
G01 X10.4604 Y77.2395 
G01 X10.3905 Y77.1696 
G01 X9.7555 Y76.5346 
G01 X9.6699 Y76.4852 
G01 X9.5744 Y76.4596 
G01 X9.4756 Y76.4596 
G01 X8.7563 Y76.4596 
G01 X8.7408 Y76.4363 
G01 X8.6537 Y76.3492 
G01 X8.5512 Y76.2808 
G01 X8.4374 Y76.2336 
G01 X8.3166 Y76.2096 
G01 X8.1934 Y76.2096 
G01 X8.0726 Y76.2336 
G01 X7.9588 Y76.2808 
G01 X7.8563 Y76.3492 
G01 X7.7692 Y76.4363 
G01 X7.7008 Y76.5388 
G01 X7.6536 Y76.6526 
G01 X7.6296 Y76.7734 
G01 X7.6296 Y76.8966 
G01 X7.6536 Y77.0174 
G01 X7.7008 Y77.1312 
G01 X7.7692 Y77.2337 
G01 X7.8563 Y77.3208 
G01 X7.9588 Y77.3892 
G01 X8.0726 Y77.4364 
G01 X8.1934 Y77.4604 
G01 X8.3166 Y77.4604 
G01 X8.4374 Y77.4364 
G01 X8.5512 Y77.3892 
G01 X8.6537 Y77.3208 
G01 X8.7408 Y77.2337 
G01 X8.7563 Y77.2104 
G01 X9.3695 Y77.2104 
G01 X9.7846 Y77.6255 
G01 X9.7846 Y81.9644 
G01 X9.8102 Y82.0599 
G01 X9.8596 Y82.1455 
G01 X11.1296 Y83.4155 
G01 X11.1995 Y83.4854 
G01 X11.2851 Y83.5348 
G01 X11.3806 Y83.5604 
G01 X20.1645 Y83.5604 
G01 X21.2146 Y84.6105 
G01 X21.2146 Y86.8506 
G01 X20.9111 Y86.8506 
G01 X20.8650 Y86.8697 
G01 X20.8297 Y86.9050 
G01 X20.8106 Y86.9511 
G01 X20.8106 Y88.3089 
G01 X20.8297 Y88.3550 
G01 X20.8650 Y88.3903 
G01 X20.9111 Y88.4094 
G01 X22.2689 Y88.4094 
G01 X22.3150 Y88.3903 
G01 X22.3503 Y88.3550 
G01 X22.3694 Y88.3089 
G01 X22.3694 Y86.9511 
G01 X22.3503 Y86.9050 
G01 X22.3150 Y86.8697 
G00 Z2.5600 
G00 X19.7750 Y86.8697 
G01 Z-0.1778 F254.00 
G01 X19.7289 Y86.8506 F600.00 
G01 X19.4254 Y86.8506 
G01 X19.4254 Y85.6756 
G01 X19.3998 Y85.5801 
G01 X19.3504 Y85.4945 
G01 X18.7154 Y84.8595 
G01 X18.6455 Y84.7896 
G01 X18.5599 Y84.7402 
G01 X18.4644 Y84.7146 
G01 X9.6805 Y84.7146 
G01 X8.6304 Y83.6645 
G01 X8.6304 Y79.2413 
G01 X8.6537 Y79.2258 
G01 X8.7408 Y79.1387 
G01 X8.8092 Y79.0362 
G01 X8.8564 Y78.9224 
G01 X8.8804 Y78.8016 
G01 X8.8804 Y78.6784 
G01 X8.8564 Y78.5576 
G01 X8.8092 Y78.4438 
G01 X8.7408 Y78.3413 
G01 X8.6537 Y78.2542 
G01 X8.5512 Y78.1858 
G01 X8.4374 Y78.1386 
G01 X8.3166 Y78.1146 
G01 X8.1934 Y78.1146 
G01 X8.0726 Y78.1386 
G01 X7.9588 Y78.1858 
G01 X7.8563 Y78.2542 
G01 X7.7692 Y78.3413 
G01 X7.7008 Y78.4438 
G01 X7.6536 Y78.5576 
G01 X7.6296 Y78.6784 
G01 X7.6296 Y78.8016 
G01 X7.6536 Y78.9224 
G01 X7.7008 Y79.0362 
G01 X7.7692 Y79.1387 
G01 X7.8563 Y79.2258 
G01 X7.8796 Y79.2413 
G01 X7.8796 Y83.8694 
G01 X7.9052 Y83.9649 
G01 X7.9546 Y84.0505 
G01 X8.0245 Y84.1204 
G01 X9.2945 Y85.3904 
G01 X9.3801 Y85.4398 
G01 X9.4756 Y85.4654 
G01 X18.2595 Y85.4654 
G01 X18.6746 Y85.8805 
G01 X18.6746 Y86.8506 
G01 X18.3711 Y86.8506 
G01 X18.3250 Y86.8697 
G01 X18.2897 Y86.9050 
G01 X18.2706 Y86.9511 
G01 X18.2706 Y88.3089 
G01 X18.2897 Y88.3550 
G01 X18.3250 Y88.3903 
G01 X18.3711 Y88.4094 
G01 X19.7289 Y88.4094 
G01 X19.7750 Y88.3903 
G01 X19.8103 Y88.3550 
G01 X19.8294 Y88.3089 
G01 X19.8294 Y86.9511 
G01 X19.8103 Y86.9050 
G01 X19.7750 Y86.8697 
G00 Z2.5600 
G00 X17.2350 Y86.8697 
G01 Z-0.1778 F254.00 
G01 X17.1889 Y86.8506 F600.00 
G01 X15.8311 Y86.8506 
G01 X15.7850 Y86.8697 
G01 X15.7497 Y86.9050 
G01 X15.7306 Y86.9511 
G01 X15.7306 Y87.2546 
G01 X9.0455 Y87.2546 
G01 X6.7254 Y84.9345 
G01 X6.7254 Y79.2413 
G01 X6.7487 Y79.2258 
G01 X6.8358 Y79.1387 
G01 X6.9042 Y79.0362 
G01 X6.9514 Y78.9224 
G01 X6.9754 Y78.8016 
G01 X6.9754 Y78.6784 
G01 X6.9514 Y78.5576 
G01 X6.9042 Y78.4438 
G01 X6.8358 Y78.3413 
G01 X6.7487 Y78.2542 
G01 X6.6462 Y78.1858 
G01 X6.5324 Y78.1386 
G01 X6.4116 Y78.1146 
G01 X6.2884 Y78.1146 
G01 X6.1676 Y78.1386 
G01 X6.0538 Y78.1858 
G01 X5.9513 Y78.2542 
G01 X5.8642 Y78.3413 
G01 X5.7958 Y78.4438 
G01 X5.7486 Y78.5576 
G01 X5.7246 Y78.6784 
G01 X5.7246 Y78.8016 
G01 X5.7486 Y78.9224 
G01 X5.7958 Y79.0362 
G01 X5.8642 Y79.1387 
G01 X5.9513 Y79.2258 
G01 X5.9746 Y79.2413 
G01 X5.9746 Y85.1394 
G01 X6.0002 Y85.2349 
G01 X6.0496 Y85.3205 
G01 X6.1195 Y85.3904 
G01 X8.6595 Y87.9304 
G01 X8.7451 Y87.9798 
G01 X8.8406 Y88.0054 
G01 X8.9394 Y88.0054 
G01 X15.7306 Y88.0054 
G01 X15.7306 Y88.3089 
G01 X15.7497 Y88.3550 
G01 X15.7850 Y88.3903 
G01 X15.8311 Y88.4094 
G01 X17.1889 Y88.4094 
G01 X17.2350 Y88.3903 
G01 X17.2703 Y88.3550 
G01 X17.2894 Y88.3089 
G01 X17.2894 Y86.9511 
G01 X17.2703 Y86.9050 
G01 X17.2350 Y86.8697 
G00 Z2.5600 
G00 X25.9947 Y88.4094 
G01 Z-0.1778 F254.00 
G01 X26.3414 Y88.4094 F600.00 
G01 X26.3414 Y88.4126 
G01 X26.0025 Y88.4126 
G01 X25.9947 Y88.4094 
G00 Z2.5600 
G00 X26.9986 Y88.4094 
G01 Z-0.1778 F254.00 
G01 X27.3453 Y88.4094 F600.00 
G01 X27.3375 Y88.4126 
G01 X26.9986 Y88.4126 
G01 X26.9986 Y88.4094 
G00 Z2.5600 
G00 X28.4497 Y113.5750 
G01 Z-0.1778 F254.00 
G01 X28.4306 Y113.6211 F600.00 
G01 X28.4306 Y114.9789 
G01 X28.4497 Y115.0250 
G01 X28.4850 Y115.0603 
G01 X28.5311 Y115.0794 
G01 X28.8346 Y115.0794 
G01 X28.8346 Y121.9694 
G01 X28.8602 Y122.0649 
G01 X28.9096 Y122.1505 
G01 X28.9795 Y122.2204 
G01 X31.3746 Y124.6155 
G01 X31.3746 Y136.3806 
G01 X31.0711 Y136.3806 
G01 X31.0250 Y136.3997 
G01 X30.9897 Y136.4350 
G01 X30.9706 Y136.4811 
G01 X30.9706 Y137.8389 
G01 X30.9897 Y137.8850 
G01 X31.0250 Y137.9203 
G01 X31.0711 Y137.9394 
G01 X32.4289 Y137.9394 
G01 X32.4750 Y137.9203 
G01 X32.5103 Y137.8850 
G01 X32.5294 Y137.8389 
G01 X32.5294 Y136.4811 
G01 X32.5103 Y136.4350 
G01 X32.4750 Y136.3997 
G01 X32.4289 Y136.3806 
G01 X32.1254 Y136.3806 
G01 X32.1254 Y124.4106 
G01 X32.0998 Y124.3151 
G01 X32.0504 Y124.2295 
G01 X29.5854 Y121.7645 
G01 X29.5854 Y115.0794 
G01 X29.8889 Y115.0794 
G01 X29.9350 Y115.0603 
G01 X29.9703 Y115.0250 
G01 X29.9894 Y114.9789 
G01 X29.9894 Y113.6211 
G01 X29.9703 Y113.5750 
G01 X29.9350 Y113.5397 
G01 X29.8889 Y113.5206 
G01 X28.5311 Y113.5206 
G01 X28.4850 Y113.5397 
G01 X28.4497 Y113.5750 
G00 Z2.5600 
G00 X36.0697 Y113.5750 
G01 Z-0.1778 F254.00 
G01 X36.0506 Y113.6211 F600.00 
G01 X36.0506 Y114.9789 
G01 X36.0697 Y115.0250 
G01 X36.1050 Y115.0603 
G01 X36.1511 Y115.0794 
G01 X36.4546 Y115.0794 
G01 X36.4546 Y121.7645 
G01 X33.9896 Y124.2295 
G01 X33.9402 Y124.3151 
G01 X33.9146 Y124.4106 
G01 X33.9146 Y124.5094 
G01 X33.9146 Y136.3806 
G01 X33.6111 Y136.3806 
G01 X33.5650 Y136.3997 
G01 X33.5297 Y136.4350 
G01 X33.5106 Y136.4811 
G01 X33.5106 Y137.8389 
G01 X33.5297 Y137.8850 
G01 X33.5650 Y137.9203 
G01 X33.6111 Y137.9394 
G01 X34.9689 Y137.9394 
G01 X35.0150 Y137.9203 
G01 X35.0503 Y137.8850 
G01 X35.0694 Y137.8389 
G01 X35.0694 Y136.4811 
G01 X35.0503 Y136.4350 
G01 X35.0150 Y136.3997 
G01 X34.9689 Y136.3806 
G01 X34.6654 Y136.3806 
G01 X34.6654 Y124.6155 
G01 X37.0605 Y122.2204 
G01 X37.1304 Y122.1505 
G01 X37.1798 Y122.0649 
G01 X37.2054 Y121.9694 
G01 X37.2054 Y115.0794 
G01 X37.5089 Y115.0794 
G01 X37.5550 Y115.0603 
G01 X37.5903 Y115.0250 
G01 X37.6094 Y114.9789 
G01 X37.6094 Y113.6211 
G01 X37.5903 Y113.5750 
G01 X37.5550 Y113.5397 
G01 X37.5089 Y113.5206 
G01 X36.1511 Y113.5206 
G01 X36.1050 Y113.5397 
G01 X36.0697 Y113.5750 
G00 Z2.5600 
G00 X36.0697 Y136.4350 
G01 Z-0.1778 F254.00 
G01 X36.0506 Y136.4811 F600.00 
G01 X36.0506 Y137.8389 
G01 X36.0697 Y137.8850 
G01 X36.1050 Y137.9203 
G01 X36.1511 Y137.9394 
G01 X36.4546 Y137.9394 
G01 X36.4546 Y160.5106 
G01 X36.1511 Y160.5106 
G01 X36.1050 Y160.5297 
G01 X36.0697 Y160.5650 
G01 X36.0506 Y160.6111 
G01 X36.0506 Y161.9689 
G01 X36.0697 Y162.0150 
G01 X36.1050 Y162.0503 
G01 X36.1511 Y162.0694 
G01 X37.5089 Y162.0694 
G01 X37.5550 Y162.0503 
G01 X37.5903 Y162.0150 
G01 X37.6094 Y161.9689 
G01 X37.6094 Y160.6111 
G01 X37.5903 Y160.5650 
G01 X37.5550 Y160.5297 
G01 X37.5089 Y160.5106 
G01 X37.2054 Y160.5106 
G01 X37.2054 Y137.9394 
G01 X37.5089 Y137.9394 
G01 X37.5550 Y137.9203 
G01 X37.5903 Y137.8850 
G01 X37.6094 Y137.8389 
G01 X37.6094 Y136.4811 
G01 X37.5903 Y136.4350 
G01 X37.5550 Y136.3997 
G01 X37.5089 Y136.3806 
G01 X36.1511 Y136.3806 
G01 X36.1050 Y136.3997 
G01 X36.0697 Y136.4350 
G00 Z2.5600 
G00 X38.6097 Y136.4350 
G01 Z-0.1778 F254.00 
G01 X38.5906 Y136.4811 F600.00 
G01 X38.5906 Y137.8389 
G01 X38.6097 Y137.8850 
G01 X38.6450 Y137.9203 
G01 X38.6911 Y137.9394 
G01 X40.0489 Y137.9394 
G01 X40.0950 Y137.9203 
G01 X40.1303 Y137.8850 
G01 X40.1494 Y137.8389 
G01 X40.1494 Y136.4811 
G01 X40.1303 Y136.4350 
G01 X40.0950 Y136.3997 
G01 X40.0489 Y136.3806 
G01 X38.6911 Y136.3806 
G01 X38.6450 Y136.3997 
G01 X38.6097 Y136.4350 
G00 Z2.5600 
G00 X41.1497 Y136.4350 
G01 Z-0.1778 F254.00 
G01 X41.1306 Y136.4811 F600.00 
G01 X41.1306 Y137.8389 
G01 X41.1497 Y137.8850 
G01 X41.1850 Y137.9203 
G01 X41.2311 Y137.9394 
G01 X42.5889 Y137.9394 
G01 X42.6350 Y137.9203 
G01 X42.6703 Y137.8850 
G01 X42.6894 Y137.8389 
G01 X42.6894 Y136.4811 
G01 X42.6703 Y136.4350 
G01 X42.6350 Y136.3997 
G01 X42.5889 Y136.3806 
G01 X41.2311 Y136.3806 
G01 X41.1850 Y136.3997 
G01 X41.1497 Y136.4350 
G00 Z2.5600 
G00 X29.9703 Y136.4350 
G01 Z-0.1778 F254.00 
G01 X29.9350 Y136.3997 F600.00 
G01 X29.8889 Y136.3806 
G01 X28.5311 Y136.3806 
G01 X28.4850 Y136.3997 
G01 X28.4497 Y136.4350 
G01 X28.4306 Y136.4811 
G01 X28.4306 Y137.8389 
G01 X28.4497 Y137.8850 
G01 X28.4850 Y137.9203 
G01 X28.5311 Y137.9394 
G01 X28.8346 Y137.9394 
G01 X28.8346 Y160.5106 
G01 X28.5311 Y160.5106 
G01 X28.4850 Y160.5297 
G01 X28.4497 Y160.5650 
G01 X28.4306 Y160.6111 
G01 X28.4306 Y161.9689 
G01 X28.4497 Y162.0150 
G01 X28.4850 Y162.0503 
G01 X28.5311 Y162.0694 
G01 X29.8889 Y162.0694 
G01 X29.9350 Y162.0503 
G01 X29.9703 Y162.0150 
G01 X29.9894 Y161.9689 
G01 X29.9894 Y160.6111 
G01 X29.9703 Y160.5650 
G01 X29.9350 Y160.5297 
G01 X29.8889 Y160.5106 
G01 X29.5854 Y160.5106 
G01 X29.5854 Y137.9394 
G01 X29.8889 Y137.9394 
G01 X29.9350 Y137.9203 
G01 X29.9703 Y137.8850 
G01 X29.9894 Y137.8389 
G01 X29.9894 Y136.4811 
G01 X29.9703 Y136.4350 
G00 Z2.5600 
G00 X27.3453 Y136.3806 
G01 Z-0.1778 F254.00 
G01 X27.0454 Y136.3806 F600.00 
G01 X27.0454 Y136.3774 
G01 X27.3375 Y136.3774 
G01 X27.3453 Y136.3806 
G00 Z2.5600 
G00 X26.2946 Y136.3806 
G01 Z-0.1778 F254.00 
G01 X25.9947 Y136.3806 F600.00 
G01 X26.0025 Y136.3774 
G01 X26.2946 Y136.3774 
G01 X26.2946 Y136.3806 
G00 Z2.5600 
G00 X25.9832 Y136.3838 
G01 Z-0.1778 F254.00 
G01 X25.9450 Y136.3997 F600.00 
G01 X25.9097 Y136.4350 
G01 X25.8906 Y136.4811 
G01 X25.8906 Y137.8389 
G01 X25.9097 Y137.8850 
G01 X25.9450 Y137.9203 
G01 X25.9832 Y137.9361 
G01 X25.9671 Y137.9340 
G01 X25.9461 Y137.9284 
G01 X25.9244 Y137.9284 
G01 X25.9028 Y137.9256 
G01 X25.8813 Y137.9284 
G01 X25.8596 Y137.9284 
G01 X25.8386 Y137.9340 
G01 X25.8170 Y137.9369 
G01 X25.7970 Y137.9452 
G01 X25.7760 Y137.9508 
G01 X25.7572 Y137.9617 
G01 X25.7371 Y137.9700 
G01 X25.7199 Y137.9832 
G01 X25.7011 Y137.9941 
G01 X25.6857 Y138.0094 
G01 X25.6685 Y138.0226 
G01 X25.6552 Y138.0399 
G01 X25.6399 Y138.0552 
G01 X25.6290 Y138.0741 
G01 X25.6158 Y138.0913 
G01 X25.6075 Y138.1114 
G01 X25.5966 Y138.1302 
G01 X25.5910 Y138.1512 
G01 X25.5254 Y138.3094 
G01 X25.2794 Y138.5554 
G01 X24.9580 Y138.6886 
G01 X23.3020 Y138.6886 
G01 X23.0257 Y138.5741 
G01 X22.9458 Y138.5410 
G01 X22.8600 Y138.5297 
G01 X22.7742 Y138.5410 
G01 X22.6943 Y138.5741 
G01 X22.4180 Y138.6886 
G01 X20.7620 Y138.6886 
G01 X20.4857 Y138.5741 
G01 X20.4058 Y138.5410 
G01 X20.3200 Y138.5297 
G01 X20.2342 Y138.5410 
G01 X20.1543 Y138.5741 
G01 X19.8780 Y138.6886 
G01 X18.2220 Y138.6886 
G01 X17.9457 Y138.5741 
G01 X17.8658 Y138.5410 
G01 X17.7800 Y138.5297 
G01 X17.6942 Y138.5410 
G01 X17.6143 Y138.5741 
G01 X17.3380 Y138.6886 
G01 X15.6820 Y138.6886 
G01 X15.3606 Y138.5554 
G01 X15.2166 Y138.4114 
G01 X15.1554 Y138.3502 
G01 X15.0805 Y138.3070 
G01 X15.0769 Y138.3060 
G01 X14.9969 Y138.2846 
G01 X8.6663 Y138.2846 
G01 X8.2530 Y138.1134 
G01 X7.9210 Y137.7814 
G01 X5.7286 Y135.5890 
G01 X5.3966 Y135.2570 
G01 X5.2254 Y134.8437 
G01 X5.2254 Y129.2339 
G01 X5.2282 Y129.2123 
G01 X5.2254 Y129.1908 
G01 X5.2254 Y129.1691 
G01 X5.2198 Y129.1481 
G01 X5.2169 Y129.1266 
G01 X5.2086 Y129.1065 
G01 X5.2030 Y129.0855 
G01 X5.1921 Y129.0667 
G01 X4.9754 Y128.5434 
G01 X4.9754 Y127.9966 
G01 X5.1847 Y127.4913 
G01 X5.5713 Y127.1047 
G01 X6.0766 Y126.8954 
G01 X6.5951 Y126.8954 
G01 X6.6786 Y126.8730 
G01 X6.7536 Y126.8297 
G01 X6.8147 Y126.7686 
G01 X6.8580 Y126.6936 
G01 X6.8804 Y126.6101 
G01 X6.8804 Y126.1199 
G01 X6.8580 Y126.0364 
G01 X6.8147 Y125.9614 
G01 X6.7536 Y125.9002 
G01 X6.6786 Y125.8570 
G01 X6.5951 Y125.8346 
G01 X6.0766 Y125.8346 
G01 X5.5713 Y125.6253 
G01 X5.1847 Y125.2386 
G01 X4.9754 Y124.7334 
G01 X4.9754 Y124.1866 
G01 X5.1921 Y123.6633 
G01 X5.2030 Y123.6445 
G01 X5.2086 Y123.6235 
G01 X5.2169 Y123.6034 
G01 X5.2198 Y123.5819 
G01 X5.2254 Y123.5609 
G01 X5.2254 Y123.5392 
G01 X5.2282 Y123.5177 
G01 X5.2254 Y123.4961 
G01 X5.2254 Y122.3313 
G01 X5.3966 Y121.9180 
G01 X5.7130 Y121.6016 
G01 X6.1263 Y121.4304 
G01 X6.5737 Y121.4304 
G01 X6.8353 Y121.5388 
G01 X6.1195 Y122.2546 
G01 X6.0496 Y122.3245 
G01 X6.0002 Y122.4101 
G01 X5.9746 Y122.5056 
G01 X5.9746 Y123.9587 
G01 X5.9513 Y123.9742 
G01 X5.8642 Y124.0613 
G01 X5.7958 Y124.1638 
G01 X5.7486 Y124.2776 
G01 X5.7246 Y124.3984 
G01 X5.7246 Y124.5216 
G01 X5.7486 Y124.6424 
G01 X5.7958 Y124.7562 
G01 X5.8642 Y124.8587 
G01 X5.9513 Y124.9458 
G01 X6.0538 Y125.0142 
G01 X6.1676 Y125.0614 
G01 X6.2884 Y125.0854 
G01 X6.4116 Y125.0854 
G01 X6.5324 Y125.0614 
G01 X6.6462 Y125.0142 
G01 X6.7487 Y124.9458 
G01 X6.8358 Y124.8587 
G01 X6.9042 Y124.7562 
G01 X6.9514 Y124.6424 
G01 X6.9754 Y124.5216 
G01 X6.9754 Y124.3984 
G01 X6.9514 Y124.2776 
G01 X6.9042 Y124.1638 
G01 X6.8358 Y124.0613 
G01 X6.7487 Y123.9742 
G01 X6.7254 Y123.9587 
G01 X6.7254 Y122.7105 
G01 X7.3662 Y122.0697 
G01 X7.4746 Y122.3313 
G01 X7.4746 Y122.7821 
G01 X7.4718 Y122.8036 
G01 X7.4746 Y122.8251 
G01 X7.4746 Y122.8469 
G01 X7.4802 Y122.8679 
G01 X7.4831 Y122.8894 
G01 X7.4914 Y122.9095 
G01 X7.4970 Y122.9304 
G01 X7.5079 Y122.9493 
G01 X7.5162 Y122.9693 
G01 X7.5294 Y122.9866 
G01 X7.5403 Y123.0054 
G01 X7.5556 Y123.0207 
G01 X7.5688 Y123.0380 
G01 X7.5861 Y123.0512 
G01 X7.6014 Y123.0666 
G01 X7.6202 Y123.0774 
G01 X7.6375 Y123.0906 
G01 X7.6576 Y123.0990 
G01 X7.6764 Y123.1098 
G01 X7.6973 Y123.1154 
G01 X7.7174 Y123.1238 
G01 X7.7390 Y123.1266 
G01 X7.7599 Y123.1322 
G01 X7.7817 Y123.1322 
G01 X7.8032 Y123.1350 
G01 X7.8247 Y123.1322 
G01 X7.8465 Y123.1322 
G01 X7.8674 Y123.1266 
G01 X7.8890 Y123.1238 
G01 X7.9090 Y123.1154 
G01 X7.9300 Y123.1098 
G01 X7.9488 Y123.0990 
G01 X7.9996 Y123.0779 
G01 X8.0206 Y123.0723 
G01 X8.0394 Y123.0614 
G01 X8.0595 Y123.0531 
G01 X8.0767 Y123.0399 
G01 X8.0955 Y123.0290 
G01 X8.1109 Y123.0137 
G01 X8.1281 Y123.0005 
G01 X8.1414 Y122.9832 
G01 X8.4948 Y122.6298 
G01 X8.8880 Y122.2366 
G01 X9.3013 Y122.0654 
G01 X17.3687 Y122.0654 
G01 X17.7820 Y122.2366 
