(modified by Matteo Lasagni for EUROMOD 45)
(.../pcb-gcode-3.6.2.4/pcb-gcode.ulp)
(Copyright 2005 - 2012 by John Johnson)
(See readme.txt for licensing terms.)
(This file generated from the board:)
(.../multi_board_pcb/multi_board_support.brd)
(Current profile is .../pcb-gcode-3.6.2.4/profiles/lasagni.pp  )
(This file generated 27/01/16 14:55)
(Settings from pcb-machine.h)
(spindle on time = 3.0000)
(  Tool Size)
(0.5000 )
(spindle speed = 55000.0000)
(tool change at 0.0000 0.0000 25.4000 )
(feed rate xy = F600.00 )
(feed rate z  = F254.00 )
(Z Axis Settings)
(  High     Up        Down     Drill)
(120.7000 	2.5600 	-0.1778 	-2.0000 )
(Settings from pcb-defaults.h)
(isolate min = 0.0254)
(isolate max = 0.5080)
(isolate step = 0.1270)
(Generated bottom outlines, bottom drill, )
(Unit of measure: mm)
(Beginning of every file)
(Beginning of every bottom file)
(Outline Begin)
T04 M06
(Bottom outline Begin)
(Metric Mode)
G71
(Absolute Coordinates)
G90
S55000
G00 Z120.7000 
G00 X0.0000 Y0.0000 
M03
G04 3.000000
G00 Z2.5600 
G00 X28.3356 Y11.8769 
G01 Z-0.1778 F254.00 
G01 X28.3869 Y11.8256 F600.00 
G01 X28.4497 Y11.7894 
G01 X28.5197 Y11.7706 
G01 X29.9003 Y11.7706 
G01 X29.9703 Y11.7894 
G01 X30.0331 Y11.8256 
G01 X30.0844 Y11.8769 
G01 X30.1206 Y11.9397 
G01 X30.1394 Y12.0097 
G01 X30.1394 Y13.3903 
G01 X30.1206 Y13.4603 
G01 X30.0844 Y13.5231 
G01 X30.0331 Y13.5744 
G01 X29.9703 Y13.6106 
G01 X29.9003 Y13.6294 
G01 X28.5197 Y13.6294 
G01 X28.4497 Y13.6106 
G01 X28.3869 Y13.5744 
G01 X28.3356 Y13.5231 
G01 X28.2994 Y13.4603 
G01 X28.2806 Y13.3903 
G01 X28.2806 Y12.0097 
G01 X28.2994 Y11.9397 
G01 X28.3356 Y11.8769 
G00 Z2.5600 
G00 X28.3356 Y14.4169 
G01 Z-0.1778 F254.00 
G01 X28.3869 Y14.3656 F600.00 
G01 X28.4497 Y14.3294 
G01 X28.5197 Y14.3106 
G01 X29.9003 Y14.3106 
G01 X29.9703 Y14.3294 
G01 X30.0331 Y14.3656 
G01 X30.0844 Y14.4169 
G01 X30.1206 Y14.4797 
G01 X30.1394 Y14.5497 
G01 X30.1394 Y15.9303 
G01 X30.1206 Y16.0003 
G01 X30.0844 Y16.0631 
G01 X30.0331 Y16.1144 
G01 X29.9703 Y16.1506 
G01 X29.9003 Y16.1694 
G01 X28.5197 Y16.1694 
G01 X28.4497 Y16.1506 
G01 X28.3869 Y16.1144 
G01 X28.3356 Y16.0631 
G01 X28.2994 Y16.0003 
G01 X28.2806 Y15.9303 
G01 X28.2806 Y14.5497 
G01 X28.2994 Y14.4797 
G01 X28.3356 Y14.4169 
G00 Z2.5600 
G00 X35.9556 Y14.4169 
G01 Z-0.1778 F254.00 
G01 X36.0069 Y14.3656 F600.00 
G01 X36.0697 Y14.3294 
G01 X36.1397 Y14.3106 
G01 X37.5203 Y14.3106 
G01 X37.5903 Y14.3294 
G01 X37.6531 Y14.3656 
G01 X37.7044 Y14.4169 
G01 X37.7406 Y14.4797 
G01 X37.7594 Y14.5497 
G01 X37.7594 Y15.9303 
G01 X37.7406 Y16.0003 
G01 X37.7044 Y16.0631 
G01 X37.6531 Y16.1144 
G01 X37.5903 Y16.1506 
G01 X37.5203 Y16.1694 
G01 X36.1397 Y16.1694 
G01 X36.0697 Y16.1506 
G01 X36.0069 Y16.1144 
G01 X35.9556 Y16.0631 
G01 X35.9194 Y16.0003 
G01 X35.9006 Y15.9303 
G01 X35.9006 Y14.5497 
G01 X35.9194 Y14.4797 
G01 X35.9556 Y14.4169 
G00 Z2.5600 
G00 X36.0069 Y13.5744 
G01 Z-0.1778 F254.00 
G01 X35.9556 Y13.5231 F600.00 
G01 X35.9194 Y13.4603 
G01 X35.9006 Y13.3903 
G01 X35.9006 Y12.0097 
G01 X35.9194 Y11.9397 
G01 X35.9556 Y11.8769 
G01 X36.0069 Y11.8256 
G01 X36.0697 Y11.7894 
G01 X36.1397 Y11.7706 
G01 X37.5203 Y11.7706 
G01 X37.5903 Y11.7894 
G01 X37.6531 Y11.8256 
G01 X37.7044 Y11.8769 
G01 X37.7406 Y11.9397 
G01 X37.7594 Y12.0097 
G01 X37.7594 Y13.3903 
G01 X37.7406 Y13.4603 
G01 X37.7044 Y13.5231 
G01 X37.6531 Y13.5744 
G01 X37.5903 Y13.6106 
G01 X37.5203 Y13.6294 
G01 X36.1397 Y13.6294 
G01 X36.0697 Y13.6106 
G01 X36.0069 Y13.5744 
G00 Z2.5600 
G00 X36.0069 Y37.2256 
G01 Z-0.1778 F254.00 
G01 X36.0697 Y37.1894 F600.00 
G01 X36.1397 Y37.1706 
G01 X37.5203 Y37.1706 
G01 X37.5903 Y37.1894 
G01 X37.6531 Y37.2256 
G01 X37.7044 Y37.2769 
G01 X37.7406 Y37.3397 
G01 X37.7594 Y37.4097 
G01 X37.7594 Y38.7903 
G01 X37.7406 Y38.8603 
G01 X37.7044 Y38.9231 
G01 X37.6531 Y38.9744 
G01 X37.5903 Y39.0106 
G01 X37.5203 Y39.0294 
G01 X36.1397 Y39.0294 
G01 X36.0697 Y39.0106 
G01 X36.0069 Y38.9744 
G01 X35.9556 Y38.9231 
G01 X35.9194 Y38.8603 
G01 X35.9006 Y38.7903 
G01 X35.9006 Y37.4097 
G01 X35.9194 Y37.3397 
G01 X35.9556 Y37.2769 
G01 X36.0069 Y37.2256 
G00 Z2.5600 
G00 X35.1131 Y37.2256 
G01 Z-0.1778 F254.00 
G01 X35.1644 Y37.2769 F600.00 
G01 X35.2006 Y37.3397 
G01 X35.2194 Y37.4097 
G01 X35.2194 Y38.7903 
G01 X35.2006 Y38.8603 
G01 X35.1644 Y38.9231 
G01 X35.1131 Y38.9744 
G01 X35.0503 Y39.0106 
G01 X34.9803 Y39.0294 
G01 X33.5997 Y39.0294 
G01 X33.5297 Y39.0106 
G01 X33.4669 Y38.9744 
G01 X33.4156 Y38.9231 
G01 X33.3794 Y38.8603 
G01 X33.3606 Y38.7903 
G01 X33.3606 Y37.4097 
G01 X33.3794 Y37.3397 
G01 X33.4156 Y37.2769 
G01 X33.4669 Y37.2256 
G01 X33.5297 Y37.1894 
G01 X33.5997 Y37.1706 
G01 X34.9803 Y37.1706 
G01 X35.0503 Y37.1894 
G01 X35.1131 Y37.2256 
G00 Z2.5600 
G00 X32.5731 Y37.2256 
G01 Z-0.1778 F254.00 
G01 X32.6244 Y37.2769 F600.00 
G01 X32.6606 Y37.3397 
G01 X32.6794 Y37.4097 
G01 X32.6794 Y38.7903 
G01 X32.6606 Y38.8603 
G01 X32.6244 Y38.9231 
G01 X32.5731 Y38.9744 
G01 X32.5103 Y39.0106 
G01 X32.4403 Y39.0294 
G01 X31.0597 Y39.0294 
G01 X30.9897 Y39.0106 
G01 X30.9269 Y38.9744 
G01 X30.8756 Y38.9231 
G01 X30.8394 Y38.8603 
G01 X30.8206 Y38.7903 
G01 X30.8206 Y37.4097 
G01 X30.8394 Y37.3397 
G01 X30.8756 Y37.2769 
G01 X30.9269 Y37.2256 
G01 X30.9897 Y37.1894 
G01 X31.0597 Y37.1706 
G01 X32.4403 Y37.1706 
G01 X32.5103 Y37.1894 
G01 X32.5731 Y37.2256 
G00 Z2.5600 
G00 X30.0331 Y37.2256 
G01 Z-0.1778 F254.00 
G01 X30.0844 Y37.2769 F600.00 
G01 X30.1206 Y37.3397 
G01 X30.1394 Y37.4097 
G01 X30.1394 Y38.7903 
G01 X30.1206 Y38.8603 
G01 X30.0844 Y38.9231 
G01 X30.0331 Y38.9744 
G01 X29.9703 Y39.0106 
G01 X29.9003 Y39.0294 
G01 X28.5197 Y39.0294 
G01 X28.4497 Y39.0106 
G01 X28.3869 Y38.9744 
G01 X28.3356 Y38.9231 
G01 X28.2994 Y38.8603 
G01 X28.2806 Y38.7903 
G01 X28.2806 Y37.4097 
G01 X28.2994 Y37.3397 
G01 X28.3356 Y37.2769 
G01 X28.3869 Y37.2256 
G01 X28.4497 Y37.1894 
G01 X28.5197 Y37.1706 
G01 X29.9003 Y37.1706 
G01 X29.9703 Y37.1894 
G01 X30.0331 Y37.2256 
G00 Z2.5600 
G00 X27.4931 Y37.2256 
G01 Z-0.1778 F254.00 
G01 X27.5444 Y37.2769 F600.00 
G01 X27.5806 Y37.3397 
G01 X27.5994 Y37.4097 
G01 X27.5994 Y38.7903 
G01 X27.5806 Y38.8603 
G01 X27.5444 Y38.9231 
G01 X27.4931 Y38.9744 
G01 X27.4303 Y39.0106 
G01 X27.3603 Y39.0294 
G01 X25.9797 Y39.0294 
G01 X25.9097 Y39.0106 
G01 X25.8469 Y38.9744 
G01 X25.7956 Y38.9231 
G01 X25.7594 Y38.8603 
G01 X25.7406 Y38.7903 
G01 X25.7406 Y37.4097 
G01 X25.7594 Y37.3397 
G01 X25.7956 Y37.2769 
G01 X25.8469 Y37.2256 
G01 X25.9097 Y37.1894 
G01 X25.9797 Y37.1706 
G01 X27.3603 Y37.1706 
G01 X27.4303 Y37.1894 
G01 X27.4931 Y37.2256 
G00 Z2.5600 
G00 X24.9531 Y37.2256 
G01 Z-0.1778 F254.00 
G01 X25.0044 Y37.2769 F600.00 
G01 X25.0406 Y37.3397 
G01 X25.0594 Y37.4097 
G01 X25.0594 Y38.7903 
G01 X25.0406 Y38.8603 
G01 X25.0044 Y38.9231 
G01 X24.9531 Y38.9744 
G01 X24.8903 Y39.0106 
G01 X24.8203 Y39.0294 
G01 X23.4397 Y39.0294 
G01 X23.3697 Y39.0106 
G01 X23.3069 Y38.9744 
G01 X23.2556 Y38.9231 
G01 X23.2194 Y38.8603 
G01 X23.2006 Y38.7903 
G01 X23.2006 Y37.4097 
G01 X23.2194 Y37.3397 
G01 X23.2556 Y37.2769 
G01 X23.3069 Y37.2256 
G01 X23.3697 Y37.1894 
G01 X23.4397 Y37.1706 
G01 X24.8203 Y37.1706 
G01 X24.8903 Y37.1894 
G01 X24.9531 Y37.2256 
G00 Z2.5600 
G00 X22.4131 Y37.2256 
G01 Z-0.1778 F254.00 
G01 X22.4644 Y37.2769 F600.00 
G01 X22.5006 Y37.3397 
G01 X22.5194 Y37.4097 
G01 X22.5194 Y38.7903 
G01 X22.5006 Y38.8603 
G01 X22.4644 Y38.9231 
G01 X22.4131 Y38.9744 
G01 X22.3503 Y39.0106 
G01 X22.2803 Y39.0294 
G01 X20.8997 Y39.0294 
G01 X20.8297 Y39.0106 
G01 X20.7669 Y38.9744 
G01 X20.7156 Y38.9231 
G01 X20.6794 Y38.8603 
G01 X20.6606 Y38.7903 
G01 X20.6606 Y37.4097 
G01 X20.6794 Y37.3397 
G01 X20.7156 Y37.2769 
G01 X20.7669 Y37.2256 
G01 X20.8297 Y37.1894 
G01 X20.8997 Y37.1706 
G01 X22.2803 Y37.1706 
G01 X22.3503 Y37.1894 
G01 X22.4131 Y37.2256 
G00 Z2.5600 
G00 X19.8731 Y37.2256 
G01 Z-0.1778 F254.00 
G01 X19.9244 Y37.2769 F600.00 
G01 X19.9606 Y37.3397 
G01 X19.9794 Y37.4097 
G01 X19.9794 Y38.7903 
G01 X19.9606 Y38.8603 
G01 X19.9244 Y38.9231 
G01 X19.8731 Y38.9744 
G01 X19.8103 Y39.0106 
G01 X19.7403 Y39.0294 
G01 X18.3597 Y39.0294 
G01 X18.2897 Y39.0106 
G01 X18.2269 Y38.9744 
G01 X18.1756 Y38.9231 
G01 X18.1394 Y38.8603 
G01 X18.1206 Y38.7903 
G01 X18.1206 Y37.4097 
G01 X18.1394 Y37.3397 
G01 X18.1756 Y37.2769 
G01 X18.2269 Y37.2256 
G01 X18.2897 Y37.1894 
G01 X18.3597 Y37.1706 
G01 X19.7403 Y37.1706 
G01 X19.8103 Y37.1894 
G01 X19.8731 Y37.2256 
G00 Z2.5600 
G00 X17.3331 Y37.2256 
G01 Z-0.1778 F254.00 
G01 X17.3844 Y37.2769 F600.00 
G01 X17.4206 Y37.3397 
G01 X17.4394 Y37.4097 
G01 X17.4394 Y38.7903 
G01 X17.4206 Y38.8603 
G01 X17.3844 Y38.9231 
G01 X17.3331 Y38.9744 
G01 X17.2703 Y39.0106 
G01 X17.2003 Y39.0294 
G01 X15.8197 Y39.0294 
G01 X15.7497 Y39.0106 
G01 X15.6869 Y38.9744 
G01 X15.6356 Y38.9231 
G01 X15.5994 Y38.8603 
G01 X15.5806 Y38.7903 
G01 X15.5806 Y37.4097 
G01 X15.5994 Y37.3397 
G01 X15.6356 Y37.2769 
G01 X15.6869 Y37.2256 
G01 X15.7497 Y37.1894 
G01 X15.8197 Y37.1706 
G01 X17.2003 Y37.1706 
G01 X17.2703 Y37.1894 
G01 X17.3331 Y37.2256 
G00 Z2.5600 
G00 X38.4956 Y37.2769 
G01 Z-0.1778 F254.00 
G01 X38.5469 Y37.2256 F600.00 
G01 X38.6097 Y37.1894 
G01 X38.6797 Y37.1706 
G01 X40.0603 Y37.1706 
G01 X40.1303 Y37.1894 
G01 X40.1931 Y37.2256 
G01 X40.2444 Y37.2769 
G01 X40.2806 Y37.3397 
G01 X40.2994 Y37.4097 
G01 X40.2994 Y38.7903 
G01 X40.2806 Y38.8603 
G01 X40.2444 Y38.9231 
G01 X40.1931 Y38.9744 
G01 X40.1303 Y39.0106 
G01 X40.0603 Y39.0294 
G01 X38.6797 Y39.0294 
G01 X38.6097 Y39.0106 
G01 X38.5469 Y38.9744 
G01 X38.4956 Y38.9231 
G01 X38.4594 Y38.8603 
G01 X38.4406 Y38.7903 
G01 X38.4406 Y37.4097 
G01 X38.4594 Y37.3397 
G01 X38.4956 Y37.2769 
G00 Z2.5600 
G00 X41.0356 Y37.2769 
G01 Z-0.1778 F254.00 
G01 X41.0869 Y37.2256 F600.00 
G01 X41.1497 Y37.1894 
G01 X41.2197 Y37.1706 
G01 X42.6003 Y37.1706 
G01 X42.6703 Y37.1894 
G01 X42.7331 Y37.2256 
G01 X42.7844 Y37.2769 
G01 X42.8206 Y37.3397 
G01 X42.8394 Y37.4097 
G01 X42.8394 Y38.7903 
G01 X42.8206 Y38.8603 
G01 X42.7844 Y38.9231 
G01 X42.7331 Y38.9744 
G01 X42.6703 Y39.0106 
G01 X42.6003 Y39.0294 
G01 X41.2197 Y39.0294 
G01 X41.1497 Y39.0106 
G01 X41.0869 Y38.9744 
G01 X41.0356 Y38.9231 
G01 X40.9994 Y38.8603 
G01 X40.9806 Y38.7903 
G01 X40.9806 Y37.4097 
G01 X40.9994 Y37.3397 
G01 X41.0356 Y37.2769 
G00 Z2.5600 
G00 X43.5756 Y37.2769 
G01 Z-0.1778 F254.00 
G01 X43.6269 Y37.2256 F600.00 
G01 X43.6897 Y37.1894 
G01 X43.7597 Y37.1706 
G01 X45.1403 Y37.1706 
G01 X45.2103 Y37.1894 
G01 X45.2731 Y37.2256 
G01 X45.3244 Y37.2769 
G01 X45.3606 Y37.3397 
G01 X45.3794 Y37.4097 
G01 X45.3794 Y38.7903 
G01 X45.3606 Y38.8603 
G01 X45.3244 Y38.9231 
G01 X45.2731 Y38.9744 
G01 X45.2103 Y39.0106 
G01 X45.1403 Y39.0294 
G01 X43.7597 Y39.0294 
G01 X43.6897 Y39.0106 
G01 X43.6269 Y38.9744 
G01 X43.5756 Y38.9231 
G01 X43.5394 Y38.8603 
G01 X43.5206 Y38.7903 
G01 X43.5206 Y37.4097 
G01 X43.5394 Y37.3397 
G01 X43.5756 Y37.2769 
G00 Z2.5600 
G00 X37.6531 Y61.3556 
G01 Z-0.1778 F254.00 
G01 X37.7044 Y61.4069 F600.00 
G01 X37.7406 Y61.4697 
G01 X37.7594 Y61.5397 
G01 X37.7594 Y62.9203 
G01 X37.7406 Y62.9903 
G01 X37.7044 Y63.0531 
G01 X37.6531 Y63.1044 
G01 X37.5903 Y63.1406 
G01 X37.5203 Y63.1594 
G01 X36.1397 Y63.1594 
G01 X36.0697 Y63.1406 
G01 X36.0069 Y63.1044 
G01 X35.9556 Y63.0531 
G01 X35.9194 Y62.9903 
G01 X35.9006 Y62.9203 
G01 X35.9006 Y61.5397 
G01 X35.9194 Y61.4697 
G01 X35.9556 Y61.4069 
G01 X36.0069 Y61.3556 
G01 X36.0697 Y61.3194 
G01 X36.1397 Y61.3006 
G01 X37.5203 Y61.3006 
G01 X37.5903 Y61.3194 
G01 X37.6531 Y61.3556 
G00 Z2.5600 
G00 X37.6531 Y63.8956 
G01 Z-0.1778 F254.00 
G01 X37.7044 Y63.9469 F600.00 
G01 X37.7406 Y64.0097 
G01 X37.7594 Y64.0797 
G01 X37.7594 Y65.4603 
G01 X37.7406 Y65.5303 
G01 X37.7044 Y65.5931 
G01 X37.6531 Y65.6444 
G01 X37.5903 Y65.6806 
G01 X37.5203 Y65.6994 
G01 X36.1397 Y65.6994 
G01 X36.0697 Y65.6806 
G01 X36.0069 Y65.6444 
G01 X35.9556 Y65.5931 
G01 X35.9194 Y65.5303 
G01 X35.9006 Y65.4603 
G01 X35.9006 Y64.0797 
G01 X35.9194 Y64.0097 
G01 X35.9556 Y63.9469 
G01 X36.0069 Y63.8956 
G01 X36.0697 Y63.8594 
G01 X36.1397 Y63.8406 
G01 X37.5203 Y63.8406 
G01 X37.5903 Y63.8594 
G01 X37.6531 Y63.8956 
G00 Z2.5600 
G00 X30.0331 Y63.8956 
G01 Z-0.1778 F254.00 
G01 X30.0844 Y63.9469 F600.00 
G01 X30.1206 Y64.0097 
G01 X30.1394 Y64.0797 
G01 X30.1394 Y65.4603 
G01 X30.1206 Y65.5303 
G01 X30.0844 Y65.5931 
G01 X30.0331 Y65.6444 
G01 X29.9703 Y65.6806 
G01 X29.9003 Y65.6994 
G01 X28.5197 Y65.6994 
G01 X28.4497 Y65.6806 
G01 X28.3869 Y65.6444 
G01 X28.3356 Y65.5931 
G01 X28.2994 Y65.5303 
G01 X28.2806 Y65.4603 
G01 X28.2806 Y64.0797 
G01 X28.2994 Y64.0097 
G01 X28.3356 Y63.9469 
G01 X28.3869 Y63.8956 
G01 X28.4497 Y63.8594 
G01 X28.5197 Y63.8406 
G01 X29.9003 Y63.8406 
G01 X29.9703 Y63.8594 
G01 X30.0331 Y63.8956 
G00 Z2.5600 
G00 X30.0331 Y63.1044 
G01 Z-0.1778 F254.00 
G01 X29.9703 Y63.1406 F600.00 
G01 X29.9003 Y63.1594 
G01 X28.5197 Y63.1594 
G01 X28.4497 Y63.1406 
G01 X28.3869 Y63.1044 
G01 X28.3356 Y63.0531 
G01 X28.2994 Y62.9903 
G01 X28.2806 Y62.9203 
G01 X28.2806 Y61.5397 
G01 X28.2994 Y61.4697 
G01 X28.3356 Y61.4069 
G01 X28.3869 Y61.3556 
G01 X28.4497 Y61.3194 
G01 X28.5197 Y61.3006 
G01 X29.9003 Y61.3006 
G01 X29.9703 Y61.3194 
G01 X30.0331 Y61.3556 
G01 X30.0844 Y61.4069 
G01 X30.1206 Y61.4697 
G01 X30.1394 Y61.5397 
G01 X30.1394 Y62.9203 
G01 X30.1206 Y62.9903 
G01 X30.0844 Y63.0531 
G01 X30.0331 Y63.1044 
G00 Z2.5600 
G00 X30.0331 Y86.7556 
G01 Z-0.1778 F254.00 
G01 X30.0844 Y86.8069 F600.00 
G01 X30.1206 Y86.8697 
G01 X30.1394 Y86.9397 
G01 X30.1394 Y88.3203 
G01 X30.1206 Y88.3903 
G01 X30.0844 Y88.4531 
G01 X30.0331 Y88.5044 
G01 X29.9703 Y88.5406 
G01 X29.9003 Y88.5594 
G01 X28.5197 Y88.5594 
G01 X28.4497 Y88.5406 
G01 X28.3869 Y88.5044 
G01 X28.3356 Y88.4531 
G01 X28.2994 Y88.3903 
G01 X28.2806 Y88.3203 
G01 X28.2806 Y86.9397 
G01 X28.2994 Y86.8697 
G01 X28.3356 Y86.8069 
G01 X28.3869 Y86.7556 
G01 X28.4497 Y86.7194 
G01 X28.5197 Y86.7006 
G01 X29.9003 Y86.7006 
G01 X29.9703 Y86.7194 
G01 X30.0331 Y86.7556 
G00 Z2.5600 
G00 X30.8756 Y86.8069 
G01 Z-0.1778 F254.00 
G01 X30.9269 Y86.7556 F600.00 
G01 X30.9897 Y86.7194 
G01 X31.0597 Y86.7006 
G01 X32.4403 Y86.7006 
G01 X32.5103 Y86.7194 
G01 X32.5731 Y86.7556 
G01 X32.6244 Y86.8069 
G01 X32.6606 Y86.8697 
G01 X32.6794 Y86.9397 
G01 X32.6794 Y88.3203 
G01 X32.6606 Y88.3903 
G01 X32.6244 Y88.4531 
G01 X32.5731 Y88.5044 
G01 X32.5103 Y88.5406 
G01 X32.4403 Y88.5594 
G01 X31.0597 Y88.5594 
G01 X30.9897 Y88.5406 
G01 X30.9269 Y88.5044 
G01 X30.8756 Y88.4531 
G01 X30.8394 Y88.3903 
G01 X30.8206 Y88.3203 
G01 X30.8206 Y86.9397 
G01 X30.8394 Y86.8697 
G01 X30.8756 Y86.8069 
G00 Z2.5600 
G00 X33.4156 Y86.8069 
G01 Z-0.1778 F254.00 
G01 X33.4669 Y86.7556 F600.00 
G01 X33.5297 Y86.7194 
G01 X33.5997 Y86.7006 
G01 X34.9803 Y86.7006 
G01 X35.0503 Y86.7194 
G01 X35.1131 Y86.7556 
G01 X35.1644 Y86.8069 
G01 X35.2006 Y86.8697 
G01 X35.2194 Y86.9397 
G01 X35.2194 Y88.3203 
G01 X35.2006 Y88.3903 
G01 X35.1644 Y88.4531 
G01 X35.1131 Y88.5044 
G01 X35.0503 Y88.5406 
G01 X34.9803 Y88.5594 
G01 X33.5997 Y88.5594 
G01 X33.5297 Y88.5406 
G01 X33.4669 Y88.5044 
G01 X33.4156 Y88.4531 
G01 X33.3794 Y88.3903 
G01 X33.3606 Y88.3203 
G01 X33.3606 Y86.9397 
G01 X33.3794 Y86.8697 
G01 X33.4156 Y86.8069 
G00 Z2.5600 
G00 X35.9556 Y86.8069 
G01 Z-0.1778 F254.00 
G01 X36.0069 Y86.7556 F600.00 
G01 X36.0697 Y86.7194 
G01 X36.1397 Y86.7006 
G01 X37.5203 Y86.7006 
G01 X37.5903 Y86.7194 
G01 X37.6531 Y86.7556 
G01 X37.7044 Y86.8069 
G01 X37.7406 Y86.8697 
G01 X37.7594 Y86.9397 
G01 X37.7594 Y88.3203 
G01 X37.7406 Y88.3903 
G01 X37.7044 Y88.4531 
G01 X37.6531 Y88.5044 
G01 X37.5903 Y88.5406 
G01 X37.5203 Y88.5594 
G01 X36.1397 Y88.5594 
G01 X36.0697 Y88.5406 
G01 X36.0069 Y88.5044 
G01 X35.9556 Y88.4531 
G01 X35.9194 Y88.3903 
G01 X35.9006 Y88.3203 
G01 X35.9006 Y86.9397 
G01 X35.9194 Y86.8697 
G01 X35.9556 Y86.8069 
G00 Z2.5600 
G00 X38.4956 Y86.8069 
G01 Z-0.1778 F254.00 
G01 X38.5469 Y86.7556 F600.00 
G01 X38.6097 Y86.7194 
G01 X38.6797 Y86.7006 
G01 X40.0603 Y86.7006 
G01 X40.1303 Y86.7194 
G01 X40.1931 Y86.7556 
G01 X40.2444 Y86.8069 
G01 X40.2806 Y86.8697 
G01 X40.2994 Y86.9397 
G01 X40.2994 Y88.3203 
G01 X40.2806 Y88.3903 
G01 X40.2444 Y88.4531 
G01 X40.1931 Y88.5044 
G01 X40.1303 Y88.5406 
G01 X40.0603 Y88.5594 
G01 X38.6797 Y88.5594 
G01 X38.6097 Y88.5406 
G01 X38.5469 Y88.5044 
G01 X38.4956 Y88.4531 
G01 X38.4594 Y88.3903 
G01 X38.4406 Y88.3203 
G01 X38.4406 Y86.9397 
G01 X38.4594 Y86.8697 
G01 X38.4956 Y86.8069 
G00 Z2.5600 
G00 X41.0356 Y86.8069 
G01 Z-0.1778 F254.00 
G01 X41.0869 Y86.7556 F600.00 
G01 X41.1497 Y86.7194 
G01 X41.2197 Y86.7006 
G01 X42.6003 Y86.7006 
G01 X42.6703 Y86.7194 
G01 X42.7331 Y86.7556 
G01 X42.7844 Y86.8069 
G01 X42.8206 Y86.8697 
G01 X42.8394 Y86.9397 
G01 X42.8394 Y88.3203 
G01 X42.8206 Y88.3903 
G01 X42.7844 Y88.4531 
G01 X42.7331 Y88.5044 
G01 X42.6703 Y88.5406 
G01 X42.6003 Y88.5594 
G01 X41.2197 Y88.5594 
G01 X41.1497 Y88.5406 
G01 X41.0869 Y88.5044 
G01 X41.0356 Y88.4531 
G01 X40.9994 Y88.3903 
G01 X40.9806 Y88.3203 
G01 X40.9806 Y86.9397 
G01 X40.9994 Y86.8697 
G01 X41.0356 Y86.8069 
G00 Z2.5600 
G00 X43.5756 Y86.8069 
G01 Z-0.1778 F254.00 
G01 X43.6269 Y86.7556 F600.00 
G01 X43.6897 Y86.7194 
G01 X43.7597 Y86.7006 
G01 X45.1403 Y86.7006 
G01 X45.2103 Y86.7194 
G01 X45.2731 Y86.7556 
G01 X45.3244 Y86.8069 
G01 X45.3606 Y86.8697 
G01 X45.3794 Y86.9397 
G01 X45.3794 Y88.3203 
G01 X45.3606 Y88.3903 
G01 X45.3244 Y88.4531 
G01 X45.2731 Y88.5044 
G01 X45.2103 Y88.5406 
G01 X45.1403 Y88.5594 
G01 X43.7597 Y88.5594 
G01 X43.6897 Y88.5406 
G01 X43.6269 Y88.5044 
G01 X43.5756 Y88.4531 
G01 X43.5394 Y88.3903 
G01 X43.5206 Y88.3203 
G01 X43.5206 Y86.9397 
G01 X43.5394 Y86.8697 
G01 X43.5756 Y86.8069 
G00 Z2.5600 
G00 X27.5444 Y86.8069 
G01 Z-0.1778 F254.00 
G01 X27.5806 Y86.8697 F600.00 
G01 X27.5994 Y86.9397 
G01 X27.5994 Y88.3203 
G01 X27.5806 Y88.3903 
G01 X27.5444 Y88.4531 
G01 X27.4931 Y88.5044 
G01 X27.4303 Y88.5406 
G01 X27.3603 Y88.5594 
G01 X25.9797 Y88.5594 
G01 X25.9097 Y88.5406 
G01 X25.8469 Y88.5044 
G01 X25.7956 Y88.4531 
G01 X25.7594 Y88.3903 
G01 X25.7406 Y88.3203 
G01 X25.7406 Y86.9397 
G01 X25.7594 Y86.8697 
G01 X25.7956 Y86.8069 
G01 X25.8469 Y86.7556 
G01 X25.9097 Y86.7194 
G01 X25.9797 Y86.7006 
G01 X27.3603 Y86.7006 
G01 X27.4303 Y86.7194 
G01 X27.4931 Y86.7556 
G01 X27.5444 Y86.8069 
G00 Z2.5600 
G00 X25.0044 Y86.8069 
G01 Z-0.1778 F254.00 
G01 X25.0406 Y86.8697 F600.00 
G01 X25.0594 Y86.9397 
G01 X25.0594 Y88.3203 
G01 X25.0406 Y88.3903 
G01 X25.0044 Y88.4531 
G01 X24.9531 Y88.5044 
G01 X24.8903 Y88.5406 
G01 X24.8203 Y88.5594 
G01 X23.4397 Y88.5594 
G01 X23.3697 Y88.5406 
G01 X23.3069 Y88.5044 
G01 X23.2556 Y88.4531 
G01 X23.2194 Y88.3903 
G01 X23.2006 Y88.3203 
G01 X23.2006 Y86.9397 
G01 X23.2194 Y86.8697 
G01 X23.2556 Y86.8069 
G01 X23.3069 Y86.7556 
G01 X23.3697 Y86.7194 
G01 X23.4397 Y86.7006 
G01 X24.8203 Y86.7006 
G01 X24.8903 Y86.7194 
G01 X24.9531 Y86.7556 
G01 X25.0044 Y86.8069 
G00 Z2.5600 
G00 X22.4644 Y86.8069 
G01 Z-0.1778 F254.00 
G01 X22.5006 Y86.8697 F600.00 
G01 X22.5194 Y86.9397 
G01 X22.5194 Y88.3203 
G01 X22.5006 Y88.3903 
G01 X22.4644 Y88.4531 
G01 X22.4131 Y88.5044 
G01 X22.3503 Y88.5406 
G01 X22.2803 Y88.5594 
G01 X20.8997 Y88.5594 
G01 X20.8297 Y88.5406 
G01 X20.7669 Y88.5044 
G01 X20.7156 Y88.4531 
G01 X20.6794 Y88.3903 
G01 X20.6606 Y88.3203 
G01 X20.6606 Y86.9397 
G01 X20.6794 Y86.8697 
G01 X20.7156 Y86.8069 
G01 X20.7669 Y86.7556 
G01 X20.8297 Y86.7194 
G01 X20.8997 Y86.7006 
G01 X22.2803 Y86.7006 
G01 X22.3503 Y86.7194 
G01 X22.4131 Y86.7556 
G01 X22.4644 Y86.8069 
G00 Z2.5600 
G00 X19.9244 Y86.8069 
G01 Z-0.1778 F254.00 
G01 X19.9606 Y86.8697 F600.00 
G01 X19.9794 Y86.9397 
G01 X19.9794 Y88.3203 
G01 X19.9606 Y88.3903 
G01 X19.9244 Y88.4531 
G01 X19.8731 Y88.5044 
G01 X19.8103 Y88.5406 
G01 X19.7403 Y88.5594 
G01 X18.3597 Y88.5594 
G01 X18.2897 Y88.5406 
G01 X18.2269 Y88.5044 
G01 X18.1756 Y88.4531 
G01 X18.1394 Y88.3903 
G01 X18.1206 Y88.3203 
G01 X18.1206 Y86.9397 
G01 X18.1394 Y86.8697 
G01 X18.1756 Y86.8069 
G01 X18.2269 Y86.7556 
G01 X18.2897 Y86.7194 
G01 X18.3597 Y86.7006 
G01 X19.7403 Y86.7006 
G01 X19.8103 Y86.7194 
G01 X19.8731 Y86.7556 
G01 X19.9244 Y86.8069 
G00 Z2.5600 
G00 X17.3844 Y86.8069 
G01 Z-0.1778 F254.00 
G01 X17.4206 Y86.8697 F600.00 
G01 X17.4394 Y86.9397 
G01 X17.4394 Y88.3203 
G01 X17.4206 Y88.3903 
G01 X17.3844 Y88.4531 
G01 X17.3331 Y88.5044 
G01 X17.2703 Y88.5406 
G01 X17.2003 Y88.5594 
G01 X15.8197 Y88.5594 
G01 X15.7497 Y88.5406 
G01 X15.6869 Y88.5044 
G01 X15.6356 Y88.4531 
G01 X15.5994 Y88.3903 
G01 X15.5806 Y88.3203 
G01 X15.5806 Y86.9397 
G01 X15.5994 Y86.8697 
G01 X15.6356 Y86.8069 
G01 X15.6869 Y86.7556 
G01 X15.7497 Y86.7194 
G01 X15.8197 Y86.7006 
G01 X17.2003 Y86.7006 
G01 X17.2703 Y86.7194 
G01 X17.3331 Y86.7556 
G01 X17.3844 Y86.8069 
G00 Z2.5600 
G00 X28.3356 Y110.9369 
G01 Z-0.1778 F254.00 
G01 X28.3869 Y110.8856 F600.00 
G01 X28.4497 Y110.8494 
G01 X28.5197 Y110.8306 
G01 X29.9003 Y110.8306 
G01 X29.9703 Y110.8494 
G01 X30.0331 Y110.8856 
G01 X30.0844 Y110.9369 
G01 X30.1206 Y110.9997 
G01 X30.1394 Y111.0697 
G01 X30.1394 Y112.4503 
G01 X30.1206 Y112.5203 
G01 X30.0844 Y112.5831 
G01 X30.0331 Y112.6344 
G01 X29.9703 Y112.6706 
G01 X29.9003 Y112.6894 
G01 X28.5197 Y112.6894 
G01 X28.4497 Y112.6706 
G01 X28.3869 Y112.6344 
G01 X28.3356 Y112.5831 
G01 X28.2994 Y112.5203 
G01 X28.2806 Y112.4503 
G01 X28.2806 Y111.0697 
G01 X28.2994 Y110.9997 
G01 X28.3356 Y110.9369 
G00 Z2.5600 
G00 X28.3356 Y113.4769 
G01 Z-0.1778 F254.00 
G01 X28.3869 Y113.4256 F600.00 
G01 X28.4497 Y113.3894 
G01 X28.5197 Y113.3706 
G01 X29.9003 Y113.3706 
G01 X29.9703 Y113.3894 
G01 X30.0331 Y113.4256 
G01 X30.0844 Y113.4769 
G01 X30.1206 Y113.5397 
G01 X30.1394 Y113.6097 
G01 X30.1394 Y114.9903 
G01 X30.1206 Y115.0603 
G01 X30.0844 Y115.1231 
G01 X30.0331 Y115.1744 
G01 X29.9703 Y115.2106 
G01 X29.9003 Y115.2294 
G01 X28.5197 Y115.2294 
G01 X28.4497 Y115.2106 
G01 X28.3869 Y115.1744 
G01 X28.3356 Y115.1231 
G01 X28.2994 Y115.0603 
G01 X28.2806 Y114.9903 
G01 X28.2806 Y113.6097 
G01 X28.2994 Y113.5397 
G01 X28.3356 Y113.4769 
G00 Z2.5600 
G00 X35.9556 Y113.4769 
G01 Z-0.1778 F254.00 
G01 X36.0069 Y113.4256 F600.00 
G01 X36.0697 Y113.3894 
G01 X36.1397 Y113.3706 
G01 X37.5203 Y113.3706 
G01 X37.5903 Y113.3894 
G01 X37.6531 Y113.4256 
G01 X37.7044 Y113.4769 
G01 X37.7406 Y113.5397 
G01 X37.7594 Y113.6097 
G01 X37.7594 Y114.9903 
G01 X37.7406 Y115.0603 
G01 X37.7044 Y115.1231 
G01 X37.6531 Y115.1744 
G01 X37.5903 Y115.2106 
G01 X37.5203 Y115.2294 
G01 X36.1397 Y115.2294 
G01 X36.0697 Y115.2106 
G01 X36.0069 Y115.1744 
G01 X35.9556 Y115.1231 
G01 X35.9194 Y115.0603 
G01 X35.9006 Y114.9903 
G01 X35.9006 Y113.6097 
G01 X35.9194 Y113.5397 
G01 X35.9556 Y113.4769 
G00 Z2.5600 
G00 X36.0069 Y112.6344 
G01 Z-0.1778 F254.00 
G01 X35.9556 Y112.5831 F600.00 
G01 X35.9194 Y112.5203 
G01 X35.9006 Y112.4503 
G01 X35.9006 Y111.0697 
G01 X35.9194 Y110.9997 
G01 X35.9556 Y110.9369 
G01 X36.0069 Y110.8856 
G01 X36.0697 Y110.8494 
G01 X36.1397 Y110.8306 
G01 X37.5203 Y110.8306 
G01 X37.5903 Y110.8494 
G01 X37.6531 Y110.8856 
G01 X37.7044 Y110.9369 
G01 X37.7406 Y110.9997 
G01 X37.7594 Y111.0697 
G01 X37.7594 Y112.4503 
G01 X37.7406 Y112.5203 
G01 X37.7044 Y112.5831 
G01 X37.6531 Y112.6344 
G01 X37.5903 Y112.6706 
G01 X37.5203 Y112.6894 
G01 X36.1397 Y112.6894 
G01 X36.0697 Y112.6706 
G01 X36.0069 Y112.6344 
G00 Z2.5600 
G00 X36.0069 Y136.2856 
G01 Z-0.1778 F254.00 
G01 X36.0697 Y136.2494 F600.00 
G01 X36.1397 Y136.2306 
G01 X37.5203 Y136.2306 
G01 X37.5903 Y136.2494 
G01 X37.6531 Y136.2856 
G01 X37.7044 Y136.3369 
G01 X37.7406 Y136.3997 
G01 X37.7594 Y136.4697 
G01 X37.7594 Y137.8503 
G01 X37.7406 Y137.9203 
G01 X37.7044 Y137.9831 
G01 X37.6531 Y138.0344 
G01 X37.5903 Y138.0706 
G01 X37.5203 Y138.0894 
G01 X36.1397 Y138.0894 
G01 X36.0697 Y138.0706 
G01 X36.0069 Y138.0344 
G01 X35.9556 Y137.9831 
G01 X35.9194 Y137.9203 
G01 X35.9006 Y137.8503 
G01 X35.9006 Y136.4697 
G01 X35.9194 Y136.3997 
G01 X35.9556 Y136.3369 
G01 X36.0069 Y136.2856 
G00 Z2.5600 
G00 X35.1131 Y136.2856 
G01 Z-0.1778 F254.00 
G01 X35.1644 Y136.3369 F600.00 
G01 X35.2006 Y136.3997 
G01 X35.2194 Y136.4697 
G01 X35.2194 Y137.8503 
G01 X35.2006 Y137.9203 
G01 X35.1644 Y137.9831 
G01 X35.1131 Y138.0344 
G01 X35.0503 Y138.0706 
G01 X34.9803 Y138.0894 
G01 X33.5997 Y138.0894 
G01 X33.5297 Y138.0706 
G01 X33.4669 Y138.0344 
G01 X33.4156 Y137.9831 
G01 X33.3794 Y137.9203 
G01 X33.3606 Y137.8503 
G01 X33.3606 Y136.4697 
G01 X33.3794 Y136.3997 
G01 X33.4156 Y136.3369 
G01 X33.4669 Y136.2856 
G01 X33.5297 Y136.2494 
G01 X33.5997 Y136.2306 
G01 X34.9803 Y136.2306 
G01 X35.0503 Y136.2494 
G01 X35.1131 Y136.2856 
G00 Z2.5600 
G00 X32.5731 Y136.2856 
G01 Z-0.1778 F254.00 
G01 X32.6244 Y136.3369 F600.00 
G01 X32.6606 Y136.3997 
G01 X32.6794 Y136.4697 
G01 X32.6794 Y137.8503 
G01 X32.6606 Y137.9203 
G01 X32.6244 Y137.9831 
G01 X32.5731 Y138.0344 
G01 X32.5103 Y138.0706 
G01 X32.4403 Y138.0894 
G01 X31.0597 Y138.0894 
G01 X30.9897 Y138.0706 
G01 X30.9269 Y138.0344 
G01 X30.8756 Y137.9831 
G01 X30.8394 Y137.9203 
G01 X30.8206 Y137.8503 
G01 X30.8206 Y136.4697 
G01 X30.8394 Y136.3997 
G01 X30.8756 Y136.3369 
G01 X30.9269 Y136.2856 
G01 X30.9897 Y136.2494 
G01 X31.0597 Y136.2306 
G01 X32.4403 Y136.2306 
G01 X32.5103 Y136.2494 
G01 X32.5731 Y136.2856 
G00 Z2.5600 
G00 X30.0331 Y136.2856 
G01 Z-0.1778 F254.00 
G01 X30.0844 Y136.3369 F600.00 
G01 X30.1206 Y136.3997 
G01 X30.1394 Y136.4697 
G01 X30.1394 Y137.8503 
G01 X30.1206 Y137.9203 
G01 X30.0844 Y137.9831 
G01 X30.0331 Y138.0344 
G01 X29.9703 Y138.0706 
G01 X29.9003 Y138.0894 
G01 X28.5197 Y138.0894 
G01 X28.4497 Y138.0706 
G01 X28.3869 Y138.0344 
G01 X28.3356 Y137.9831 
G01 X28.2994 Y137.9203 
G01 X28.2806 Y137.8503 
G01 X28.2806 Y136.4697 
G01 X28.2994 Y136.3997 
G01 X28.3356 Y136.3369 
G01 X28.3869 Y136.2856 
G01 X28.4497 Y136.2494 
G01 X28.5197 Y136.2306 
G01 X29.9003 Y136.2306 
G01 X29.9703 Y136.2494 
G01 X30.0331 Y136.2856 
G00 Z2.5600 
G00 X27.4931 Y136.2856 
G01 Z-0.1778 F254.00 
G01 X27.5444 Y136.3369 F600.00 
G01 X27.5806 Y136.3997 
G01 X27.5994 Y136.4697 
G01 X27.5994 Y137.8503 
G01 X27.5806 Y137.9203 
G01 X27.5444 Y137.9831 
G01 X27.4931 Y138.0344 
G01 X27.4303 Y138.0706 
G01 X27.3603 Y138.0894 
G01 X25.9797 Y138.0894 
G01 X25.9097 Y138.0706 
G01 X25.8469 Y138.0344 
G01 X25.7956 Y137.9831 
G01 X25.7594 Y137.9203 
G01 X25.7406 Y137.8503 
G01 X25.7406 Y136.4697 
G01 X25.7594 Y136.3997 
G01 X25.7956 Y136.3369 
G01 X25.8469 Y136.2856 
G01 X25.9097 Y136.2494 
G01 X25.9797 Y136.2306 
G01 X27.3603 Y136.2306 
G01 X27.4303 Y136.2494 
G01 X27.4931 Y136.2856 
G00 Z2.5600 
G00 X24.9531 Y136.2856 
G01 Z-0.1778 F254.00 
G01 X25.0044 Y136.3369 F600.00 
G01 X25.0406 Y136.3997 
G01 X25.0594 Y136.4697 
G01 X25.0594 Y137.8503 
G01 X25.0406 Y137.9203 
G01 X25.0044 Y137.9831 
G01 X24.9531 Y138.0344 
G01 X24.8903 Y138.0706 
G01 X24.8203 Y138.0894 
G01 X23.4397 Y138.0894 
G01 X23.3697 Y138.0706 
G01 X23.3069 Y138.0344 
G01 X23.2556 Y137.9831 
G01 X23.2194 Y137.9203 
G01 X23.2006 Y137.8503 
G01 X23.2006 Y136.4697 
G01 X23.2194 Y136.3997 
G01 X23.2556 Y136.3369 
G01 X23.3069 Y136.2856 
G01 X23.3697 Y136.2494 
G01 X23.4397 Y136.2306 
G01 X24.8203 Y136.2306 
G01 X24.8903 Y136.2494 
G01 X24.9531 Y136.2856 
G00 Z2.5600 
G00 X22.4131 Y136.2856 
G01 Z-0.1778 F254.00 
G01 X22.4644 Y136.3369 F600.00 
G01 X22.5006 Y136.3997 
G01 X22.5194 Y136.4697 
G01 X22.5194 Y137.8503 
G01 X22.5006 Y137.9203 
G01 X22.4644 Y137.9831 
G01 X22.4131 Y138.0344 
G01 X22.3503 Y138.0706 
G01 X22.2803 Y138.0894 
G01 X20.8997 Y138.0894 
G01 X20.8297 Y138.0706 
G01 X20.7669 Y138.0344 
G01 X20.7156 Y137.9831 
G01 X20.6794 Y137.9203 
G01 X20.6606 Y137.8503 
G01 X20.6606 Y136.4697 
G01 X20.6794 Y136.3997 
G01 X20.7156 Y136.3369 
G01 X20.7669 Y136.2856 
G01 X20.8297 Y136.2494 
G01 X20.8997 Y136.2306 
G01 X22.2803 Y136.2306 
G01 X22.3503 Y136.2494 
G01 X22.4131 Y136.2856 
G00 Z2.5600 
G00 X19.8731 Y136.2856 
G01 Z-0.1778 F254.00 
G01 X19.9244 Y136.3369 F600.00 
G01 X19.9606 Y136.3997 
G01 X19.9794 Y136.4697 
G01 X19.9794 Y137.8503 
G01 X19.9606 Y137.9203 
G01 X19.9244 Y137.9831 
G01 X19.8731 Y138.0344 
G01 X19.8103 Y138.0706 
G01 X19.7403 Y138.0894 
G01 X18.3597 Y138.0894 
G01 X18.2897 Y138.0706 
G01 X18.2269 Y138.0344 
G01 X18.1756 Y137.9831 
G01 X18.1394 Y137.9203 
G01 X18.1206 Y137.8503 
G01 X18.1206 Y136.4697 
G01 X18.1394 Y136.3997 
G01 X18.1756 Y136.3369 
G01 X18.2269 Y136.2856 
G01 X18.2897 Y136.2494 
G01 X18.3597 Y136.2306 
G01 X19.7403 Y136.2306 
G01 X19.8103 Y136.2494 
G01 X19.8731 Y136.2856 
G00 Z2.5600 
G00 X17.3331 Y136.2856 
G01 Z-0.1778 F254.00 
G01 X17.3844 Y136.3369 F600.00 
G01 X17.4206 Y136.3997 
G01 X17.4394 Y136.4697 
G01 X17.4394 Y137.8503 
G01 X17.4206 Y137.9203 
G01 X17.3844 Y137.9831 
G01 X17.3331 Y138.0344 
G01 X17.2703 Y138.0706 
G01 X17.2003 Y138.0894 
G01 X15.8197 Y138.0894 
G01 X15.7497 Y138.0706 
G01 X15.6869 Y138.0344 
G01 X15.6356 Y137.9831 
G01 X15.5994 Y137.9203 
G01 X15.5806 Y137.8503 
G01 X15.5806 Y136.4697 
G01 X15.5994 Y136.3997 
G01 X15.6356 Y136.3369 
G01 X15.6869 Y136.2856 
G01 X15.7497 Y136.2494 
G01 X15.8197 Y136.2306 
G01 X17.2003 Y136.2306 
G01 X17.2703 Y136.2494 
G01 X17.3331 Y136.2856 
G00 Z2.5600 
G00 X38.4956 Y136.3369 
G01 Z-0.1778 F254.00 
G01 X38.5469 Y136.2856 F600.00 
G01 X38.6097 Y136.2494 
G01 X38.6797 Y136.2306 
G01 X40.0603 Y136.2306 
G01 X40.1303 Y136.2494 
G01 X40.1931 Y136.2856 
G01 X40.2444 Y136.3369 
G01 X40.2806 Y136.3997 
G01 X40.2994 Y136.4697 
G01 X40.2994 Y137.8503 
G01 X40.2806 Y137.9203 
G01 X40.2444 Y137.9831 
G01 X40.1931 Y138.0344 
G01 X40.1303 Y138.0706 
G01 X40.0603 Y138.0894 
G01 X38.6797 Y138.0894 
G01 X38.6097 Y138.0706 
G01 X38.5469 Y138.0344 
G01 X38.4956 Y137.9831 
G01 X38.4594 Y137.9203 
G01 X38.4406 Y137.8503 
G01 X38.4406 Y136.4697 
G01 X38.4594 Y136.3997 
G01 X38.4956 Y136.3369 
G00 Z2.5600 
G00 X41.0356 Y136.3369 
G01 Z-0.1778 F254.00 
G01 X41.0869 Y136.2856 F600.00 
G01 X41.1497 Y136.2494 
G01 X41.2197 Y136.2306 
G01 X42.6003 Y136.2306 
G01 X42.6703 Y136.2494 
G01 X42.7331 Y136.2856 
G01 X42.7844 Y136.3369 
G01 X42.8206 Y136.3997 
G01 X42.8394 Y136.4697 
G01 X42.8394 Y137.8503 
G01 X42.8206 Y137.9203 
G01 X42.7844 Y137.9831 
G01 X42.7331 Y138.0344 
G01 X42.6703 Y138.0706 
G01 X42.6003 Y138.0894 
G01 X41.2197 Y138.0894 
G01 X41.1497 Y138.0706 
G01 X41.0869 Y138.0344 
G01 X41.0356 Y137.9831 
G01 X40.9994 Y137.9203 
G01 X40.9806 Y137.8503 
G01 X40.9806 Y136.4697 
G01 X40.9994 Y136.3997 
G01 X41.0356 Y136.3369 
G00 Z2.5600 
G00 X43.5756 Y136.3369 
G01 Z-0.1778 F254.00 
G01 X43.6269 Y136.2856 F600.00 
G01 X43.6897 Y136.2494 
G01 X43.7597 Y136.2306 
G01 X45.1403 Y136.2306 
G01 X45.2103 Y136.2494 
G01 X45.2731 Y136.2856 
G01 X45.3244 Y136.3369 
G01 X45.3606 Y136.3997 
G01 X45.3794 Y136.4697 
G01 X45.3794 Y137.8503 
G01 X45.3606 Y137.9203 
G01 X45.3244 Y137.9831 
G01 X45.2731 Y138.0344 
G01 X45.2103 Y138.0706 
G01 X45.1403 Y138.0894 
G01 X43.7597 Y138.0894 
G01 X43.6897 Y138.0706 
G01 X43.6269 Y138.0344 
G01 X43.5756 Y137.9831 
G01 X43.5394 Y137.9203 
G01 X43.5206 Y137.8503 
G01 X43.5206 Y136.4697 
G01 X43.5394 Y136.3997 
G01 X43.5756 Y136.3369 
G00 Z2.5600 
G00 X37.6531 Y160.4156 
G01 Z-0.1778 F254.00 
G01 X37.7044 Y160.4669 F600.00 
G01 X37.7406 Y160.5297 
G01 X37.7594 Y160.5997 
G01 X37.7594 Y161.9803 
G01 X37.7406 Y162.0503 
G01 X37.7044 Y162.1131 
G01 X37.6531 Y162.1644 
G01 X37.5903 Y162.2006 
G01 X37.5203 Y162.2194 
G01 X36.1397 Y162.2194 
G01 X36.0697 Y162.2006 
G01 X36.0069 Y162.1644 
G01 X35.9556 Y162.1131 
G01 X35.9194 Y162.0503 
G01 X35.9006 Y161.9803 
G01 X35.9006 Y160.5997 
G01 X35.9194 Y160.5297 
G01 X35.9556 Y160.4669 
G01 X36.0069 Y160.4156 
G01 X36.0697 Y160.3794 
G01 X36.1397 Y160.3606 
G01 X37.5203 Y160.3606 
G01 X37.5903 Y160.3794 
G01 X37.6531 Y160.4156 
G00 Z2.5600 
G00 X37.6531 Y162.9556 
G01 Z-0.1778 F254.00 
G01 X37.7044 Y163.0069 F600.00 
G01 X37.7406 Y163.0697 
G01 X37.7594 Y163.1397 
G01 X37.7594 Y164.5203 
G01 X37.7406 Y164.5903 
G01 X37.7044 Y164.6531 
G01 X37.6531 Y164.7044 
G01 X37.5903 Y164.7406 
G01 X37.5203 Y164.7594 
G01 X36.1397 Y164.7594 
G01 X36.0697 Y164.7406 
G01 X36.0069 Y164.7044 
G01 X35.9556 Y164.6531 
G01 X35.9194 Y164.5903 
G01 X35.9006 Y164.5203 
G01 X35.9006 Y163.1397 
G01 X35.9194 Y163.0697 
G01 X35.9556 Y163.0069 
G01 X36.0069 Y162.9556 
G01 X36.0697 Y162.9194 
G01 X36.1397 Y162.9006 
G01 X37.5203 Y162.9006 
G01 X37.5903 Y162.9194 
G01 X37.6531 Y162.9556 
G00 Z2.5600 
G00 X30.0331 Y162.9556 
G01 Z-0.1778 F254.00 
G01 X30.0844 Y163.0069 F600.00 
G01 X30.1206 Y163.0697 
G01 X30.1394 Y163.1397 
G01 X30.1394 Y164.5203 
G01 X30.1206 Y164.5903 
G01 X30.0844 Y164.6531 
G01 X30.0331 Y164.7044 
G01 X29.9703 Y164.7406 
G01 X29.9003 Y164.7594 
G01 X28.5197 Y164.7594 
G01 X28.4497 Y164.7406 
G01 X28.3869 Y164.7044 
G01 X28.3356 Y164.6531 
G01 X28.2994 Y164.5903 
G01 X28.2806 Y164.5203 
G01 X28.2806 Y163.1397 
G01 X28.2994 Y163.0697 
G01 X28.3356 Y163.0069 
G01 X28.3869 Y162.9556 
G01 X28.4497 Y162.9194 
G01 X28.5197 Y162.9006 
G01 X29.9003 Y162.9006 
G01 X29.9703 Y162.9194 
G01 X30.0331 Y162.9556 
G00 Z2.5600 
G00 X30.0331 Y162.1644 
G01 Z-0.1778 F254.00 
G01 X29.9703 Y162.2006 F600.00 
G01 X29.9003 Y162.2194 
G01 X28.5197 Y162.2194 
G01 X28.4497 Y162.2006 
G01 X28.3869 Y162.1644 
G01 X28.3356 Y162.1131 
G01 X28.2994 Y162.0503 
G01 X28.2806 Y161.9803 
G01 X28.2806 Y160.5997 
G01 X28.2994 Y160.5297 
G01 X28.3356 Y160.4669 
G01 X28.3869 Y160.4156 
G01 X28.4497 Y160.3794 
G01 X28.5197 Y160.3606 
G01 X29.9003 Y160.3606 
G01 X29.9703 Y160.3794 
G01 X30.0331 Y160.4156 
G01 X30.0844 Y160.4669 
G01 X30.1206 Y160.5297 
G01 X30.1394 Y160.5997 
G01 X30.1394 Y161.9803 
G01 X30.1206 Y162.0503 
G01 X30.0844 Y162.1131 
G01 X30.0331 Y162.1644 
G00 Z2.5600 
G00 X30.0331 Y185.8156 
G01 Z-0.1778 F254.00 
G01 X30.0844 Y185.8669 F600.00 
G01 X30.1206 Y185.9297 
G01 X30.1394 Y185.9997 
G01 X30.1394 Y187.3803 
G01 X30.1206 Y187.4503 
G01 X30.0844 Y187.5131 
G01 X30.0331 Y187.5644 
G01 X29.9703 Y187.6006 
G01 X29.9003 Y187.6194 
G01 X28.5197 Y187.6194 
G01 X28.4497 Y187.6006 
G01 X28.3869 Y187.5644 
G01 X28.3356 Y187.5131 
G01 X28.2994 Y187.4503 
G01 X28.2806 Y187.3803 
G01 X28.2806 Y185.9997 
G01 X28.2994 Y185.9297 
G01 X28.3356 Y185.8669 
G01 X28.3869 Y185.8156 
G01 X28.4497 Y185.7794 
G01 X28.5197 Y185.7606 
G01 X29.9003 Y185.7606 
G01 X29.9703 Y185.7794 
G01 X30.0331 Y185.8156 
G00 Z2.5600 
G00 X30.8756 Y185.8669 
G01 Z-0.1778 F254.00 
G01 X30.9269 Y185.8156 F600.00 
G01 X30.9897 Y185.7794 
G01 X31.0597 Y185.7606 
G01 X32.4403 Y185.7606 
G01 X32.5103 Y185.7794 
G01 X32.5731 Y185.8156 
G01 X32.6244 Y185.8669 
G01 X32.6606 Y185.9297 
G01 X32.6794 Y185.9997 
G01 X32.6794 Y187.3803 
G01 X32.6606 Y187.4503 
G01 X32.6244 Y187.5131 
G01 X32.5731 Y187.5644 
G01 X32.5103 Y187.6006 
G01 X32.4403 Y187.6194 
G01 X31.0597 Y187.6194 
G01 X30.9897 Y187.6006 
G01 X30.9269 Y187.5644 
G01 X30.8756 Y187.5131 
G01 X30.8394 Y187.4503 
G01 X30.8206 Y187.3803 
G01 X30.8206 Y185.9997 
G01 X30.8394 Y185.9297 
G01 X30.8756 Y185.8669 
G00 Z2.5600 
G00 X33.4156 Y185.8669 
G01 Z-0.1778 F254.00 
G01 X33.4669 Y185.8156 F600.00 
G01 X33.5297 Y185.7794 
G01 X33.5997 Y185.7606 
G01 X34.9803 Y185.7606 
G01 X35.0503 Y185.7794 
G01 X35.1131 Y185.8156 
G01 X35.1644 Y185.8669 
G01 X35.2006 Y185.9297 
G01 X35.2194 Y185.9997 
G01 X35.2194 Y187.3803 
G01 X35.2006 Y187.4503 
G01 X35.1644 Y187.5131 
G01 X35.1131 Y187.5644 
G01 X35.0503 Y187.6006 
G01 X34.9803 Y187.6194 
G01 X33.5997 Y187.6194 
G01 X33.5297 Y187.6006 
G01 X33.4669 Y187.5644 
G01 X33.4156 Y187.5131 
G01 X33.3794 Y187.4503 
G01 X33.3606 Y187.3803 
G01 X33.3606 Y185.9997 
G01 X33.3794 Y185.9297 
G01 X33.4156 Y185.8669 
G00 Z2.5600 
G00 X35.9556 Y185.8669 
G01 Z-0.1778 F254.00 
G01 X36.0069 Y185.8156 F600.00 
G01 X36.0697 Y185.7794 
G01 X36.1397 Y185.7606 
G01 X37.5203 Y185.7606 
G01 X37.5903 Y185.7794 
G01 X37.6531 Y185.8156 
G01 X37.7044 Y185.8669 
G01 X37.7406 Y185.9297 
G01 X37.7594 Y185.9997 
G01 X37.7594 Y187.3803 
G01 X37.7406 Y187.4503 
G01 X37.7044 Y187.5131 
G01 X37.6531 Y187.5644 
G01 X37.5903 Y187.6006 
G01 X37.5203 Y187.6194 
G01 X36.1397 Y187.6194 
G01 X36.0697 Y187.6006 
G01 X36.0069 Y187.5644 
G01 X35.9556 Y187.5131 
G01 X35.9194 Y187.4503 
G01 X35.9006 Y187.3803 
G01 X35.9006 Y185.9997 
G01 X35.9194 Y185.9297 
G01 X35.9556 Y185.8669 
G00 Z2.5600 
G00 X38.4956 Y185.8669 
G01 Z-0.1778 F254.00 
G01 X38.5469 Y185.8156 F600.00 
G01 X38.6097 Y185.7794 
G01 X38.6797 Y185.7606 
G01 X40.0603 Y185.7606 
G01 X40.1303 Y185.7794 
G01 X40.1931 Y185.8156 
G01 X40.2444 Y185.8669 
G01 X40.2806 Y185.9297 
G01 X40.2994 Y185.9997 
G01 X40.2994 Y187.3803 
G01 X40.2806 Y187.4503 
G01 X40.2444 Y187.5131 
G01 X40.1931 Y187.5644 
G01 X40.1303 Y187.6006 
G01 X40.0603 Y187.6194 
G01 X38.6797 Y187.6194 
G01 X38.6097 Y187.6006 
G01 X38.5469 Y187.5644 
G01 X38.4956 Y187.5131 
G01 X38.4594 Y187.4503 
G01 X38.4406 Y187.3803 
G01 X38.4406 Y185.9997 
G01 X38.4594 Y185.9297 
G01 X38.4956 Y185.8669 
G00 Z2.5600 
G00 X41.0356 Y185.8669 
G01 Z-0.1778 F254.00 
G01 X41.0869 Y185.8156 F600.00 
G01 X41.1497 Y185.7794 
G01 X41.2197 Y185.7606 
G01 X42.6003 Y185.7606 
G01 X42.6703 Y185.7794 
G01 X42.7331 Y185.8156 
G01 X42.7844 Y185.8669 
G01 X42.8206 Y185.9297 
G01 X42.8394 Y185.9997 
G01 X42.8394 Y187.3803 
G01 X42.8206 Y187.4503 
G01 X42.7844 Y187.5131 
G01 X42.7331 Y187.5644 
G01 X42.6703 Y187.6006 
G01 X42.6003 Y187.6194 
G01 X41.2197 Y187.6194 
G01 X41.1497 Y187.6006 
G01 X41.0869 Y187.5644 
G01 X41.0356 Y187.5131 
G01 X40.9994 Y187.4503 
G01 X40.9806 Y187.3803 
G01 X40.9806 Y185.9997 
G01 X40.9994 Y185.9297 
G01 X41.0356 Y185.8669 
G00 Z2.5600 
G00 X43.5756 Y185.8669 
G01 Z-0.1778 F254.00 
G01 X43.6269 Y185.8156 F600.00 
G01 X43.6897 Y185.7794 
G01 X43.7597 Y185.7606 
G01 X45.1403 Y185.7606 
G01 X45.2103 Y185.7794 
G01 X45.2731 Y185.8156 
G01 X45.3244 Y185.8669 
G01 X45.3606 Y185.9297 
G01 X45.3794 Y185.9997 
G01 X45.3794 Y187.3803 
G01 X45.3606 Y187.4503 
G01 X45.3244 Y187.5131 
G01 X45.2731 Y187.5644 
G01 X45.2103 Y187.6006 
G01 X45.1403 Y187.6194 
G01 X43.7597 Y187.6194 
G01 X43.6897 Y187.6006 
G01 X43.6269 Y187.5644 
G01 X43.5756 Y187.5131 
G01 X43.5394 Y187.4503 
G01 X43.5206 Y187.3803 
G01 X43.5206 Y185.9997 
G01 X43.5394 Y185.9297 
G01 X43.5756 Y185.8669 
G00 Z2.5600 
G00 X27.5444 Y185.8669 
G01 Z-0.1778 F254.00 
G01 X27.5806 Y185.9297 F600.00 
G01 X27.5994 Y185.9997 
G01 X27.5994 Y187.3803 
G01 X27.5806 Y187.4503 
G01 X27.5444 Y187.5131 
G01 X27.4931 Y187.5644 
G01 X27.4303 Y187.6006 
G01 X27.3603 Y187.6194 
G01 X25.9797 Y187.6194 
G01 X25.9097 Y187.6006 
G01 X25.8469 Y187.5644 
G01 X25.7956 Y187.5131 
G01 X25.7594 Y187.4503 
G01 X25.7406 Y187.3803 
G01 X25.7406 Y185.9997 
G01 X25.7594 Y185.9297 
G01 X25.7956 Y185.8669 
G01 X25.8469 Y185.8156 
G01 X25.9097 Y185.7794 
G01 X25.9797 Y185.7606 
G01 X27.3603 Y185.7606 
G01 X27.4303 Y185.7794 
G01 X27.4931 Y185.8156 
G01 X27.5444 Y185.8669 
G00 Z2.5600 
G00 X25.0044 Y185.8669 
G01 Z-0.1778 F254.00 
G01 X25.0406 Y185.9297 F600.00 
G01 X25.0594 Y185.9997 
G01 X25.0594 Y187.3803 
G01 X25.0406 Y187.4503 
G01 X25.0044 Y187.5131 
G01 X24.9531 Y187.5644 
G01 X24.8903 Y187.6006 
G01 X24.8203 Y187.6194 
G01 X23.4397 Y187.6194 
G01 X23.3697 Y187.6006 
G01 X23.3069 Y187.5644 
G01 X23.2556 Y187.5131 
G01 X23.2194 Y187.4503 
G01 X23.2006 Y187.3803 
G01 X23.2006 Y185.9997 
G01 X23.2194 Y185.9297 
G01 X23.2556 Y185.8669 
G01 X23.3069 Y185.8156 
G01 X23.3697 Y185.7794 
G01 X23.4397 Y185.7606 
G01 X24.8203 Y185.7606 
G01 X24.8903 Y185.7794 
G01 X24.9531 Y185.8156 
G01 X25.0044 Y185.8669 
G00 Z2.5600 
G00 X22.4644 Y185.8669 
G01 Z-0.1778 F254.00 
G01 X22.5006 Y185.9297 F600.00 
G01 X22.5194 Y185.9997 
G01 X22.5194 Y187.3803 
G01 X22.5006 Y187.4503 
G01 X22.4644 Y187.5131 
G01 X22.4131 Y187.5644 
G01 X22.3503 Y187.6006 
G01 X22.2803 Y187.6194 
G01 X20.8997 Y187.6194 
G01 X20.8297 Y187.6006 
G01 X20.7669 Y187.5644 
G01 X20.7156 Y187.5131 
G01 X20.6794 Y187.4503 
G01 X20.6606 Y187.3803 
G01 X20.6606 Y185.9997 
G01 X20.6794 Y185.9297 
G01 X20.7156 Y185.8669 
G01 X20.7669 Y185.8156 
G01 X20.8297 Y185.7794 
G01 X20.8997 Y185.7606 
G01 X22.2803 Y185.7606 
G01 X22.3503 Y185.7794 
G01 X22.4131 Y185.8156 
G01 X22.4644 Y185.8669 
G00 Z2.5600 
G00 X19.9244 Y185.8669 
G01 Z-0.1778 F254.00 
G01 X19.9606 Y185.9297 F600.00 
G01 X19.9794 Y185.9997 
G01 X19.9794 Y187.3803 
G01 X19.9606 Y187.4503 
G01 X19.9244 Y187.5131 
G01 X19.8731 Y187.5644 
G01 X19.8103 Y187.6006 
G01 X19.7403 Y187.6194 
G01 X18.3597 Y187.6194 
G01 X18.2897 Y187.6006 
G01 X18.2269 Y187.5644 
G01 X18.1756 Y187.5131 
G01 X18.1394 Y187.4503 
G01 X18.1206 Y187.3803 
G01 X18.1206 Y185.9997 
G01 X18.1394 Y185.9297 
G01 X18.1756 Y185.8669 
G01 X18.2269 Y185.8156 
G01 X18.2897 Y185.7794 
G01 X18.3597 Y185.7606 
G01 X19.7403 Y185.7606 
G01 X19.8103 Y185.7794 
G01 X19.8731 Y185.8156 
G01 X19.9244 Y185.8669 
G00 Z2.5600 
G00 X17.3844 Y185.8669 
G01 Z-0.1778 F254.00 
G01 X17.4206 Y185.9297 F600.00 
G01 X17.4394 Y185.9997 
G01 X17.4394 Y187.3803 
G01 X17.4206 Y187.4503 
G01 X17.3844 Y187.5131 
G01 X17.3331 Y187.5644 
G01 X17.2703 Y187.6006 
G01 X17.2003 Y187.6194 
G01 X15.8197 Y187.6194 
G01 X15.7497 Y187.6006 
G01 X15.6869 Y187.5644 
G01 X15.6356 Y187.5131 
G01 X15.5994 Y187.4503 
G01 X15.5806 Y187.3803 
G01 X15.5806 Y185.9997 
G01 X15.5994 Y185.9297 
G01 X15.6356 Y185.8669 
G01 X15.6869 Y185.8156 
G01 X15.7497 Y185.7794 
G01 X15.8197 Y185.7606 
G01 X17.2003 Y185.7606 
G01 X17.2703 Y185.7794 
G01 X17.3331 Y185.8156 
G01 X17.3844 Y185.8669 
G00 Z2.5600 
G00 X76.5956 Y185.8669 
G01 Z-0.1778 F254.00 
G01 X76.6469 Y185.8156 F600.00 
G01 X76.7097 Y185.7794 
G01 X76.7797 Y185.7606 
G01 X78.1603 Y185.7606 
G01 X78.2303 Y185.7794 
G01 X78.2931 Y185.8156 
G01 X78.3444 Y185.8669 
G01 X78.3806 Y185.9297 
G01 X78.3994 Y185.9997 
G01 X78.3994 Y187.3803 
G01 X78.3806 Y187.4503 
G01 X78.3444 Y187.5131 
G01 X78.2931 Y187.5644 
G01 X78.2303 Y187.6006 
G01 X78.1603 Y187.6194 
G01 X76.7797 Y187.6194 
G01 X76.7097 Y187.6006 
G01 X76.6469 Y187.5644 
G01 X76.5956 Y187.5131 
G01 X76.5594 Y187.4503 
G01 X76.5406 Y187.3803 
G01 X76.5406 Y185.9997 
G01 X76.5594 Y185.9297 
G01 X76.5956 Y185.8669 
G00 Z2.5600 
G00 X79.1356 Y185.8669 
G01 Z-0.1778 F254.00 
G01 X79.1869 Y185.8156 F600.00 
G01 X79.2497 Y185.7794 
G01 X79.3197 Y185.7606 
G01 X80.7003 Y185.7606 
G01 X80.7703 Y185.7794 
G01 X80.8331 Y185.8156 
G01 X80.8844 Y185.8669 
G01 X80.9206 Y185.9297 
G01 X80.9394 Y185.9997 
G01 X80.9394 Y187.3803 
G01 X80.9206 Y187.4503 
G01 X80.8844 Y187.5131 
G01 X80.8331 Y187.5644 
G01 X80.7703 Y187.6006 
G01 X80.7003 Y187.6194 
G01 X79.3197 Y187.6194 
G01 X79.2497 Y187.6006 
G01 X79.1869 Y187.5644 
G01 X79.1356 Y187.5131 
G01 X79.0994 Y187.4503 
G01 X79.0806 Y187.3803 
G01 X79.0806 Y185.9997 
G01 X79.0994 Y185.9297 
G01 X79.1356 Y185.8669 
G00 Z2.5600 
G00 X81.6756 Y185.8669 
G01 Z-0.1778 F254.00 
G01 X81.7269 Y185.8156 F600.00 
G01 X81.7897 Y185.7794 
G01 X81.8597 Y185.7606 
G01 X83.2403 Y185.7606 
G01 X83.3103 Y185.7794 
G01 X83.3731 Y185.8156 
G01 X83.4244 Y185.8669 
G01 X83.4606 Y185.9297 
G01 X83.4794 Y185.9997 
G01 X83.4794 Y187.3803 
G01 X83.4606 Y187.4503 
G01 X83.4244 Y187.5131 
G01 X83.3731 Y187.5644 
G01 X83.3103 Y187.6006 
G01 X83.2403 Y187.6194 
G01 X81.8597 Y187.6194 
G01 X81.7897 Y187.6006 
G01 X81.7269 Y187.5644 
G01 X81.6756 Y187.5131 
G01 X81.6394 Y187.4503 
G01 X81.6206 Y187.3803 
G01 X81.6206 Y185.9997 
G01 X81.6394 Y185.9297 
G01 X81.6756 Y185.8669 
G00 Z2.5600 
G00 X84.2156 Y185.8669 
G01 Z-0.1778 F254.00 
G01 X84.2669 Y185.8156 F600.00 
G01 X84.3297 Y185.7794 
G01 X84.3997 Y185.7606 
G01 X85.7803 Y185.7606 
G01 X85.8503 Y185.7794 
G01 X85.9131 Y185.8156 
G01 X85.9644 Y185.8669 
G01 X86.0006 Y185.9297 
G01 X86.0194 Y185.9997 
G01 X86.0194 Y187.3803 
G01 X86.0006 Y187.4503 
G01 X85.9644 Y187.5131 
G01 X85.9131 Y187.5644 
G01 X85.8503 Y187.6006 
G01 X85.7803 Y187.6194 
G01 X84.3997 Y187.6194 
G01 X84.3297 Y187.6006 
G01 X84.2669 Y187.5644 
G01 X84.2156 Y187.5131 
G01 X84.1794 Y187.4503 
G01 X84.1606 Y187.3803 
G01 X84.1606 Y185.9997 
G01 X84.1794 Y185.9297 
G01 X84.2156 Y185.8669 
G00 Z2.5600 
G00 X86.7556 Y185.8669 
G01 Z-0.1778 F254.00 
G01 X86.8069 Y185.8156 F600.00 
G01 X86.8697 Y185.7794 
G01 X86.9397 Y185.7606 
G01 X88.3203 Y185.7606 
G01 X88.3903 Y185.7794 
G01 X88.4531 Y185.8156 
G01 X88.5044 Y185.8669 
G01 X88.5406 Y185.9297 
G01 X88.5594 Y185.9997 
G01 X88.5594 Y187.3803 
G01 X88.5406 Y187.4503 
G01 X88.5044 Y187.5131 
G01 X88.4531 Y187.5644 
G01 X88.3903 Y187.6006 
G01 X88.3203 Y187.6194 
G01 X86.9397 Y187.6194 
G01 X86.8697 Y187.6006 
G01 X86.8069 Y187.5644 
G01 X86.7556 Y187.5131 
G01 X86.7194 Y187.4503 
G01 X86.7006 Y187.3803 
G01 X86.7006 Y185.9997 
G01 X86.7194 Y185.9297 
G01 X86.7556 Y185.8669 
G00 Z2.5600 
G00 X89.2956 Y185.8669 
G01 Z-0.1778 F254.00 
G01 X89.3469 Y185.8156 F600.00 
G01 X89.4097 Y185.7794 
G01 X89.4797 Y185.7606 
G01 X90.8603 Y185.7606 
G01 X90.9303 Y185.7794 
G01 X90.9931 Y185.8156 
G01 X91.0444 Y185.8669 
G01 X91.0806 Y185.9297 
G01 X91.0994 Y185.9997 
G01 X91.0994 Y187.3803 
G01 X91.0806 Y187.4503 
G01 X91.0444 Y187.5131 
G01 X90.9931 Y187.5644 
G01 X90.9303 Y187.6006 
G01 X90.8603 Y187.6194 
G01 X89.4797 Y187.6194 
G01 X89.4097 Y187.6006 
G01 X89.3469 Y187.5644 
G01 X89.2956 Y187.5131 
G01 X89.2594 Y187.4503 
G01 X89.2406 Y187.3803 
G01 X89.2406 Y185.9997 
G01 X89.2594 Y185.9297 
G01 X89.2956 Y185.8669 
G00 Z2.5600 
G00 X91.8356 Y185.8669 
G01 Z-0.1778 F254.00 
G01 X91.8869 Y185.8156 F600.00 
G01 X91.9497 Y185.7794 
G01 X92.0197 Y185.7606 
G01 X93.4003 Y185.7606 
G01 X93.4703 Y185.7794 
G01 X93.5331 Y185.8156 
G01 X93.5844 Y185.8669 
G01 X93.6206 Y185.9297 
G01 X93.6394 Y185.9997 
G01 X93.6394 Y187.3803 
G01 X93.6206 Y187.4503 
G01 X93.5844 Y187.5131 
G01 X93.5331 Y187.5644 
G01 X93.4703 Y187.6006 
G01 X93.4003 Y187.6194 
G01 X92.0197 Y187.6194 
G01 X91.9497 Y187.6006 
G01 X91.8869 Y187.5644 
G01 X91.8356 Y187.5131 
G01 X91.7994 Y187.4503 
G01 X91.7806 Y187.3803 
G01 X91.7806 Y185.9997 
G01 X91.7994 Y185.9297 
G01 X91.8356 Y185.8669 
G00 Z2.5600 
G00 X94.3756 Y185.8669 
G01 Z-0.1778 F254.00 
G01 X94.4269 Y185.8156 F600.00 
G01 X94.4897 Y185.7794 
G01 X94.5597 Y185.7606 
G01 X95.9403 Y185.7606 
G01 X96.0103 Y185.7794 
G01 X96.0731 Y185.8156 
G01 X96.1244 Y185.8669 
G01 X96.1606 Y185.9297 
G01 X96.1794 Y185.9997 
G01 X96.1794 Y187.3803 
G01 X96.1606 Y187.4503 
G01 X96.1244 Y187.5131 
G01 X96.0731 Y187.5644 
G01 X96.0103 Y187.6006 
G01 X95.9403 Y187.6194 
G01 X94.5597 Y187.6194 
G01 X94.4897 Y187.6006 
G01 X94.4269 Y187.5644 
G01 X94.3756 Y187.5131 
G01 X94.3394 Y187.4503 
G01 X94.3206 Y187.3803 
G01 X94.3206 Y185.9997 
G01 X94.3394 Y185.9297 
G01 X94.3756 Y185.8669 
G00 Z2.5600 
G00 X96.9156 Y185.8669 
G01 Z-0.1778 F254.00 
G01 X96.9669 Y185.8156 F600.00 
G01 X97.0297 Y185.7794 
G01 X97.0997 Y185.7606 
G01 X98.4803 Y185.7606 
G01 X98.5503 Y185.7794 
G01 X98.6131 Y185.8156 
G01 X98.6644 Y185.8669 
G01 X98.7006 Y185.9297 
G01 X98.7194 Y185.9997 
G01 X98.7194 Y187.3803 
G01 X98.7006 Y187.4503 
G01 X98.6644 Y187.5131 
G01 X98.6131 Y187.5644 
G01 X98.5503 Y187.6006 
G01 X98.4803 Y187.6194 
G01 X97.0997 Y187.6194 
G01 X97.0297 Y187.6006 
G01 X96.9669 Y187.5644 
G01 X96.9156 Y187.5131 
G01 X96.8794 Y187.4503 
G01 X96.8606 Y187.3803 
G01 X96.8606 Y185.9997 
G01 X96.8794 Y185.9297 
G01 X96.9156 Y185.8669 
G00 Z2.5600 
G00 X99.4556 Y185.8669 
G01 Z-0.1778 F254.00 
G01 X99.5069 Y185.8156 F600.00 
G01 X99.5697 Y185.7794 
G01 X99.6397 Y185.7606 
G01 X101.0203 Y185.7606 
G01 X101.0903 Y185.7794 
G01 X101.1531 Y185.8156 
G01 X101.2044 Y185.8669 
G01 X101.2406 Y185.9297 
G01 X101.2594 Y185.9997 
G01 X101.2594 Y187.3803 
G01 X101.2406 Y187.4503 
G01 X101.2044 Y187.5131 
G01 X101.1531 Y187.5644 
G01 X101.0903 Y187.6006 
G01 X101.0203 Y187.6194 
G01 X99.6397 Y187.6194 
G01 X99.5697 Y187.6006 
G01 X99.5069 Y187.5644 
G01 X99.4556 Y187.5131 
G01 X99.4194 Y187.4503 
G01 X99.4006 Y187.3803 
G01 X99.4006 Y185.9997 
G01 X99.4194 Y185.9297 
G01 X99.4556 Y185.8669 
G00 Z2.5600 
G00 X101.9956 Y185.8669 
G01 Z-0.1778 F254.00 
G01 X102.0469 Y185.8156 F600.00 
G01 X102.1097 Y185.7794 
G01 X102.1797 Y185.7606 
G01 X103.5603 Y185.7606 
G01 X103.6303 Y185.7794 
G01 X103.6931 Y185.8156 
G01 X103.7444 Y185.8669 
G01 X103.7806 Y185.9297 
G01 X103.7994 Y185.9997 
G01 X103.7994 Y187.3803 
G01 X103.7806 Y187.4503 
G01 X103.7444 Y187.5131 
G01 X103.6931 Y187.5644 
G01 X103.6303 Y187.6006 
G01 X103.5603 Y187.6194 
G01 X102.1797 Y187.6194 
G01 X102.1097 Y187.6006 
G01 X102.0469 Y187.5644 
G01 X101.9956 Y187.5131 
G01 X101.9594 Y187.4503 
G01 X101.9406 Y187.3803 
G01 X101.9406 Y185.9997 
G01 X101.9594 Y185.9297 
G01 X101.9956 Y185.8669 
G00 Z2.5600 
G00 X104.5356 Y185.8669 
G01 Z-0.1778 F254.00 
G01 X104.5869 Y185.8156 F600.00 
G01 X104.6497 Y185.7794 
G01 X104.7197 Y185.7606 
G01 X106.1003 Y185.7606 
G01 X106.1703 Y185.7794 
G01 X106.2331 Y185.8156 
G01 X106.2844 Y185.8669 
G01 X106.3206 Y185.9297 
G01 X106.3394 Y185.9997 
G01 X106.3394 Y187.3803 
G01 X106.3206 Y187.4503 
G01 X106.2844 Y187.5131 
G01 X106.2331 Y187.5644 
G01 X106.1703 Y187.6006 
G01 X106.1003 Y187.6194 
G01 X104.7197 Y187.6194 
G01 X104.6497 Y187.6006 
G01 X104.5869 Y187.5644 
G01 X104.5356 Y187.5131 
G01 X104.4994 Y187.4503 
G01 X104.4806 Y187.3803 
G01 X104.4806 Y185.9997 
G01 X104.4994 Y185.9297 
G01 X104.5356 Y185.8669 
G00 Z2.5600 
G00 X98.6644 Y164.6531 
G01 Z-0.1778 F254.00 
G01 X98.6131 Y164.7044 F600.00 
G01 X98.5503 Y164.7406 
G01 X98.4803 Y164.7594 
G01 X97.0997 Y164.7594 
G01 X97.0297 Y164.7406 
G01 X96.9669 Y164.7044 
G01 X96.9156 Y164.6531 
G01 X96.8794 Y164.5903 
G01 X96.8606 Y164.5203 
G01 X96.8606 Y163.1397 
G01 X96.8794 Y163.0697 
G01 X96.9156 Y163.0069 
G01 X96.9669 Y162.9556 
G01 X97.0297 Y162.9194 
G01 X97.0997 Y162.9006 
G01 X98.4803 Y162.9006 
G01 X98.5503 Y162.9194 
G01 X98.6131 Y162.9556 
G01 X98.6644 Y163.0069 
G01 X98.7006 Y163.0697 
G01 X98.7194 Y163.1397 
G01 X98.7194 Y164.5203 
G01 X98.7006 Y164.5903 
G01 X98.6644 Y164.6531 
G00 Z2.5600 
G00 X98.6644 Y162.1131 
G01 Z-0.1778 F254.00 
G01 X98.6131 Y162.1644 F600.00 
G01 X98.5503 Y162.2006 
G01 X98.4803 Y162.2194 
G01 X97.0997 Y162.2194 
G01 X97.0297 Y162.2006 
G01 X96.9669 Y162.1644 
G01 X96.9156 Y162.1131 
G01 X96.8794 Y162.0503 
G01 X96.8606 Y161.9803 
G01 X96.8606 Y160.5997 
G01 X96.8794 Y160.5297 
G01 X96.9156 Y160.4669 
G01 X96.9669 Y160.4156 
G01 X97.0297 Y160.3794 
G01 X97.0997 Y160.3606 
G01 X98.4803 Y160.3606 
G01 X98.5503 Y160.3794 
G01 X98.6131 Y160.4156 
G01 X98.6644 Y160.4669 
G01 X98.7006 Y160.5297 
G01 X98.7194 Y160.5997 
G01 X98.7194 Y161.9803 
G01 X98.7006 Y162.0503 
G01 X98.6644 Y162.1131 
G00 Z2.5600 
G00 X91.0444 Y162.1131 
G01 Z-0.1778 F254.00 
G01 X90.9931 Y162.1644 F600.00 
G01 X90.9303 Y162.2006 
G01 X90.8603 Y162.2194 
G01 X89.4797 Y162.2194 
G01 X89.4097 Y162.2006 
G01 X89.3469 Y162.1644 
G01 X89.2956 Y162.1131 
G01 X89.2594 Y162.0503 
G01 X89.2406 Y161.9803 
G01 X89.2406 Y160.5997 
G01 X89.2594 Y160.5297 
G01 X89.2956 Y160.4669 
G01 X89.3469 Y160.4156 
G01 X89.4097 Y160.3794 
G01 X89.4797 Y160.3606 
G01 X90.8603 Y160.3606 
G01 X90.9303 Y160.3794 
G01 X90.9931 Y160.4156 
G01 X91.0444 Y160.4669 
G01 X91.0806 Y160.5297 
G01 X91.0994 Y160.5997 
G01 X91.0994 Y161.9803 
G01 X91.0806 Y162.0503 
G01 X91.0444 Y162.1131 
G00 Z2.5600 
G00 X90.9931 Y162.9556 
G01 Z-0.1778 F254.00 
G01 X91.0444 Y163.0069 F600.00 
G01 X91.0806 Y163.0697 
G01 X91.0994 Y163.1397 
G01 X91.0994 Y164.5203 
G01 X91.0806 Y164.5903 
G01 X91.0444 Y164.6531 
G01 X90.9931 Y164.7044 
G01 X90.9303 Y164.7406 
G01 X90.8603 Y164.7594 
G01 X89.4797 Y164.7594 
G01 X89.4097 Y164.7406 
G01 X89.3469 Y164.7044 
G01 X89.2956 Y164.6531 
G01 X89.2594 Y164.5903 
G01 X89.2406 Y164.5203 
G01 X89.2406 Y163.1397 
G01 X89.2594 Y163.0697 
G01 X89.2956 Y163.0069 
G01 X89.3469 Y162.9556 
G01 X89.4097 Y162.9194 
G01 X89.4797 Y162.9006 
G01 X90.8603 Y162.9006 
G01 X90.9303 Y162.9194 
G01 X90.9931 Y162.9556 
G00 Z2.5600 
G00 X90.9931 Y138.0344 
G01 Z-0.1778 F254.00 
G01 X90.9303 Y138.0706 F600.00 
G01 X90.8603 Y138.0894 
G01 X89.4797 Y138.0894 
G01 X89.4097 Y138.0706 
G01 X89.3469 Y138.0344 
G01 X89.2956 Y137.9831 
G01 X89.2594 Y137.9203 
G01 X89.2406 Y137.8503 
G01 X89.2406 Y136.4697 
G01 X89.2594 Y136.3997 
G01 X89.2956 Y136.3369 
G01 X89.3469 Y136.2856 
G01 X89.4097 Y136.2494 
G01 X89.4797 Y136.2306 
G01 X90.8603 Y136.2306 
G01 X90.9303 Y136.2494 
G01 X90.9931 Y136.2856 
G01 X91.0444 Y136.3369 
G01 X91.0806 Y136.3997 
G01 X91.0994 Y136.4697 
G01 X91.0994 Y137.8503 
G01 X91.0806 Y137.9203 
G01 X91.0444 Y137.9831 
G01 X90.9931 Y138.0344 
G00 Z2.5600 
G00 X91.8869 Y138.0344 
G01 Z-0.1778 F254.00 
G01 X91.8356 Y137.9831 F600.00 
G01 X91.7994 Y137.9203 
G01 X91.7806 Y137.8503 
G01 X91.7806 Y136.4697 
G01 X91.7994 Y136.3997 
G01 X91.8356 Y136.3369 
G01 X91.8869 Y136.2856 
G01 X91.9497 Y136.2494 
G01 X92.0197 Y136.2306 
G01 X93.4003 Y136.2306 
G01 X93.4703 Y136.2494 
G01 X93.5331 Y136.2856 
G01 X93.5844 Y136.3369 
G01 X93.6206 Y136.3997 
G01 X93.6394 Y136.4697 
G01 X93.6394 Y137.8503 
G01 X93.6206 Y137.9203 
G01 X93.5844 Y137.9831 
G01 X93.5331 Y138.0344 
G01 X93.4703 Y138.0706 
G01 X93.4003 Y138.0894 
G01 X92.0197 Y138.0894 
G01 X91.9497 Y138.0706 
G01 X91.8869 Y138.0344 
G00 Z2.5600 
G00 X94.4269 Y138.0344 
G01 Z-0.1778 F254.00 
G01 X94.3756 Y137.9831 F600.00 
G01 X94.3394 Y137.9203 
G01 X94.3206 Y137.8503 
G01 X94.3206 Y136.4697 
G01 X94.3394 Y136.3997 
G01 X94.3756 Y136.3369 
G01 X94.4269 Y136.2856 
G01 X94.4897 Y136.2494 
G01 X94.5597 Y136.2306 
G01 X95.9403 Y136.2306 
G01 X96.0103 Y136.2494 
G01 X96.0731 Y136.2856 
G01 X96.1244 Y136.3369 
G01 X96.1606 Y136.3997 
G01 X96.1794 Y136.4697 
G01 X96.1794 Y137.8503 
G01 X96.1606 Y137.9203 
G01 X96.1244 Y137.9831 
G01 X96.0731 Y138.0344 
G01 X96.0103 Y138.0706 
G01 X95.9403 Y138.0894 
G01 X94.5597 Y138.0894 
G01 X94.4897 Y138.0706 
G01 X94.4269 Y138.0344 
G00 Z2.5600 
G00 X96.9669 Y138.0344 
G01 Z-0.1778 F254.00 
G01 X96.9156 Y137.9831 F600.00 
G01 X96.8794 Y137.9203 
G01 X96.8606 Y137.8503 
G01 X96.8606 Y136.4697 
G01 X96.8794 Y136.3997 
G01 X96.9156 Y136.3369 
G01 X96.9669 Y136.2856 
G01 X97.0297 Y136.2494 
G01 X97.0997 Y136.2306 
G01 X98.4803 Y136.2306 
G01 X98.5503 Y136.2494 
G01 X98.6131 Y136.2856 
G01 X98.6644 Y136.3369 
G01 X98.7006 Y136.3997 
G01 X98.7194 Y136.4697 
G01 X98.7194 Y137.8503 
G01 X98.7006 Y137.9203 
G01 X98.6644 Y137.9831 
G01 X98.6131 Y138.0344 
G01 X98.5503 Y138.0706 
G01 X98.4803 Y138.0894 
G01 X97.0997 Y138.0894 
G01 X97.0297 Y138.0706 
G01 X96.9669 Y138.0344 
G00 Z2.5600 
G00 X99.5069 Y138.0344 
G01 Z-0.1778 F254.00 
G01 X99.4556 Y137.9831 F600.00 
G01 X99.4194 Y137.9203 
G01 X99.4006 Y137.8503 
G01 X99.4006 Y136.4697 
G01 X99.4194 Y136.3997 
G01 X99.4556 Y136.3369 
G01 X99.5069 Y136.2856 
G01 X99.5697 Y136.2494 
G01 X99.6397 Y136.2306 
G01 X101.0203 Y136.2306 
G01 X101.0903 Y136.2494 
G01 X101.1531 Y136.2856 
G01 X101.2044 Y136.3369 
G01 X101.2406 Y136.3997 
G01 X101.2594 Y136.4697 
G01 X101.2594 Y137.8503 
G01 X101.2406 Y137.9203 
G01 X101.2044 Y137.9831 
G01 X101.1531 Y138.0344 
G01 X101.0903 Y138.0706 
G01 X101.0203 Y138.0894 
G01 X99.6397 Y138.0894 
G01 X99.5697 Y138.0706 
G01 X99.5069 Y138.0344 
G00 Z2.5600 
G00 X102.0469 Y138.0344 
G01 Z-0.1778 F254.00 
G01 X101.9956 Y137.9831 F600.00 
G01 X101.9594 Y137.9203 
G01 X101.9406 Y137.8503 
G01 X101.9406 Y136.4697 
G01 X101.9594 Y136.3997 
G01 X101.9956 Y136.3369 
G01 X102.0469 Y136.2856 
G01 X102.1097 Y136.2494 
G01 X102.1797 Y136.2306 
G01 X103.5603 Y136.2306 
G01 X103.6303 Y136.2494 
G01 X103.6931 Y136.2856 
G01 X103.7444 Y136.3369 
G01 X103.7806 Y136.3997 
G01 X103.7994 Y136.4697 
G01 X103.7994 Y137.8503 
G01 X103.7806 Y137.9203 
G01 X103.7444 Y137.9831 
G01 X103.6931 Y138.0344 
G01 X103.6303 Y138.0706 
G01 X103.5603 Y138.0894 
G01 X102.1797 Y138.0894 
G01 X102.1097 Y138.0706 
G01 X102.0469 Y138.0344 
G00 Z2.5600 
G00 X104.5869 Y138.0344 
G01 Z-0.1778 F254.00 
G01 X104.5356 Y137.9831 F600.00 
G01 X104.4994 Y137.9203 
G01 X104.4806 Y137.8503 
G01 X104.4806 Y136.4697 
G01 X104.4994 Y136.3997 
G01 X104.5356 Y136.3369 
G01 X104.5869 Y136.2856 
G01 X104.6497 Y136.2494 
G01 X104.7197 Y136.2306 
G01 X106.1003 Y136.2306 
G01 X106.1703 Y136.2494 
G01 X106.2331 Y136.2856 
G01 X106.2844 Y136.3369 
G01 X106.3206 Y136.3997 
G01 X106.3394 Y136.4697 
G01 X106.3394 Y137.8503 
G01 X106.3206 Y137.9203 
G01 X106.2844 Y137.9831 
G01 X106.2331 Y138.0344 
G01 X106.1703 Y138.0706 
G01 X106.1003 Y138.0894 
G01 X104.7197 Y138.0894 
G01 X104.6497 Y138.0706 
G01 X104.5869 Y138.0344 
G00 Z2.5600 
G00 X88.5044 Y137.9831 
G01 Z-0.1778 F254.00 
G01 X88.4531 Y138.0344 F600.00 
G01 X88.3903 Y138.0706 
G01 X88.3203 Y138.0894 
G01 X86.9397 Y138.0894 
G01 X86.8697 Y138.0706 
G01 X86.8069 Y138.0344 
G01 X86.7556 Y137.9831 
G01 X86.7194 Y137.9203 
G01 X86.7006 Y137.8503 
G01 X86.7006 Y136.4697 
G01 X86.7194 Y136.3997 
G01 X86.7556 Y136.3369 
G01 X86.8069 Y136.2856 
G01 X86.8697 Y136.2494 
G01 X86.9397 Y136.2306 
G01 X88.3203 Y136.2306 
G01 X88.3903 Y136.2494 
G01 X88.4531 Y136.2856 
G01 X88.5044 Y136.3369 
G01 X88.5406 Y136.3997 
G01 X88.5594 Y136.4697 
G01 X88.5594 Y137.8503 
G01 X88.5406 Y137.9203 
G01 X88.5044 Y137.9831 
G00 Z2.5600 
G00 X85.9644 Y137.9831 
G01 Z-0.1778 F254.00 
G01 X85.9131 Y138.0344 F600.00 
G01 X85.8503 Y138.0706 
G01 X85.7803 Y138.0894 
G01 X84.3997 Y138.0894 
G01 X84.3297 Y138.0706 
G01 X84.2669 Y138.0344 
G01 X84.2156 Y137.9831 
G01 X84.1794 Y137.9203 
G01 X84.1606 Y137.8503 
G01 X84.1606 Y136.4697 
G01 X84.1794 Y136.3997 
G01 X84.2156 Y136.3369 
G01 X84.2669 Y136.2856 
G01 X84.3297 Y136.2494 
G01 X84.3997 Y136.2306 
G01 X85.7803 Y136.2306 
G01 X85.8503 Y136.2494 
G01 X85.9131 Y136.2856 
G01 X85.9644 Y136.3369 
G01 X86.0006 Y136.3997 
G01 X86.0194 Y136.4697 
G01 X86.0194 Y137.8503 
G01 X86.0006 Y137.9203 
G01 X85.9644 Y137.9831 
G00 Z2.5600 
G00 X83.4244 Y137.9831 
G01 Z-0.1778 F254.00 
G01 X83.3731 Y138.0344 F600.00 
G01 X83.3103 Y138.0706 
G01 X83.2403 Y138.0894 
G01 X81.8597 Y138.0894 
G01 X81.7897 Y138.0706 
G01 X81.7269 Y138.0344 
G01 X81.6756 Y137.9831 
G01 X81.6394 Y137.9203 
G01 X81.6206 Y137.8503 
G01 X81.6206 Y136.4697 
G01 X81.6394 Y136.3997 
G01 X81.6756 Y136.3369 
G01 X81.7269 Y136.2856 
G01 X81.7897 Y136.2494 
G01 X81.8597 Y136.2306 
G01 X83.2403 Y136.2306 
G01 X83.3103 Y136.2494 
G01 X83.3731 Y136.2856 
G01 X83.4244 Y136.3369 
G01 X83.4606 Y136.3997 
G01 X83.4794 Y136.4697 
G01 X83.4794 Y137.8503 
G01 X83.4606 Y137.9203 
G01 X83.4244 Y137.9831 
G00 Z2.5600 
G00 X80.8844 Y137.9831 
G01 Z-0.1778 F254.00 
G01 X80.8331 Y138.0344 F600.00 
G01 X80.7703 Y138.0706 
G01 X80.7003 Y138.0894 
G01 X79.3197 Y138.0894 
G01 X79.2497 Y138.0706 
G01 X79.1869 Y138.0344 
G01 X79.1356 Y137.9831 
G01 X79.0994 Y137.9203 
G01 X79.0806 Y137.8503 
G01 X79.0806 Y136.4697 
G01 X79.0994 Y136.3997 
G01 X79.1356 Y136.3369 
G01 X79.1869 Y136.2856 
G01 X79.2497 Y136.2494 
G01 X79.3197 Y136.2306 
G01 X80.7003 Y136.2306 
G01 X80.7703 Y136.2494 
G01 X80.8331 Y136.2856 
G01 X80.8844 Y136.3369 
G01 X80.9206 Y136.3997 
G01 X80.9394 Y136.4697 
G01 X80.9394 Y137.8503 
G01 X80.9206 Y137.9203 
G01 X80.8844 Y137.9831 
G00 Z2.5600 
G00 X78.3444 Y137.9831 
G01 Z-0.1778 F254.00 
G01 X78.2931 Y138.0344 F600.00 
G01 X78.2303 Y138.0706 
G01 X78.1603 Y138.0894 
G01 X76.7797 Y138.0894 
G01 X76.7097 Y138.0706 
G01 X76.6469 Y138.0344 
G01 X76.5956 Y137.9831 
G01 X76.5594 Y137.9203 
G01 X76.5406 Y137.8503 
G01 X76.5406 Y136.4697 
G01 X76.5594 Y136.3997 
G01 X76.5956 Y136.3369 
G01 X76.6469 Y136.2856 
G01 X76.7097 Y136.2494 
G01 X76.7797 Y136.2306 
G01 X78.1603 Y136.2306 
G01 X78.2303 Y136.2494 
G01 X78.2931 Y136.2856 
G01 X78.3444 Y136.3369 
G01 X78.3806 Y136.3997 
G01 X78.3994 Y136.4697 
G01 X78.3994 Y137.8503 
G01 X78.3806 Y137.9203 
G01 X78.3444 Y137.9831 
G00 Z2.5600 
G00 X89.3469 Y115.1744 
G01 Z-0.1778 F254.00 
G01 X89.2956 Y115.1231 F600.00 
G01 X89.2594 Y115.0603 
G01 X89.2406 Y114.9903 
G01 X89.2406 Y113.6097 
G01 X89.2594 Y113.5397 
G01 X89.2956 Y113.4769 
G01 X89.3469 Y113.4256 
G01 X89.4097 Y113.3894 
G01 X89.4797 Y113.3706 
G01 X90.8603 Y113.3706 
G01 X90.9303 Y113.3894 
G01 X90.9931 Y113.4256 
G01 X91.0444 Y113.4769 
G01 X91.0806 Y113.5397 
G01 X91.0994 Y113.6097 
G01 X91.0994 Y114.9903 
G01 X91.0806 Y115.0603 
G01 X91.0444 Y115.1231 
G01 X90.9931 Y115.1744 
G01 X90.9303 Y115.2106 
G01 X90.8603 Y115.2294 
G01 X89.4797 Y115.2294 
G01 X89.4097 Y115.2106 
G01 X89.3469 Y115.1744 
G00 Z2.5600 
G00 X89.3469 Y112.6344 
G01 Z-0.1778 F254.00 
G01 X89.2956 Y112.5831 F600.00 
G01 X89.2594 Y112.5203 
G01 X89.2406 Y112.4503 
G01 X89.2406 Y111.0697 
G01 X89.2594 Y110.9997 
G01 X89.2956 Y110.9369 
G01 X89.3469 Y110.8856 
G01 X89.4097 Y110.8494 
G01 X89.4797 Y110.8306 
G01 X90.8603 Y110.8306 
G01 X90.9303 Y110.8494 
G01 X90.9931 Y110.8856 
G01 X91.0444 Y110.9369 
G01 X91.0806 Y110.9997 
G01 X91.0994 Y111.0697 
G01 X91.0994 Y112.4503 
G01 X91.0806 Y112.5203 
G01 X91.0444 Y112.5831 
G01 X90.9931 Y112.6344 
G01 X90.9303 Y112.6706 
G01 X90.8603 Y112.6894 
G01 X89.4797 Y112.6894 
G01 X89.4097 Y112.6706 
G01 X89.3469 Y112.6344 
G00 Z2.5600 
G00 X96.9669 Y112.6344 
G01 Z-0.1778 F254.00 
G01 X96.9156 Y112.5831 F600.00 
G01 X96.8794 Y112.5203 
G01 X96.8606 Y112.4503 
G01 X96.8606 Y111.0697 
G01 X96.8794 Y110.9997 
G01 X96.9156 Y110.9369 
G01 X96.9669 Y110.8856 
G01 X97.0297 Y110.8494 
G01 X97.0997 Y110.8306 
G01 X98.4803 Y110.8306 
G01 X98.5503 Y110.8494 
G01 X98.6131 Y110.8856 
G01 X98.6644 Y110.9369 
G01 X98.7006 Y110.9997 
G01 X98.7194 Y111.0697 
G01 X98.7194 Y112.4503 
G01 X98.7006 Y112.5203 
G01 X98.6644 Y112.5831 
G01 X98.6131 Y112.6344 
G01 X98.5503 Y112.6706 
G01 X98.4803 Y112.6894 
G01 X97.0997 Y112.6894 
G01 X97.0297 Y112.6706 
G01 X96.9669 Y112.6344 
G00 Z2.5600 
G00 X96.9669 Y113.4256 
G01 Z-0.1778 F254.00 
G01 X97.0297 Y113.3894 F600.00 
G01 X97.0997 Y113.3706 
G01 X98.4803 Y113.3706 
G01 X98.5503 Y113.3894 
G01 X98.6131 Y113.4256 
G01 X98.6644 Y113.4769 
G01 X98.7006 Y113.5397 
G01 X98.7194 Y113.6097 
G01 X98.7194 Y114.9903 
G01 X98.7006 Y115.0603 
G01 X98.6644 Y115.1231 
G01 X98.6131 Y115.1744 
G01 X98.5503 Y115.2106 
G01 X98.4803 Y115.2294 
G01 X97.0997 Y115.2294 
G01 X97.0297 Y115.2106 
G01 X96.9669 Y115.1744 
G01 X96.9156 Y115.1231 
G01 X96.8794 Y115.0603 
G01 X96.8606 Y114.9903 
G01 X96.8606 Y113.6097 
G01 X96.8794 Y113.5397 
G01 X96.9156 Y113.4769 
G01 X96.9669 Y113.4256 
G00 Z2.5600 
G00 X96.9669 Y88.5044 
G01 Z-0.1778 F254.00 
G01 X96.9156 Y88.4531 F600.00 
G01 X96.8794 Y88.3903 
G01 X96.8606 Y88.3203 
G01 X96.8606 Y86.9397 
G01 X96.8794 Y86.8697 
G01 X96.9156 Y86.8069 
G01 X96.9669 Y86.7556 
G01 X97.0297 Y86.7194 
G01 X97.0997 Y86.7006 
G01 X98.4803 Y86.7006 
G01 X98.5503 Y86.7194 
G01 X98.6131 Y86.7556 
G01 X98.6644 Y86.8069 
G01 X98.7006 Y86.8697 
G01 X98.7194 Y86.9397 
G01 X98.7194 Y88.3203 
G01 X98.7006 Y88.3903 
G01 X98.6644 Y88.4531 
G01 X98.6131 Y88.5044 
G01 X98.5503 Y88.5406 
G01 X98.4803 Y88.5594 
G01 X97.0997 Y88.5594 
G01 X97.0297 Y88.5406 
G01 X96.9669 Y88.5044 
G00 Z2.5600 
G00 X96.1244 Y88.4531 
G01 Z-0.1778 F254.00 
G01 X96.0731 Y88.5044 F600.00 
G01 X96.0103 Y88.5406 
G01 X95.9403 Y88.5594 
G01 X94.5597 Y88.5594 
G01 X94.4897 Y88.5406 
G01 X94.4269 Y88.5044 
G01 X94.3756 Y88.4531 
G01 X94.3394 Y88.3903 
G01 X94.3206 Y88.3203 
G01 X94.3206 Y86.9397 
G01 X94.3394 Y86.8697 
G01 X94.3756 Y86.8069 
G01 X94.4269 Y86.7556 
G01 X94.4897 Y86.7194 
G01 X94.5597 Y86.7006 
G01 X95.9403 Y86.7006 
G01 X96.0103 Y86.7194 
G01 X96.0731 Y86.7556 
G01 X96.1244 Y86.8069 
G01 X96.1606 Y86.8697 
G01 X96.1794 Y86.9397 
G01 X96.1794 Y88.3203 
G01 X96.1606 Y88.3903 
G01 X96.1244 Y88.4531 
G00 Z2.5600 
G00 X93.5844 Y88.4531 
G01 Z-0.1778 F254.00 
G01 X93.5331 Y88.5044 F600.00 
G01 X93.4703 Y88.5406 
G01 X93.4003 Y88.5594 
G01 X92.0197 Y88.5594 
G01 X91.9497 Y88.5406 
G01 X91.8869 Y88.5044 
G01 X91.8356 Y88.4531 
G01 X91.7994 Y88.3903 
G01 X91.7806 Y88.3203 
G01 X91.7806 Y86.9397 
G01 X91.7994 Y86.8697 
G01 X91.8356 Y86.8069 
G01 X91.8869 Y86.7556 
G01 X91.9497 Y86.7194 
G01 X92.0197 Y86.7006 
G01 X93.4003 Y86.7006 
G01 X93.4703 Y86.7194 
G01 X93.5331 Y86.7556 
G01 X93.5844 Y86.8069 
G01 X93.6206 Y86.8697 
G01 X93.6394 Y86.9397 
G01 X93.6394 Y88.3203 
G01 X93.6206 Y88.3903 
G01 X93.5844 Y88.4531 
G00 Z2.5600 
G00 X91.0444 Y88.4531 
G01 Z-0.1778 F254.00 
G01 X90.9931 Y88.5044 F600.00 
G01 X90.9303 Y88.5406 
G01 X90.8603 Y88.5594 
G01 X89.4797 Y88.5594 
G01 X89.4097 Y88.5406 
G01 X89.3469 Y88.5044 
G01 X89.2956 Y88.4531 
G01 X89.2594 Y88.3903 
G01 X89.2406 Y88.3203 
G01 X89.2406 Y86.9397 
G01 X89.2594 Y86.8697 
G01 X89.2956 Y86.8069 
G01 X89.3469 Y86.7556 
G01 X89.4097 Y86.7194 
G01 X89.4797 Y86.7006 
G01 X90.8603 Y86.7006 
G01 X90.9303 Y86.7194 
G01 X90.9931 Y86.7556 
G01 X91.0444 Y86.8069 
G01 X91.0806 Y86.8697 
G01 X91.0994 Y86.9397 
G01 X91.0994 Y88.3203 
G01 X91.0806 Y88.3903 
G01 X91.0444 Y88.4531 
G00 Z2.5600 
G00 X88.5044 Y88.4531 
G01 Z-0.1778 F254.00 
G01 X88.4531 Y88.5044 F600.00 
G01 X88.3903 Y88.5406 
G01 X88.3203 Y88.5594 
G01 X86.9397 Y88.5594 
G01 X86.8697 Y88.5406 
G01 X86.8069 Y88.5044 
G01 X86.7556 Y88.4531 
G01 X86.7194 Y88.3903 
G01 X86.7006 Y88.3203 
G01 X86.7006 Y86.9397 
G01 X86.7194 Y86.8697 
G01 X86.7556 Y86.8069 
G01 X86.8069 Y86.7556 
G01 X86.8697 Y86.7194 
G01 X86.9397 Y86.7006 
G01 X88.3203 Y86.7006 
G01 X88.3903 Y86.7194 
G01 X88.4531 Y86.7556 
G01 X88.5044 Y86.8069 
G01 X88.5406 Y86.8697 
G01 X88.5594 Y86.9397 
G01 X88.5594 Y88.3203 
G01 X88.5406 Y88.3903 
G01 X88.5044 Y88.4531 
G00 Z2.5600 
G00 X85.9644 Y88.4531 
G01 Z-0.1778 F254.00 
G01 X85.9131 Y88.5044 F600.00 
G01 X85.8503 Y88.5406 
G01 X85.7803 Y88.5594 
G01 X84.3997 Y88.5594 
G01 X84.3297 Y88.5406 
G01 X84.2669 Y88.5044 
G01 X84.2156 Y88.4531 
G01 X84.1794 Y88.3903 
G01 X84.1606 Y88.3203 
G01 X84.1606 Y86.9397 
G01 X84.1794 Y86.8697 
G01 X84.2156 Y86.8069 
G01 X84.2669 Y86.7556 
G01 X84.3297 Y86.7194 
G01 X84.3997 Y86.7006 
G01 X85.7803 Y86.7006 
G01 X85.8503 Y86.7194 
G01 X85.9131 Y86.7556 
G01 X85.9644 Y86.8069 
G01 X86.0006 Y86.8697 
G01 X86.0194 Y86.9397 
G01 X86.0194 Y88.3203 
G01 X86.0006 Y88.3903 
G01 X85.9644 Y88.4531 
G00 Z2.5600 
G00 X83.4244 Y88.4531 
G01 Z-0.1778 F254.00 
G01 X83.3731 Y88.5044 F600.00 
G01 X83.3103 Y88.5406 
G01 X83.2403 Y88.5594 
G01 X81.8597 Y88.5594 
G01 X81.7897 Y88.5406 
G01 X81.7269 Y88.5044 
G01 X81.6756 Y88.4531 
G01 X81.6394 Y88.3903 
G01 X81.6206 Y88.3203 
G01 X81.6206 Y86.9397 
G01 X81.6394 Y86.8697 
G01 X81.6756 Y86.8069 
G01 X81.7269 Y86.7556 
G01 X81.7897 Y86.7194 
G01 X81.8597 Y86.7006 
G01 X83.2403 Y86.7006 
G01 X83.3103 Y86.7194 
G01 X83.3731 Y86.7556 
G01 X83.4244 Y86.8069 
G01 X83.4606 Y86.8697 
G01 X83.4794 Y86.9397 
G01 X83.4794 Y88.3203 
G01 X83.4606 Y88.3903 
G01 X83.4244 Y88.4531 
G00 Z2.5600 
G00 X80.8844 Y88.4531 
G01 Z-0.1778 F254.00 
G01 X80.8331 Y88.5044 F600.00 
G01 X80.7703 Y88.5406 
G01 X80.7003 Y88.5594 
G01 X79.3197 Y88.5594 
G01 X79.2497 Y88.5406 
G01 X79.1869 Y88.5044 
G01 X79.1356 Y88.4531 
G01 X79.0994 Y88.3903 
G01 X79.0806 Y88.3203 
G01 X79.0806 Y86.9397 
G01 X79.0994 Y86.8697 
G01 X79.1356 Y86.8069 
G01 X79.1869 Y86.7556 
G01 X79.2497 Y86.7194 
G01 X79.3197 Y86.7006 
G01 X80.7003 Y86.7006 
G01 X80.7703 Y86.7194 
G01 X80.8331 Y86.7556 
G01 X80.8844 Y86.8069 
G01 X80.9206 Y86.8697 
G01 X80.9394 Y86.9397 
G01 X80.9394 Y88.3203 
G01 X80.9206 Y88.3903 
G01 X80.8844 Y88.4531 
G00 Z2.5600 
G00 X78.3444 Y88.4531 
G01 Z-0.1778 F254.00 
G01 X78.2931 Y88.5044 F600.00 
G01 X78.2303 Y88.5406 
G01 X78.1603 Y88.5594 
G01 X76.7797 Y88.5594 
G01 X76.7097 Y88.5406 
G01 X76.6469 Y88.5044 
G01 X76.5956 Y88.4531 
G01 X76.5594 Y88.3903 
G01 X76.5406 Y88.3203 
G01 X76.5406 Y86.9397 
G01 X76.5594 Y86.8697 
G01 X76.5956 Y86.8069 
G01 X76.6469 Y86.7556 
G01 X76.7097 Y86.7194 
G01 X76.7797 Y86.7006 
G01 X78.1603 Y86.7006 
G01 X78.2303 Y86.7194 
G01 X78.2931 Y86.7556 
G01 X78.3444 Y86.8069 
G01 X78.3806 Y86.8697 
G01 X78.3994 Y86.9397 
G01 X78.3994 Y88.3203 
G01 X78.3806 Y88.3903 
G01 X78.3444 Y88.4531 
G00 Z2.5600 
G00 X99.4556 Y88.4531 
G01 Z-0.1778 F254.00 
G01 X99.4194 Y88.3903 F600.00 
G01 X99.4006 Y88.3203 
G01 X99.4006 Y86.9397 
G01 X99.4194 Y86.8697 
G01 X99.4556 Y86.8069 
G01 X99.5069 Y86.7556 
G01 X99.5697 Y86.7194 
G01 X99.6397 Y86.7006 
G01 X101.0203 Y86.7006 
G01 X101.0903 Y86.7194 
G01 X101.1531 Y86.7556 
G01 X101.2044 Y86.8069 
G01 X101.2406 Y86.8697 
G01 X101.2594 Y86.9397 
G01 X101.2594 Y88.3203 
G01 X101.2406 Y88.3903 
G01 X101.2044 Y88.4531 
G01 X101.1531 Y88.5044 
G01 X101.0903 Y88.5406 
G01 X101.0203 Y88.5594 
G01 X99.6397 Y88.5594 
G01 X99.5697 Y88.5406 
G01 X99.5069 Y88.5044 
G01 X99.4556 Y88.4531 
G00 Z2.5600 
G00 X101.9956 Y88.4531 
G01 Z-0.1778 F254.00 
G01 X101.9594 Y88.3903 F600.00 
G01 X101.9406 Y88.3203 
G01 X101.9406 Y86.9397 
G01 X101.9594 Y86.8697 
G01 X101.9956 Y86.8069 
G01 X102.0469 Y86.7556 
G01 X102.1097 Y86.7194 
G01 X102.1797 Y86.7006 
G01 X103.5603 Y86.7006 
G01 X103.6303 Y86.7194 
G01 X103.6931 Y86.7556 
G01 X103.7444 Y86.8069 
G01 X103.7806 Y86.8697 
G01 X103.7994 Y86.9397 
G01 X103.7994 Y88.3203 
G01 X103.7806 Y88.3903 
G01 X103.7444 Y88.4531 
G01 X103.6931 Y88.5044 
G01 X103.6303 Y88.5406 
G01 X103.5603 Y88.5594 
G01 X102.1797 Y88.5594 
G01 X102.1097 Y88.5406 
G01 X102.0469 Y88.5044 
G01 X101.9956 Y88.4531 
G00 Z2.5600 
G00 X104.5356 Y88.4531 
G01 Z-0.1778 F254.00 
G01 X104.4994 Y88.3903 F600.00 
G01 X104.4806 Y88.3203 
G01 X104.4806 Y86.9397 
G01 X104.4994 Y86.8697 
G01 X104.5356 Y86.8069 
G01 X104.5869 Y86.7556 
G01 X104.6497 Y86.7194 
G01 X104.7197 Y86.7006 
G01 X106.1003 Y86.7006 
G01 X106.1703 Y86.7194 
G01 X106.2331 Y86.7556 
G01 X106.2844 Y86.8069 
G01 X106.3206 Y86.8697 
G01 X106.3394 Y86.9397 
G01 X106.3394 Y88.3203 
G01 X106.3206 Y88.3903 
G01 X106.2844 Y88.4531 
G01 X106.2331 Y88.5044 
G01 X106.1703 Y88.5406 
G01 X106.1003 Y88.5594 
G01 X104.7197 Y88.5594 
G01 X104.6497 Y88.5406 
G01 X104.5869 Y88.5044 
G01 X104.5356 Y88.4531 
G00 Z2.5600 
G00 X98.6644 Y65.5931 
G01 Z-0.1778 F254.00 
G01 X98.6131 Y65.6444 F600.00 
G01 X98.5503 Y65.6806 
G01 X98.4803 Y65.6994 
G01 X97.0997 Y65.6994 
G01 X97.0297 Y65.6806 
G01 X96.9669 Y65.6444 
G01 X96.9156 Y65.5931 
G01 X96.8794 Y65.5303 
G01 X96.8606 Y65.4603 
G01 X96.8606 Y64.0797 
G01 X96.8794 Y64.0097 
G01 X96.9156 Y63.9469 
G01 X96.9669 Y63.8956 
G01 X97.0297 Y63.8594 
G01 X97.0997 Y63.8406 
G01 X98.4803 Y63.8406 
G01 X98.5503 Y63.8594 
G01 X98.6131 Y63.8956 
G01 X98.6644 Y63.9469 
G01 X98.7006 Y64.0097 
G01 X98.7194 Y64.0797 
G01 X98.7194 Y65.4603 
G01 X98.7006 Y65.5303 
G01 X98.6644 Y65.5931 
G00 Z2.5600 
G00 X98.6644 Y63.0531 
G01 Z-0.1778 F254.00 
G01 X98.6131 Y63.1044 F600.00 
G01 X98.5503 Y63.1406 
G01 X98.4803 Y63.1594 
G01 X97.0997 Y63.1594 
G01 X97.0297 Y63.1406 
G01 X96.9669 Y63.1044 
G01 X96.9156 Y63.0531 
G01 X96.8794 Y62.9903 
G01 X96.8606 Y62.9203 
G01 X96.8606 Y61.5397 
G01 X96.8794 Y61.4697 
G01 X96.9156 Y61.4069 
G01 X96.9669 Y61.3556 
G01 X97.0297 Y61.3194 
G01 X97.0997 Y61.3006 
G01 X98.4803 Y61.3006 
G01 X98.5503 Y61.3194 
G01 X98.6131 Y61.3556 
G01 X98.6644 Y61.4069 
G01 X98.7006 Y61.4697 
G01 X98.7194 Y61.5397 
G01 X98.7194 Y62.9203 
G01 X98.7006 Y62.9903 
G01 X98.6644 Y63.0531 
G00 Z2.5600 
G00 X91.0444 Y63.0531 
G01 Z-0.1778 F254.00 
G01 X90.9931 Y63.1044 F600.00 
G01 X90.9303 Y63.1406 
G01 X90.8603 Y63.1594 
G01 X89.4797 Y63.1594 
G01 X89.4097 Y63.1406 
G01 X89.3469 Y63.1044 
G01 X89.2956 Y63.0531 
G01 X89.2594 Y62.9903 
G01 X89.2406 Y62.9203 
G01 X89.2406 Y61.5397 
G01 X89.2594 Y61.4697 
G01 X89.2956 Y61.4069 
G01 X89.3469 Y61.3556 
G01 X89.4097 Y61.3194 
G01 X89.4797 Y61.3006 
G01 X90.8603 Y61.3006 
G01 X90.9303 Y61.3194 
G01 X90.9931 Y61.3556 
G01 X91.0444 Y61.4069 
G01 X91.0806 Y61.4697 
G01 X91.0994 Y61.5397 
G01 X91.0994 Y62.9203 
G01 X91.0806 Y62.9903 
G01 X91.0444 Y63.0531 
G00 Z2.5600 
G00 X90.9931 Y63.8956 
G01 Z-0.1778 F254.00 
G01 X91.0444 Y63.9469 F600.00 
G01 X91.0806 Y64.0097 
G01 X91.0994 Y64.0797 
G01 X91.0994 Y65.4603 
G01 X91.0806 Y65.5303 
G01 X91.0444 Y65.5931 
G01 X90.9931 Y65.6444 
G01 X90.9303 Y65.6806 
G01 X90.8603 Y65.6994 
G01 X89.4797 Y65.6994 
G01 X89.4097 Y65.6806 
G01 X89.3469 Y65.6444 
G01 X89.2956 Y65.5931 
G01 X89.2594 Y65.5303 
G01 X89.2406 Y65.4603 
G01 X89.2406 Y64.0797 
G01 X89.2594 Y64.0097 
G01 X89.2956 Y63.9469 
G01 X89.3469 Y63.8956 
G01 X89.4097 Y63.8594 
G01 X89.4797 Y63.8406 
G01 X90.8603 Y63.8406 
G01 X90.9303 Y63.8594 
G01 X90.9931 Y63.8956 
G00 Z2.5600 
G00 X90.9931 Y38.9744 
G01 Z-0.1778 F254.00 
G01 X90.9303 Y39.0106 F600.00 
G01 X90.8603 Y39.0294 
G01 X89.4797 Y39.0294 
G01 X89.4097 Y39.0106 
G01 X89.3469 Y38.9744 
G01 X89.2956 Y38.9231 
G01 X89.2594 Y38.8603 
G01 X89.2406 Y38.7903 
G01 X89.2406 Y37.4097 
G01 X89.2594 Y37.3397 
G01 X89.2956 Y37.2769 
G01 X89.3469 Y37.2256 
G01 X89.4097 Y37.1894 
G01 X89.4797 Y37.1706 
G01 X90.8603 Y37.1706 
G01 X90.9303 Y37.1894 
G01 X90.9931 Y37.2256 
G01 X91.0444 Y37.2769 
G01 X91.0806 Y37.3397 
G01 X91.0994 Y37.4097 
G01 X91.0994 Y38.7903 
G01 X91.0806 Y38.8603 
G01 X91.0444 Y38.9231 
G01 X90.9931 Y38.9744 
G00 Z2.5600 
G00 X91.8869 Y38.9744 
G01 Z-0.1778 F254.00 
G01 X91.8356 Y38.9231 F600.00 
G01 X91.7994 Y38.8603 
G01 X91.7806 Y38.7903 
G01 X91.7806 Y37.4097 
G01 X91.7994 Y37.3397 
G01 X91.8356 Y37.2769 
G01 X91.8869 Y37.2256 
G01 X91.9497 Y37.1894 
G01 X92.0197 Y37.1706 
G01 X93.4003 Y37.1706 
G01 X93.4703 Y37.1894 
G01 X93.5331 Y37.2256 
G01 X93.5844 Y37.2769 
G01 X93.6206 Y37.3397 
G01 X93.6394 Y37.4097 
G01 X93.6394 Y38.7903 
G01 X93.6206 Y38.8603 
G01 X93.5844 Y38.9231 
G01 X93.5331 Y38.9744 
G01 X93.4703 Y39.0106 
G01 X93.4003 Y39.0294 
G01 X92.0197 Y39.0294 
G01 X91.9497 Y39.0106 
G01 X91.8869 Y38.9744 
G00 Z2.5600 
G00 X94.4269 Y38.9744 
G01 Z-0.1778 F254.00 
G01 X94.3756 Y38.9231 F600.00 
G01 X94.3394 Y38.8603 
G01 X94.3206 Y38.7903 
G01 X94.3206 Y37.4097 
G01 X94.3394 Y37.3397 
G01 X94.3756 Y37.2769 
G01 X94.4269 Y37.2256 
G01 X94.4897 Y37.1894 
G01 X94.5597 Y37.1706 
G01 X95.9403 Y37.1706 
G01 X96.0103 Y37.1894 
G01 X96.0731 Y37.2256 
G01 X96.1244 Y37.2769 
G01 X96.1606 Y37.3397 
G01 X96.1794 Y37.4097 
G01 X96.1794 Y38.7903 
G01 X96.1606 Y38.8603 
G01 X96.1244 Y38.9231 
G01 X96.0731 Y38.9744 
G01 X96.0103 Y39.0106 
G01 X95.9403 Y39.0294 
G01 X94.5597 Y39.0294 
G01 X94.4897 Y39.0106 
G01 X94.4269 Y38.9744 
G00 Z2.5600 
G00 X96.9669 Y38.9744 
G01 Z-0.1778 F254.00 
G01 X96.9156 Y38.9231 F600.00 
G01 X96.8794 Y38.8603 
G01 X96.8606 Y38.7903 
G01 X96.8606 Y37.4097 
G01 X96.8794 Y37.3397 
G01 X96.9156 Y37.2769 
G01 X96.9669 Y37.2256 
G01 X97.0297 Y37.1894 
G01 X97.0997 Y37.1706 
G01 X98.4803 Y37.1706 
G01 X98.5503 Y37.1894 
G01 X98.6131 Y37.2256 
G01 X98.6644 Y37.2769 
G01 X98.7006 Y37.3397 
G01 X98.7194 Y37.4097 
G01 X98.7194 Y38.7903 
G01 X98.7006 Y38.8603 
G01 X98.6644 Y38.9231 
G01 X98.6131 Y38.9744 
G01 X98.5503 Y39.0106 
G01 X98.4803 Y39.0294 
G01 X97.0997 Y39.0294 
G01 X97.0297 Y39.0106 
G01 X96.9669 Y38.9744 
G00 Z2.5600 
G00 X99.5069 Y38.9744 
G01 Z-0.1778 F254.00 
G01 X99.4556 Y38.9231 F600.00 
G01 X99.4194 Y38.8603 
G01 X99.4006 Y38.7903 
G01 X99.4006 Y37.4097 
G01 X99.4194 Y37.3397 
G01 X99.4556 Y37.2769 
G01 X99.5069 Y37.2256 
G01 X99.5697 Y37.1894 
G01 X99.6397 Y37.1706 
G01 X101.0203 Y37.1706 
G01 X101.0903 Y37.1894 
G01 X101.1531 Y37.2256 
G01 X101.2044 Y37.2769 
G01 X101.2406 Y37.3397 
G01 X101.2594 Y37.4097 
G01 X101.2594 Y38.7903 
G01 X101.2406 Y38.8603 
G01 X101.2044 Y38.9231 
G01 X101.1531 Y38.9744 
G01 X101.0903 Y39.0106 
G01 X101.0203 Y39.0294 
G01 X99.6397 Y39.0294 
G01 X99.5697 Y39.0106 
G01 X99.5069 Y38.9744 
G00 Z2.5600 
G00 X102.0469 Y38.9744 
G01 Z-0.1778 F254.00 
G01 X101.9956 Y38.9231 F600.00 
G01 X101.9594 Y38.8603 
G01 X101.9406 Y38.7903 
G01 X101.9406 Y37.4097 
G01 X101.9594 Y37.3397 
G01 X101.9956 Y37.2769 
G01 X102.0469 Y37.2256 
G01 X102.1097 Y37.1894 
G01 X102.1797 Y37.1706 
G01 X103.5603 Y37.1706 
G01 X103.6303 Y37.1894 
G01 X103.6931 Y37.2256 
G01 X103.7444 Y37.2769 
G01 X103.7806 Y37.3397 
G01 X103.7994 Y37.4097 
G01 X103.7994 Y38.7903 
G01 X103.7806 Y38.8603 
G01 X103.7444 Y38.9231 
G01 X103.6931 Y38.9744 
G01 X103.6303 Y39.0106 
G01 X103.5603 Y39.0294 
G01 X102.1797 Y39.0294 
G01 X102.1097 Y39.0106 
G01 X102.0469 Y38.9744 
G00 Z2.5600 
G00 X104.5869 Y38.9744 
G01 Z-0.1778 F254.00 
G01 X104.5356 Y38.9231 F600.00 
G01 X104.4994 Y38.8603 
G01 X104.4806 Y38.7903 
G01 X104.4806 Y37.4097 
G01 X104.4994 Y37.3397 
G01 X104.5356 Y37.2769 
G01 X104.5869 Y37.2256 
G01 X104.6497 Y37.1894 
G01 X104.7197 Y37.1706 
G01 X106.1003 Y37.1706 
G01 X106.1703 Y37.1894 
G01 X106.2331 Y37.2256 
G01 X106.2844 Y37.2769 
G01 X106.3206 Y37.3397 
G01 X106.3394 Y37.4097 
G01 X106.3394 Y38.7903 
G01 X106.3206 Y38.8603 
G01 X106.2844 Y38.9231 
G01 X106.2331 Y38.9744 
G01 X106.1703 Y39.0106 
G01 X106.1003 Y39.0294 
G01 X104.7197 Y39.0294 
G01 X104.6497 Y39.0106 
G01 X104.5869 Y38.9744 
G00 Z2.5600 
G00 X88.5044 Y38.9231 
G01 Z-0.1778 F254.00 
G01 X88.4531 Y38.9744 F600.00 
G01 X88.3903 Y39.0106 
G01 X88.3203 Y39.0294 
G01 X86.9397 Y39.0294 
G01 X86.8697 Y39.0106 
G01 X86.8069 Y38.9744 
G01 X86.7556 Y38.9231 
G01 X86.7194 Y38.8603 
G01 X86.7006 Y38.7903 
G01 X86.7006 Y37.4097 
G01 X86.7194 Y37.3397 
G01 X86.7556 Y37.2769 
G01 X86.8069 Y37.2256 
G01 X86.8697 Y37.1894 
G01 X86.9397 Y37.1706 
G01 X88.3203 Y37.1706 
G01 X88.3903 Y37.1894 
G01 X88.4531 Y37.2256 
G01 X88.5044 Y37.2769 
G01 X88.5406 Y37.3397 
G01 X88.5594 Y37.4097 
G01 X88.5594 Y38.7903 
G01 X88.5406 Y38.8603 
G01 X88.5044 Y38.9231 
G00 Z2.5600 
G00 X85.9644 Y38.9231 
G01 Z-0.1778 F254.00 
G01 X85.9131 Y38.9744 F600.00 
G01 X85.8503 Y39.0106 
G01 X85.7803 Y39.0294 
G01 X84.3997 Y39.0294 
G01 X84.3297 Y39.0106 
G01 X84.2669 Y38.9744 
G01 X84.2156 Y38.9231 
G01 X84.1794 Y38.8603 
G01 X84.1606 Y38.7903 
G01 X84.1606 Y37.4097 
G01 X84.1794 Y37.3397 
G01 X84.2156 Y37.2769 
G01 X84.2669 Y37.2256 
G01 X84.3297 Y37.1894 
G01 X84.3997 Y37.1706 
G01 X85.7803 Y37.1706 
G01 X85.8503 Y37.1894 
G01 X85.9131 Y37.2256 
G01 X85.9644 Y37.2769 
G01 X86.0006 Y37.3397 
G01 X86.0194 Y37.4097 
G01 X86.0194 Y38.7903 
G01 X86.0006 Y38.8603 
G01 X85.9644 Y38.9231 
G00 Z2.5600 
G00 X83.4244 Y38.9231 
G01 Z-0.1778 F254.00 
G01 X83.3731 Y38.9744 F600.00 
G01 X83.3103 Y39.0106 
G01 X83.2403 Y39.0294 
G01 X81.8597 Y39.0294 
G01 X81.7897 Y39.0106 
G01 X81.7269 Y38.9744 
G01 X81.6756 Y38.9231 
G01 X81.6394 Y38.8603 
G01 X81.6206 Y38.7903 
G01 X81.6206 Y37.4097 
G01 X81.6394 Y37.3397 
G01 X81.6756 Y37.2769 
G01 X81.7269 Y37.2256 
G01 X81.7897 Y37.1894 
G01 X81.8597 Y37.1706 
G01 X83.2403 Y37.1706 
G01 X83.3103 Y37.1894 
G01 X83.3731 Y37.2256 
G01 X83.4244 Y37.2769 
G01 X83.4606 Y37.3397 
G01 X83.4794 Y37.4097 
G01 X83.4794 Y38.7903 
G01 X83.4606 Y38.8603 
G01 X83.4244 Y38.9231 
G00 Z2.5600 
G00 X80.8844 Y38.9231 
G01 Z-0.1778 F254.00 
G01 X80.8331 Y38.9744 F600.00 
G01 X80.7703 Y39.0106 
G01 X80.7003 Y39.0294 
G01 X79.3197 Y39.0294 
G01 X79.2497 Y39.0106 
G01 X79.1869 Y38.9744 
G01 X79.1356 Y38.9231 
G01 X79.0994 Y38.8603 
G01 X79.0806 Y38.7903 
G01 X79.0806 Y37.4097 
G01 X79.0994 Y37.3397 
G01 X79.1356 Y37.2769 
G01 X79.1869 Y37.2256 
G01 X79.2497 Y37.1894 
G01 X79.3197 Y37.1706 
G01 X80.7003 Y37.1706 
G01 X80.7703 Y37.1894 
G01 X80.8331 Y37.2256 
G01 X80.8844 Y37.2769 
G01 X80.9206 Y37.3397 
G01 X80.9394 Y37.4097 
G01 X80.9394 Y38.7903 
G01 X80.9206 Y38.8603 
G01 X80.8844 Y38.9231 
G00 Z2.5600 
G00 X78.3444 Y38.9231 
G01 Z-0.1778 F254.00 
G01 X78.2931 Y38.9744 F600.00 
G01 X78.2303 Y39.0106 
G01 X78.1603 Y39.0294 
G01 X76.7797 Y39.0294 
G01 X76.7097 Y39.0106 
G01 X76.6469 Y38.9744 
G01 X76.5956 Y38.9231 
G01 X76.5594 Y38.8603 
G01 X76.5406 Y38.7903 
G01 X76.5406 Y37.4097 
G01 X76.5594 Y37.3397 
G01 X76.5956 Y37.2769 
G01 X76.6469 Y37.2256 
G01 X76.7097 Y37.1894 
G01 X76.7797 Y37.1706 
G01 X78.1603 Y37.1706 
G01 X78.2303 Y37.1894 
G01 X78.2931 Y37.2256 
G01 X78.3444 Y37.2769 
G01 X78.3806 Y37.3397 
G01 X78.3994 Y37.4097 
G01 X78.3994 Y38.7903 
G01 X78.3806 Y38.8603 
G01 X78.3444 Y38.9231 
G00 Z2.5600 
G00 X89.3469 Y16.1144 
G01 Z-0.1778 F254.00 
G01 X89.2956 Y16.0631 F600.00 
G01 X89.2594 Y16.0003 
G01 X89.2406 Y15.9303 
G01 X89.2406 Y14.5497 
G01 X89.2594 Y14.4797 
G01 X89.2956 Y14.4169 
G01 X89.3469 Y14.3656 
G01 X89.4097 Y14.3294 
G01 X89.4797 Y14.3106 
G01 X90.8603 Y14.3106 
G01 X90.9303 Y14.3294 
G01 X90.9931 Y14.3656 
G01 X91.0444 Y14.4169 
G01 X91.0806 Y14.4797 
G01 X91.0994 Y14.5497 
G01 X91.0994 Y15.9303 
G01 X91.0806 Y16.0003 
G01 X91.0444 Y16.0631 
G01 X90.9931 Y16.1144 
G01 X90.9303 Y16.1506 
G01 X90.8603 Y16.1694 
G01 X89.4797 Y16.1694 
G01 X89.4097 Y16.1506 
G01 X89.3469 Y16.1144 
G00 Z2.5600 
G00 X89.3469 Y13.5744 
G01 Z-0.1778 F254.00 
G01 X89.2956 Y13.5231 F600.00 
G01 X89.2594 Y13.4603 
G01 X89.2406 Y13.3903 
G01 X89.2406 Y12.0097 
G01 X89.2594 Y11.9397 
G01 X89.2956 Y11.8769 
G01 X89.3469 Y11.8256 
G01 X89.4097 Y11.7894 
G01 X89.4797 Y11.7706 
G01 X90.8603 Y11.7706 
G01 X90.9303 Y11.7894 
G01 X90.9931 Y11.8256 
G01 X91.0444 Y11.8769 
G01 X91.0806 Y11.9397 
G01 X91.0994 Y12.0097 
G01 X91.0994 Y13.3903 
G01 X91.0806 Y13.4603 
G01 X91.0444 Y13.5231 
G01 X90.9931 Y13.5744 
G01 X90.9303 Y13.6106 
G01 X90.8603 Y13.6294 
G01 X89.4797 Y13.6294 
G01 X89.4097 Y13.6106 
G01 X89.3469 Y13.5744 
G00 Z2.5600 
G00 X96.9669 Y13.5744 
G01 Z-0.1778 F254.00 
G01 X96.9156 Y13.5231 F600.00 
G01 X96.8794 Y13.4603 
G01 X96.8606 Y13.3903 
G01 X96.8606 Y12.0097 
G01 X96.8794 Y11.9397 
G01 X96.9156 Y11.8769 
G01 X96.9669 Y11.8256 
G01 X97.0297 Y11.7894 
G01 X97.0997 Y11.7706 
G01 X98.4803 Y11.7706 
G01 X98.5503 Y11.7894 
G01 X98.6131 Y11.8256 
G01 X98.6644 Y11.8769 
G01 X98.7006 Y11.9397 
G01 X98.7194 Y12.0097 
G01 X98.7194 Y13.3903 
G01 X98.7006 Y13.4603 
G01 X98.6644 Y13.5231 
G01 X98.6131 Y13.5744 
G01 X98.5503 Y13.6106 
G01 X98.4803 Y13.6294 
G01 X97.0997 Y13.6294 
G01 X97.0297 Y13.6106 
G01 X96.9669 Y13.5744 
G00 Z2.5600 
G00 X96.9669 Y14.3656 
G01 Z-0.1778 F254.00 
G01 X97.0297 Y14.3294 F600.00 
G01 X97.0997 Y14.3106 
G01 X98.4803 Y14.3106 
G01 X98.5503 Y14.3294 
G01 X98.6131 Y14.3656 
G01 X98.6644 Y14.4169 
G01 X98.7006 Y14.4797 
G01 X98.7194 Y14.5497 
G01 X98.7194 Y15.9303 
G01 X98.7006 Y16.0003 
G01 X98.6644 Y16.0631 
G01 X98.6131 Y16.1144 
G01 X98.5503 Y16.1506 
G01 X98.4803 Y16.1694 
G01 X97.0997 Y16.1694 
G01 X97.0297 Y16.1506 
G01 X96.9669 Y16.1144 
G01 X96.9156 Y16.0631 
G01 X96.8794 Y16.0003 
G01 X96.8606 Y15.9303 
G01 X96.8606 Y14.5497 
G01 X96.8794 Y14.4797 
G01 X96.9156 Y14.4169 
G01 X96.9669 Y14.3656 
G00 Z2.5600 
G00 X152.7956 Y14.4169 
G01 Z-0.1778 F254.00 
G01 X152.8469 Y14.3656 F600.00 
G01 X152.9097 Y14.3294 
G01 X152.9797 Y14.3106 
G01 X154.3603 Y14.3106 
G01 X154.4303 Y14.3294 
G01 X154.4931 Y14.3656 
G01 X154.5444 Y14.4169 
G01 X154.5806 Y14.4797 
G01 X154.5994 Y14.5497 
G01 X154.5994 Y15.9303 
G01 X154.5806 Y16.0003 
G01 X154.5444 Y16.0631 
G01 X154.4931 Y16.1144 
G01 X154.4303 Y16.1506 
G01 X154.3603 Y16.1694 
G01 X152.9797 Y16.1694 
G01 X152.9097 Y16.1506 
G01 X152.8469 Y16.1144 
G01 X152.7956 Y16.0631 
G01 X152.7594 Y16.0003 
G01 X152.7406 Y15.9303 
G01 X152.7406 Y14.5497 
G01 X152.7594 Y14.4797 
G01 X152.7956 Y14.4169 
G00 Z2.5600 
G00 X152.8469 Y13.5744 
G01 Z-0.1778 F254.00 
G01 X152.7956 Y13.5231 F600.00 
G01 X152.7594 Y13.4603 
G01 X152.7406 Y13.3903 
G01 X152.7406 Y12.0097 
G01 X152.7594 Y11.9397 
G01 X152.7956 Y11.8769 
G01 X152.8469 Y11.8256 
G01 X152.9097 Y11.7894 
G01 X152.9797 Y11.7706 
G01 X154.3603 Y11.7706 
G01 X154.4303 Y11.7894 
G01 X154.4931 Y11.8256 
G01 X154.5444 Y11.8769 
G01 X154.5806 Y11.9397 
G01 X154.5994 Y12.0097 
G01 X154.5994 Y13.3903 
G01 X154.5806 Y13.4603 
G01 X154.5444 Y13.5231 
G01 X154.4931 Y13.5744 
G01 X154.4303 Y13.6106 
G01 X154.3603 Y13.6294 
G01 X152.9797 Y13.6294 
G01 X152.9097 Y13.6106 
G01 X152.8469 Y13.5744 
G00 Z2.5600 
G00 X160.4669 Y13.5744 
G01 Z-0.1778 F254.00 
G01 X160.4156 Y13.5231 F600.00 
G01 X160.3794 Y13.4603 
G01 X160.3606 Y13.3903 
G01 X160.3606 Y12.0097 
G01 X160.3794 Y11.9397 
G01 X160.4156 Y11.8769 
G01 X160.4669 Y11.8256 
G01 X160.5297 Y11.7894 
G01 X160.5997 Y11.7706 
G01 X161.9803 Y11.7706 
G01 X162.0503 Y11.7894 
G01 X162.1131 Y11.8256 
G01 X162.1644 Y11.8769 
G01 X162.2006 Y11.9397 
G01 X162.2194 Y12.0097 
G01 X162.2194 Y13.3903 
G01 X162.2006 Y13.4603 
G01 X162.1644 Y13.5231 
G01 X162.1131 Y13.5744 
G01 X162.0503 Y13.6106 
G01 X161.9803 Y13.6294 
G01 X160.5997 Y13.6294 
G01 X160.5297 Y13.6106 
G01 X160.4669 Y13.5744 
G00 Z2.5600 
G00 X160.4669 Y14.3656 
G01 Z-0.1778 F254.00 
G01 X160.5297 Y14.3294 F600.00 
G01 X160.5997 Y14.3106 
G01 X161.9803 Y14.3106 
G01 X162.0503 Y14.3294 
G01 X162.1131 Y14.3656 
G01 X162.1644 Y14.4169 
G01 X162.2006 Y14.4797 
G01 X162.2194 Y14.5497 
G01 X162.2194 Y15.9303 
G01 X162.2006 Y16.0003 
G01 X162.1644 Y16.0631 
G01 X162.1131 Y16.1144 
G01 X162.0503 Y16.1506 
G01 X161.9803 Y16.1694 
G01 X160.5997 Y16.1694 
G01 X160.5297 Y16.1506 
G01 X160.4669 Y16.1144 
G01 X160.4156 Y16.0631 
G01 X160.3794 Y16.0003 
G01 X160.3606 Y15.9303 
G01 X160.3606 Y14.5497 
G01 X160.3794 Y14.4797 
G01 X160.4156 Y14.4169 
G01 X160.4669 Y14.3656 
G00 Z2.5600 
G00 X160.4669 Y37.2256 
G01 Z-0.1778 F254.00 
G01 X160.5297 Y37.1894 F600.00 
G01 X160.5997 Y37.1706 
G01 X161.9803 Y37.1706 
G01 X162.0503 Y37.1894 
G01 X162.1131 Y37.2256 
G01 X162.1644 Y37.2769 
G01 X162.2006 Y37.3397 
G01 X162.2194 Y37.4097 
G01 X162.2194 Y38.7903 
G01 X162.2006 Y38.8603 
G01 X162.1644 Y38.9231 
G01 X162.1131 Y38.9744 
G01 X162.0503 Y39.0106 
G01 X161.9803 Y39.0294 
G01 X160.5997 Y39.0294 
G01 X160.5297 Y39.0106 
G01 X160.4669 Y38.9744 
G01 X160.4156 Y38.9231 
G01 X160.3794 Y38.8603 
G01 X160.3606 Y38.7903 
G01 X160.3606 Y37.4097 
G01 X160.3794 Y37.3397 
G01 X160.4156 Y37.2769 
G01 X160.4669 Y37.2256 
G00 Z2.5600 
G00 X159.5731 Y37.2256 
G01 Z-0.1778 F254.00 
G01 X159.6244 Y37.2769 F600.00 
G01 X159.6606 Y37.3397 
G01 X159.6794 Y37.4097 
G01 X159.6794 Y38.7903 
G01 X159.6606 Y38.8603 
G01 X159.6244 Y38.9231 
G01 X159.5731 Y38.9744 
G01 X159.5103 Y39.0106 
G01 X159.4403 Y39.0294 
G01 X158.0597 Y39.0294 
G01 X157.9897 Y39.0106 
G01 X157.9269 Y38.9744 
G01 X157.8756 Y38.9231 
G01 X157.8394 Y38.8603 
G01 X157.8206 Y38.7903 
G01 X157.8206 Y37.4097 
G01 X157.8394 Y37.3397 
G01 X157.8756 Y37.2769 
G01 X157.9269 Y37.2256 
G01 X157.9897 Y37.1894 
G01 X158.0597 Y37.1706 
G01 X159.4403 Y37.1706 
G01 X159.5103 Y37.1894 
G01 X159.5731 Y37.2256 
G00 Z2.5600 
G00 X157.0331 Y37.2256 
G01 Z-0.1778 F254.00 
G01 X157.0844 Y37.2769 F600.00 
G01 X157.1206 Y37.3397 
G01 X157.1394 Y37.4097 
G01 X157.1394 Y38.7903 
G01 X157.1206 Y38.8603 
G01 X157.0844 Y38.9231 
G01 X157.0331 Y38.9744 
G01 X156.9703 Y39.0106 
G01 X156.9003 Y39.0294 
G01 X155.5197 Y39.0294 
G01 X155.4497 Y39.0106 
G01 X155.3869 Y38.9744 
G01 X155.3356 Y38.9231 
G01 X155.2994 Y38.8603 
G01 X155.2806 Y38.7903 
G01 X155.2806 Y37.4097 
G01 X155.2994 Y37.3397 
G01 X155.3356 Y37.2769 
G01 X155.3869 Y37.2256 
G01 X155.4497 Y37.1894 
G01 X155.5197 Y37.1706 
G01 X156.9003 Y37.1706 
G01 X156.9703 Y37.1894 
G01 X157.0331 Y37.2256 
G00 Z2.5600 
G00 X154.4931 Y37.2256 
G01 Z-0.1778 F254.00 
G01 X154.5444 Y37.2769 F600.00 
G01 X154.5806 Y37.3397 
G01 X154.5994 Y37.4097 
G01 X154.5994 Y38.7903 
G01 X154.5806 Y38.8603 
G01 X154.5444 Y38.9231 
G01 X154.4931 Y38.9744 
G01 X154.4303 Y39.0106 
G01 X154.3603 Y39.0294 
G01 X152.9797 Y39.0294 
G01 X152.9097 Y39.0106 
G01 X152.8469 Y38.9744 
G01 X152.7956 Y38.9231 
G01 X152.7594 Y38.8603 
G01 X152.7406 Y38.7903 
G01 X152.7406 Y37.4097 
G01 X152.7594 Y37.3397 
G01 X152.7956 Y37.2769 
G01 X152.8469 Y37.2256 
G01 X152.9097 Y37.1894 
G01 X152.9797 Y37.1706 
G01 X154.3603 Y37.1706 
G01 X154.4303 Y37.1894 
G01 X154.4931 Y37.2256 
G00 Z2.5600 
G00 X151.9531 Y37.2256 
G01 Z-0.1778 F254.00 
G01 X152.0044 Y37.2769 F600.00 
G01 X152.0406 Y37.3397 
G01 X152.0594 Y37.4097 
G01 X152.0594 Y38.7903 
G01 X152.0406 Y38.8603 
G01 X152.0044 Y38.9231 
G01 X151.9531 Y38.9744 
G01 X151.8903 Y39.0106 
G01 X151.8203 Y39.0294 
G01 X150.4397 Y39.0294 
G01 X150.3697 Y39.0106 
G01 X150.3069 Y38.9744 
G01 X150.2556 Y38.9231 
G01 X150.2194 Y38.8603 
G01 X150.2006 Y38.7903 
G01 X150.2006 Y37.4097 
G01 X150.2194 Y37.3397 
G01 X150.2556 Y37.2769 
G01 X150.3069 Y37.2256 
G01 X150.3697 Y37.1894 
G01 X150.4397 Y37.1706 
G01 X151.8203 Y37.1706 
G01 X151.8903 Y37.1894 
G01 X151.9531 Y37.2256 
G00 Z2.5600 
G00 X149.4131 Y37.2256 
G01 Z-0.1778 F254.00 
G01 X149.4644 Y37.2769 F600.00 
G01 X149.5006 Y37.3397 
G01 X149.5194 Y37.4097 
G01 X149.5194 Y38.7903 
G01 X149.5006 Y38.8603 
G01 X149.4644 Y38.9231 
G01 X149.4131 Y38.9744 
G01 X149.3503 Y39.0106 
G01 X149.2803 Y39.0294 
G01 X147.8997 Y39.0294 
G01 X147.8297 Y39.0106 
G01 X147.7669 Y38.9744 
G01 X147.7156 Y38.9231 
G01 X147.6794 Y38.8603 
G01 X147.6606 Y38.7903 
G01 X147.6606 Y37.4097 
G01 X147.6794 Y37.3397 
G01 X147.7156 Y37.2769 
G01 X147.7669 Y37.2256 
G01 X147.8297 Y37.1894 
G01 X147.8997 Y37.1706 
G01 X149.2803 Y37.1706 
G01 X149.3503 Y37.1894 
G01 X149.4131 Y37.2256 
G00 Z2.5600 
G00 X146.8731 Y37.2256 
G01 Z-0.1778 F254.00 
G01 X146.9244 Y37.2769 F600.00 
G01 X146.9606 Y37.3397 
G01 X146.9794 Y37.4097 
G01 X146.9794 Y38.7903 
G01 X146.9606 Y38.8603 
G01 X146.9244 Y38.9231 
G01 X146.8731 Y38.9744 
G01 X146.8103 Y39.0106 
G01 X146.7403 Y39.0294 
G01 X145.3597 Y39.0294 
G01 X145.2897 Y39.0106 
G01 X145.2269 Y38.9744 
G01 X145.1756 Y38.9231 
G01 X145.1394 Y38.8603 
G01 X145.1206 Y38.7903 
G01 X145.1206 Y37.4097 
G01 X145.1394 Y37.3397 
G01 X145.1756 Y37.2769 
G01 X145.2269 Y37.2256 
G01 X145.2897 Y37.1894 
G01 X145.3597 Y37.1706 
G01 X146.7403 Y37.1706 
G01 X146.8103 Y37.1894 
G01 X146.8731 Y37.2256 
G00 Z2.5600 
G00 X144.3331 Y37.2256 
G01 Z-0.1778 F254.00 
G01 X144.3844 Y37.2769 F600.00 
G01 X144.4206 Y37.3397 
G01 X144.4394 Y37.4097 
G01 X144.4394 Y38.7903 
G01 X144.4206 Y38.8603 
G01 X144.3844 Y38.9231 
G01 X144.3331 Y38.9744 
G01 X144.2703 Y39.0106 
G01 X144.2003 Y39.0294 
G01 X142.8197 Y39.0294 
G01 X142.7497 Y39.0106 
G01 X142.6869 Y38.9744 
G01 X142.6356 Y38.9231 
G01 X142.5994 Y38.8603 
G01 X142.5806 Y38.7903 
G01 X142.5806 Y37.4097 
G01 X142.5994 Y37.3397 
G01 X142.6356 Y37.2769 
G01 X142.6869 Y37.2256 
G01 X142.7497 Y37.1894 
G01 X142.8197 Y37.1706 
G01 X144.2003 Y37.1706 
G01 X144.2703 Y37.1894 
G01 X144.3331 Y37.2256 
G00 Z2.5600 
G00 X141.7931 Y37.2256 
G01 Z-0.1778 F254.00 
G01 X141.8444 Y37.2769 F600.00 
G01 X141.8806 Y37.3397 
G01 X141.8994 Y37.4097 
G01 X141.8994 Y38.7903 
G01 X141.8806 Y38.8603 
G01 X141.8444 Y38.9231 
G01 X141.7931 Y38.9744 
G01 X141.7303 Y39.0106 
G01 X141.6603 Y39.0294 
G01 X140.2797 Y39.0294 
G01 X140.2097 Y39.0106 
G01 X140.1469 Y38.9744 
G01 X140.0956 Y38.9231 
G01 X140.0594 Y38.8603 
G01 X140.0406 Y38.7903 
G01 X140.0406 Y37.4097 
G01 X140.0594 Y37.3397 
G01 X140.0956 Y37.2769 
G01 X140.1469 Y37.2256 
G01 X140.2097 Y37.1894 
G01 X140.2797 Y37.1706 
G01 X141.6603 Y37.1706 
G01 X141.7303 Y37.1894 
G01 X141.7931 Y37.2256 
G00 Z2.5600 
G00 X162.9556 Y37.2769 
G01 Z-0.1778 F254.00 
G01 X163.0069 Y37.2256 F600.00 
G01 X163.0697 Y37.1894 
G01 X163.1397 Y37.1706 
G01 X164.5203 Y37.1706 
G01 X164.5903 Y37.1894 
G01 X164.6531 Y37.2256 
G01 X164.7044 Y37.2769 
G01 X164.7406 Y37.3397 
G01 X164.7594 Y37.4097 
G01 X164.7594 Y38.7903 
G01 X164.7406 Y38.8603 
G01 X164.7044 Y38.9231 
G01 X164.6531 Y38.9744 
G01 X164.5903 Y39.0106 
G01 X164.5203 Y39.0294 
G01 X163.1397 Y39.0294 
G01 X163.0697 Y39.0106 
G01 X163.0069 Y38.9744 
G01 X162.9556 Y38.9231 
G01 X162.9194 Y38.8603 
G01 X162.9006 Y38.7903 
G01 X162.9006 Y37.4097 
G01 X162.9194 Y37.3397 
G01 X162.9556 Y37.2769 
G00 Z2.5600 
G00 X165.4956 Y37.2769 
G01 Z-0.1778 F254.00 
G01 X165.5469 Y37.2256 F600.00 
G01 X165.6097 Y37.1894 
G01 X165.6797 Y37.1706 
G01 X167.0603 Y37.1706 
G01 X167.1303 Y37.1894 
G01 X167.1931 Y37.2256 
G01 X167.2444 Y37.2769 
G01 X167.2806 Y37.3397 
G01 X167.2994 Y37.4097 
G01 X167.2994 Y38.7903 
G01 X167.2806 Y38.8603 
G01 X167.2444 Y38.9231 
G01 X167.1931 Y38.9744 
G01 X167.1303 Y39.0106 
G01 X167.0603 Y39.0294 
G01 X165.6797 Y39.0294 
G01 X165.6097 Y39.0106 
G01 X165.5469 Y38.9744 
G01 X165.4956 Y38.9231 
G01 X165.4594 Y38.8603 
G01 X165.4406 Y38.7903 
G01 X165.4406 Y37.4097 
G01 X165.4594 Y37.3397 
G01 X165.4956 Y37.2769 
G00 Z2.5600 
G00 X168.0356 Y37.2769 
G01 Z-0.1778 F254.00 
G01 X168.0869 Y37.2256 F600.00 
G01 X168.1497 Y37.1894 
G01 X168.2197 Y37.1706 
G01 X169.6003 Y37.1706 
G01 X169.6703 Y37.1894 
G01 X169.7331 Y37.2256 
G01 X169.7844 Y37.2769 
G01 X169.8206 Y37.3397 
G01 X169.8394 Y37.4097 
G01 X169.8394 Y38.7903 
G01 X169.8206 Y38.8603 
G01 X169.7844 Y38.9231 
G01 X169.7331 Y38.9744 
G01 X169.6703 Y39.0106 
G01 X169.6003 Y39.0294 
G01 X168.2197 Y39.0294 
G01 X168.1497 Y39.0106 
G01 X168.0869 Y38.9744 
G01 X168.0356 Y38.9231 
G01 X167.9994 Y38.8603 
G01 X167.9806 Y38.7903 
G01 X167.9806 Y37.4097 
G01 X167.9994 Y37.3397 
G01 X168.0356 Y37.2769 
G00 Z2.5600 
G00 X162.1131 Y61.3556 
G01 Z-0.1778 F254.00 
G01 X162.1644 Y61.4069 F600.00 
G01 X162.2006 Y61.4697 
G01 X162.2194 Y61.5397 
G01 X162.2194 Y62.9203 
G01 X162.2006 Y62.9903 
G01 X162.1644 Y63.0531 
G01 X162.1131 Y63.1044 
G01 X162.0503 Y63.1406 
G01 X161.9803 Y63.1594 
G01 X160.5997 Y63.1594 
G01 X160.5297 Y63.1406 
G01 X160.4669 Y63.1044 
G01 X160.4156 Y63.0531 
G01 X160.3794 Y62.9903 
G01 X160.3606 Y62.9203 
G01 X160.3606 Y61.5397 
G01 X160.3794 Y61.4697 
G01 X160.4156 Y61.4069 
G01 X160.4669 Y61.3556 
G01 X160.5297 Y61.3194 
G01 X160.5997 Y61.3006 
G01 X161.9803 Y61.3006 
G01 X162.0503 Y61.3194 
G01 X162.1131 Y61.3556 
G00 Z2.5600 
G00 X162.1131 Y63.8956 
G01 Z-0.1778 F254.00 
G01 X162.1644 Y63.9469 F600.00 
G01 X162.2006 Y64.0097 
G01 X162.2194 Y64.0797 
G01 X162.2194 Y65.4603 
G01 X162.2006 Y65.5303 
G01 X162.1644 Y65.5931 
G01 X162.1131 Y65.6444 
G01 X162.0503 Y65.6806 
G01 X161.9803 Y65.6994 
G01 X160.5997 Y65.6994 
G01 X160.5297 Y65.6806 
G01 X160.4669 Y65.6444 
G01 X160.4156 Y65.5931 
G01 X160.3794 Y65.5303 
G01 X160.3606 Y65.4603 
G01 X160.3606 Y64.0797 
G01 X160.3794 Y64.0097 
G01 X160.4156 Y63.9469 
G01 X160.4669 Y63.8956 
G01 X160.5297 Y63.8594 
G01 X160.5997 Y63.8406 
G01 X161.9803 Y63.8406 
G01 X162.0503 Y63.8594 
G01 X162.1131 Y63.8956 
G00 Z2.5600 
G00 X154.4931 Y63.8956 
G01 Z-0.1778 F254.00 
G01 X154.5444 Y63.9469 F600.00 
G01 X154.5806 Y64.0097 
G01 X154.5994 Y64.0797 
G01 X154.5994 Y65.4603 
G01 X154.5806 Y65.5303 
G01 X154.5444 Y65.5931 
G01 X154.4931 Y65.6444 
G01 X154.4303 Y65.6806 
G01 X154.3603 Y65.6994 
G01 X152.9797 Y65.6994 
G01 X152.9097 Y65.6806 
G01 X152.8469 Y65.6444 
G01 X152.7956 Y65.5931 
G01 X152.7594 Y65.5303 
G01 X152.7406 Y65.4603 
G01 X152.7406 Y64.0797 
G01 X152.7594 Y64.0097 
G01 X152.7956 Y63.9469 
G01 X152.8469 Y63.8956 
G01 X152.9097 Y63.8594 
G01 X152.9797 Y63.8406 
G01 X154.3603 Y63.8406 
G01 X154.4303 Y63.8594 
G01 X154.4931 Y63.8956 
G00 Z2.5600 
G00 X154.4931 Y63.1044 
G01 Z-0.1778 F254.00 
G01 X154.4303 Y63.1406 F600.00 
G01 X154.3603 Y63.1594 
G01 X152.9797 Y63.1594 
G01 X152.9097 Y63.1406 
G01 X152.8469 Y63.1044 
G01 X152.7956 Y63.0531 
G01 X152.7594 Y62.9903 
G01 X152.7406 Y62.9203 
G01 X152.7406 Y61.5397 
G01 X152.7594 Y61.4697 
G01 X152.7956 Y61.4069 
G01 X152.8469 Y61.3556 
G01 X152.9097 Y61.3194 
G01 X152.9797 Y61.3006 
G01 X154.3603 Y61.3006 
G01 X154.4303 Y61.3194 
G01 X154.4931 Y61.3556 
G01 X154.5444 Y61.4069 
G01 X154.5806 Y61.4697 
G01 X154.5994 Y61.5397 
G01 X154.5994 Y62.9203 
G01 X154.5806 Y62.9903 
G01 X154.5444 Y63.0531 
G01 X154.4931 Y63.1044 
G00 Z2.5600 
G00 X154.4931 Y86.7556 
G01 Z-0.1778 F254.00 
G01 X154.5444 Y86.8069 F600.00 
G01 X154.5806 Y86.8697 
G01 X154.5994 Y86.9397 
G01 X154.5994 Y88.3203 
G01 X154.5806 Y88.3903 
G01 X154.5444 Y88.4531 
G01 X154.4931 Y88.5044 
G01 X154.4303 Y88.5406 
G01 X154.3603 Y88.5594 
G01 X152.9797 Y88.5594 
G01 X152.9097 Y88.5406 
G01 X152.8469 Y88.5044 
G01 X152.7956 Y88.4531 
G01 X152.7594 Y88.3903 
G01 X152.7406 Y88.3203 
G01 X152.7406 Y86.9397 
G01 X152.7594 Y86.8697 
G01 X152.7956 Y86.8069 
G01 X152.8469 Y86.7556 
G01 X152.9097 Y86.7194 
G01 X152.9797 Y86.7006 
G01 X154.3603 Y86.7006 
G01 X154.4303 Y86.7194 
G01 X154.4931 Y86.7556 
G00 Z2.5600 
G00 X155.3356 Y86.8069 
G01 Z-0.1778 F254.00 
G01 X155.3869 Y86.7556 F600.00 
G01 X155.4497 Y86.7194 
G01 X155.5197 Y86.7006 
G01 X156.9003 Y86.7006 
G01 X156.9703 Y86.7194 
G01 X157.0331 Y86.7556 
G01 X157.0844 Y86.8069 
G01 X157.1206 Y86.8697 
G01 X157.1394 Y86.9397 
G01 X157.1394 Y88.3203 
G01 X157.1206 Y88.3903 
G01 X157.0844 Y88.4531 
G01 X157.0331 Y88.5044 
G01 X156.9703 Y88.5406 
G01 X156.9003 Y88.5594 
G01 X155.5197 Y88.5594 
G01 X155.4497 Y88.5406 
G01 X155.3869 Y88.5044 
G01 X155.3356 Y88.4531 
G01 X155.2994 Y88.3903 
G01 X155.2806 Y88.3203 
G01 X155.2806 Y86.9397 
G01 X155.2994 Y86.8697 
G01 X155.3356 Y86.8069 
G00 Z2.5600 
G00 X157.8756 Y86.8069 
G01 Z-0.1778 F254.00 
G01 X157.9269 Y86.7556 F600.00 
G01 X157.9897 Y86.7194 
G01 X158.0597 Y86.7006 
G01 X159.4403 Y86.7006 
G01 X159.5103 Y86.7194 
G01 X159.5731 Y86.7556 
G01 X159.6244 Y86.8069 
G01 X159.6606 Y86.8697 
G01 X159.6794 Y86.9397 
G01 X159.6794 Y88.3203 
G01 X159.6606 Y88.3903 
G01 X159.6244 Y88.4531 
G01 X159.5731 Y88.5044 
G01 X159.5103 Y88.5406 
G01 X159.4403 Y88.5594 
G01 X158.0597 Y88.5594 
G01 X157.9897 Y88.5406 
G01 X157.9269 Y88.5044 
G01 X157.8756 Y88.4531 
G01 X157.8394 Y88.3903 
G01 X157.8206 Y88.3203 
G01 X157.8206 Y86.9397 
G01 X157.8394 Y86.8697 
G01 X157.8756 Y86.8069 
G00 Z2.5600 
G00 X160.4156 Y86.8069 
G01 Z-0.1778 F254.00 
G01 X160.4669 Y86.7556 F600.00 
G01 X160.5297 Y86.7194 
G01 X160.5997 Y86.7006 
G01 X161.9803 Y86.7006 
G01 X162.0503 Y86.7194 
G01 X162.1131 Y86.7556 
G01 X162.1644 Y86.8069 
G01 X162.2006 Y86.8697 
G01 X162.2194 Y86.9397 
G01 X162.2194 Y88.3203 
G01 X162.2006 Y88.3903 
G01 X162.1644 Y88.4531 
G01 X162.1131 Y88.5044 
G01 X162.0503 Y88.5406 
G01 X161.9803 Y88.5594 
G01 X160.5997 Y88.5594 
G01 X160.5297 Y88.5406 
G01 X160.4669 Y88.5044 
G01 X160.4156 Y88.4531 
G01 X160.3794 Y88.3903 
G01 X160.3606 Y88.3203 
G01 X160.3606 Y86.9397 
G01 X160.3794 Y86.8697 
G01 X160.4156 Y86.8069 
G00 Z2.5600 
G00 X162.9556 Y86.8069 
G01 Z-0.1778 F254.00 
G01 X163.0069 Y86.7556 F600.00 
G01 X163.0697 Y86.7194 
G01 X163.1397 Y86.7006 
G01 X164.5203 Y86.7006 
G01 X164.5903 Y86.7194 
G01 X164.6531 Y86.7556 
G01 X164.7044 Y86.8069 
G01 X164.7406 Y86.8697 
G01 X164.7594 Y86.9397 
G01 X164.7594 Y88.3203 
G01 X164.7406 Y88.3903 
G01 X164.7044 Y88.4531 
G01 X164.6531 Y88.5044 
G01 X164.5903 Y88.5406 
G01 X164.5203 Y88.5594 
G01 X163.1397 Y88.5594 
G01 X163.0697 Y88.5406 
G01 X163.0069 Y88.5044 
G01 X162.9556 Y88.4531 
G01 X162.9194 Y88.3903 
G01 X162.9006 Y88.3203 
G01 X162.9006 Y86.9397 
G01 X162.9194 Y86.8697 
G01 X162.9556 Y86.8069 
G00 Z2.5600 
G00 X165.4956 Y86.8069 
G01 Z-0.1778 F254.00 
G01 X165.5469 Y86.7556 F600.00 
G01 X165.6097 Y86.7194 
G01 X165.6797 Y86.7006 
G01 X167.0603 Y86.7006 
G01 X167.1303 Y86.7194 
G01 X167.1931 Y86.7556 
G01 X167.2444 Y86.8069 
G01 X167.2806 Y86.8697 
G01 X167.2994 Y86.9397 
G01 X167.2994 Y88.3203 
G01 X167.2806 Y88.3903 
G01 X167.2444 Y88.4531 
G01 X167.1931 Y88.5044 
G01 X167.1303 Y88.5406 
G01 X167.0603 Y88.5594 
G01 X165.6797 Y88.5594 
G01 X165.6097 Y88.5406 
G01 X165.5469 Y88.5044 
G01 X165.4956 Y88.4531 
G01 X165.4594 Y88.3903 
G01 X165.4406 Y88.3203 
G01 X165.4406 Y86.9397 
G01 X165.4594 Y86.8697 
G01 X165.4956 Y86.8069 
G00 Z2.5600 
G00 X168.0356 Y86.8069 
G01 Z-0.1778 F254.00 
G01 X168.0869 Y86.7556 F600.00 
G01 X168.1497 Y86.7194 
G01 X168.2197 Y86.7006 
G01 X169.6003 Y86.7006 
G01 X169.6703 Y86.7194 
G01 X169.7331 Y86.7556 
G01 X169.7844 Y86.8069 
G01 X169.8206 Y86.8697 
G01 X169.8394 Y86.9397 
G01 X169.8394 Y88.3203 
G01 X169.8206 Y88.3903 
G01 X169.7844 Y88.4531 
G01 X169.7331 Y88.5044 
G01 X169.6703 Y88.5406 
G01 X169.6003 Y88.5594 
G01 X168.2197 Y88.5594 
G01 X168.1497 Y88.5406 
G01 X168.0869 Y88.5044 
G01 X168.0356 Y88.4531 
G01 X167.9994 Y88.3903 
G01 X167.9806 Y88.3203 
G01 X167.9806 Y86.9397 
G01 X167.9994 Y86.8697 
G01 X168.0356 Y86.8069 
G00 Z2.5600 
G00 X152.0044 Y86.8069 
G01 Z-0.1778 F254.00 
G01 X152.0406 Y86.8697 F600.00 
G01 X152.0594 Y86.9397 
G01 X152.0594 Y88.3203 
G01 X152.0406 Y88.3903 
G01 X152.0044 Y88.4531 
G01 X151.9531 Y88.5044 
G01 X151.8903 Y88.5406 
G01 X151.8203 Y88.5594 
G01 X150.4397 Y88.5594 
G01 X150.3697 Y88.5406 
G01 X150.3069 Y88.5044 
G01 X150.2556 Y88.4531 
G01 X150.2194 Y88.3903 
G01 X150.2006 Y88.3203 
G01 X150.2006 Y86.9397 
G01 X150.2194 Y86.8697 
G01 X150.2556 Y86.8069 
G01 X150.3069 Y86.7556 
G01 X150.3697 Y86.7194 
G01 X150.4397 Y86.7006 
G01 X151.8203 Y86.7006 
G01 X151.8903 Y86.7194 
G01 X151.9531 Y86.7556 
G01 X152.0044 Y86.8069 
G00 Z2.5600 
