(.../pcb-gcode-3.6.2.4/pcb-gcode.ulp)
(Copyright 2005 - 2012 by John Johnson)
(See readme.txt for licensing terms.)
(This file generated from the board:)
(.../multi_board_pcb/multi_board_support.brd)
(Current profile is .../pcb-gcode-3.6.2.4/profiles/lasagni.pp  )
(This file generated 27/01/16 15:02)
(Settings from pcb-machine.h)
(spindle on time = 3.0000)
(spindle speed = 55000.0000)
(tool change at 0.0000 0.0000 25.4000 )
(feed rate xy = F0.00  )
(feed rate z  = F550.00 )
(Z Axis Settings)
(  High     Up        Down     Drill)
(120.7000 	2.5600 	-0.1778 	-2.0000 )
(Settings from pcb-defaults.h)
(isolate min = 0.0254)
(isolate max = 0.5080)
(isolate step = 0.1270)
(Generated top outlines, top drill, )
(Unit of measure: mm)
(Beginning of every file)
(Beginning of every top file)
(Beginning of All Drill files)
(Top Drill Begin)
( Tool|       Size       |  Min Sub |  Max Sub |   Count )
( T08  1.000mm 0.0394in 0.0315in 0.0394in )
(Metric Mode)
G71
(Absolute Coordinates)
G90
S55000
G00 Z120.7000 
G00 X0.0000 Y0.0000 
M03
G04 3.000000
(Tool Change Begin)
(Top Tool Change Begin)
M05
G00 Z25.4000 
T08 M06 ; 1.0000 
(Top Tool changed)
(Tool changed)
G00 X0.00 Y0.00
G00 Z2.5600 
M03
G04 3.000000
(Top Tool Changed End)
(Tool Change End)
G00 Z2.560000
G00 X16.5100 Y38.1000 
G01 Z-2.0000 F550.00 
G01 Z2.560000
(R2.5600  P1.000000)
G00 X19.0500 Y38.1000 
G01 Z-2.000000
G01 Z2.560000
G00 X21.5900 Y38.1000 
G01 Z-2.000000
G01 Z2.560000
G00 X24.1300 Y38.1000 
G01 Z-2.000000
G01 Z2.560000
G00 X26.6700 Y38.1000 
G01 Z-2.000000
G01 Z2.560000
G00 X29.2100 Y38.1000 
G01 Z-2.000000
G01 Z2.560000
G00 X31.7500 Y38.1000 
G01 Z-2.000000
G01 Z2.560000
G00 X34.2900 Y38.1000 
G01 Z-2.000000
G01 Z2.560000
G00 X36.8300 Y38.1000 
G01 Z-2.000000
G01 Z2.560000
G00 X39.3700 Y38.1000 
G01 Z-2.000000
G01 Z2.560000
G00 X41.9100 Y38.1000 
G01 Z-2.000000
G01 Z2.560000
G00 X44.4500 Y38.1000 
G01 Z-2.000000
G01 Z2.560000
G00 X36.8300 Y15.2400 
G01 Z-2.000000
G01 Z2.560000
G00 X36.8300 Y12.7000 
G01 Z-2.000000
G01 Z2.560000
G00 X29.2100 Y12.7000 
G01 Z-2.000000
G01 Z2.560000
G00 X29.2100 Y15.2400 
G01 Z-2.000000
G01 Z2.560000
G00 X29.2100 Y62.2300 
G01 Z-2.000000
G01 Z2.560000
G00 X29.2100 Y64.7700 
G01 Z-2.000000
G01 Z2.560000
G00 X36.8300 Y64.7700 
G01 Z-2.000000
G01 Z2.560000
G00 X36.8300 Y62.2300 
G01 Z-2.000000
G01 Z2.560000
G00 X36.8300 Y87.6300 
G01 Z-2.000000
G01 Z2.560000
G00 X39.3700 Y87.6300 
G01 Z-2.000000
G01 Z2.560000
G00 X41.9100 Y87.6300 
G01 Z-2.000000
G01 Z2.560000
G00 X44.4500 Y87.6300 
G01 Z-2.000000
G01 Z2.560000
G00 X34.2900 Y87.6300 
G01 Z-2.000000
G01 Z2.560000
G00 X31.7500 Y87.6300 
G01 Z-2.000000
G01 Z2.560000
G00 X29.2100 Y87.6300 
G01 Z-2.000000
G01 Z2.560000
G00 X26.6700 Y87.6300 
G01 Z-2.000000
G01 Z2.560000
G00 X24.1300 Y87.6300 
G01 Z-2.000000
G01 Z2.560000
G00 X21.5900 Y87.6300 
G01 Z-2.000000
G01 Z2.560000
G00 X19.0500 Y87.6300 
G01 Z-2.000000
G01 Z2.560000
G00 X16.5100 Y87.6300 
G01 Z-2.000000
G01 Z2.560000
G00 X29.2100 Y111.7600 
G01 Z-2.000000
G01 Z2.560000
G00 X29.2100 Y114.3000 
G01 Z-2.000000
G01 Z2.560000
G00 X36.8300 Y114.3000 
G01 Z-2.000000
G01 Z2.560000
G00 X36.8300 Y111.7600 
G01 Z-2.000000
G01 Z2.560000
G00 X36.8300 Y137.1600 
G01 Z-2.000000
G01 Z2.560000
G00 X39.3700 Y137.1600 
G01 Z-2.000000
G01 Z2.560000
G00 X41.9100 Y137.1600 
G01 Z-2.000000
G01 Z2.560000
G00 X44.4500 Y137.1600 
G01 Z-2.000000
G01 Z2.560000
G00 X34.2900 Y137.1600 
G01 Z-2.000000
G01 Z2.560000
G00 X31.7500 Y137.1600 
G01 Z-2.000000
G01 Z2.560000
G00 X29.2100 Y137.1600 
G01 Z-2.000000
G01 Z2.560000
G00 X26.6700 Y137.1600 
G01 Z-2.000000
G01 Z2.560000
G00 X24.1300 Y137.1600 
G01 Z-2.000000
G01 Z2.560000
G00 X21.5900 Y137.1600 
G01 Z-2.000000
G01 Z2.560000
G00 X19.0500 Y137.1600 
G01 Z-2.000000
G01 Z2.560000
G00 X16.5100 Y137.1600 
G01 Z-2.000000
G01 Z2.560000
G00 X29.2100 Y161.2900 
G01 Z-2.000000
G01 Z2.560000
G00 X29.2100 Y163.8300 
G01 Z-2.000000
G01 Z2.560000
G00 X36.8300 Y163.8300 
G01 Z-2.000000
G01 Z2.560000
G00 X36.8300 Y161.2900 
G01 Z-2.000000
G01 Z2.560000
G00 X36.8300 Y186.6900 
G01 Z-2.000000
G01 Z2.560000
G00 X39.3700 Y186.6900 
G01 Z-2.000000
G01 Z2.560000
G00 X41.9100 Y186.6900 
G01 Z-2.000000
G01 Z2.560000
G00 X44.4500 Y186.6900 
G01 Z-2.000000
G01 Z2.560000
G00 X34.2900 Y186.6900 
G01 Z-2.000000
G01 Z2.560000
G00 X31.7500 Y186.6900 
G01 Z-2.000000
G01 Z2.560000
G00 X29.2100 Y186.6900 
G01 Z-2.000000
G01 Z2.560000
G00 X26.6700 Y186.6900 
G01 Z-2.000000
G01 Z2.560000
G00 X24.1300 Y186.6900 
G01 Z-2.000000
G01 Z2.560000
G00 X21.5900 Y186.6900 
G01 Z-2.000000
G01 Z2.560000
G00 X19.0500 Y186.6900 
G01 Z-2.000000
G01 Z2.560000
G00 X16.5100 Y186.6900 
G01 Z-2.000000
G01 Z2.560000
G00 X77.4700 Y186.6900 
G01 Z-2.000000
G01 Z2.560000
G00 X80.0100 Y186.6900 
G01 Z-2.000000
G01 Z2.560000
G00 X82.5500 Y186.6900 
G01 Z-2.000000
G01 Z2.560000
G00 X85.0900 Y186.6900 
G01 Z-2.000000
G01 Z2.560000
G00 X87.6300 Y186.6900 
G01 Z-2.000000
G01 Z2.560000
G00 X90.1700 Y186.6900 
G01 Z-2.000000
G01 Z2.560000
G00 X92.7100 Y186.6900 
G01 Z-2.000000
G01 Z2.560000
G00 X95.2500 Y186.6900 
G01 Z-2.000000
G01 Z2.560000
G00 X97.7900 Y186.6900 
G01 Z-2.000000
G01 Z2.560000
G00 X100.3300 Y186.6900 
G01 Z-2.000000
G01 Z2.560000
G00 X102.8700 Y186.6900 
G01 Z-2.000000
G01 Z2.560000
G00 X105.4100 Y186.6900 
G01 Z-2.000000
G01 Z2.560000
G00 X97.7900 Y163.8300 
G01 Z-2.000000
G01 Z2.560000
G00 X97.7900 Y161.2900 
G01 Z-2.000000
G01 Z2.560000
G00 X90.1700 Y161.2900 
G01 Z-2.000000
G01 Z2.560000
G00 X90.1700 Y163.8300 
G01 Z-2.000000
G01 Z2.560000
G00 X90.1700 Y137.1600 
G01 Z-2.000000
G01 Z2.560000
G00 X92.7100 Y137.1600 
G01 Z-2.000000
G01 Z2.560000
G00 X95.2500 Y137.1600 
G01 Z-2.000000
G01 Z2.560000
G00 X97.7900 Y137.1600 
G01 Z-2.000000
G01 Z2.560000
G00 X100.3300 Y137.1600 
G01 Z-2.000000
G01 Z2.560000
G00 X102.8700 Y137.1600 
G01 Z-2.000000
G01 Z2.560000
G00 X105.4100 Y137.1600 
G01 Z-2.000000
G01 Z2.560000
G00 X87.6300 Y137.1600 
G01 Z-2.000000
G01 Z2.560000
G00 X85.0900 Y137.1600 
G01 Z-2.000000
G01 Z2.560000
G00 X82.5500 Y137.1600 
G01 Z-2.000000
G01 Z2.560000
G00 X80.0100 Y137.1600 
G01 Z-2.000000
G01 Z2.560000
G00 X77.4700 Y137.1600 
G01 Z-2.000000
G01 Z2.560000
G00 X90.1700 Y114.3000 
G01 Z-2.000000
G01 Z2.560000
G00 X90.1700 Y111.7600 
G01 Z-2.000000
G01 Z2.560000
G00 X97.7900 Y111.7600 
G01 Z-2.000000
G01 Z2.560000
G00 X97.7900 Y114.3000 
G01 Z-2.000000
G01 Z2.560000
G00 X97.7900 Y87.6300 
G01 Z-2.000000
G01 Z2.560000
G00 X100.3300 Y87.6300 
G01 Z-2.000000
G01 Z2.560000
G00 X102.8700 Y87.6300 
G01 Z-2.000000
G01 Z2.560000
G00 X105.4100 Y87.6300 
G01 Z-2.000000
G01 Z2.560000
G00 X95.2500 Y87.6300 
G01 Z-2.000000
G01 Z2.560000
G00 X92.7100 Y87.6300 
G01 Z-2.000000
G01 Z2.560000
G00 X90.1700 Y87.6300 
G01 Z-2.000000
G01 Z2.560000
G00 X87.6300 Y87.6300 
G01 Z-2.000000
G01 Z2.560000
G00 X85.0900 Y87.6300 
G01 Z-2.000000
G01 Z2.560000
G00 X82.5500 Y87.6300 
G01 Z-2.000000
G01 Z2.560000
G00 X80.0100 Y87.6300 
G01 Z-2.000000
G01 Z2.560000
G00 X77.4700 Y87.6300 
G01 Z-2.000000
G01 Z2.560000
G00 X90.1700 Y64.7700 
G01 Z-2.000000
G01 Z2.560000
G00 X90.1700 Y62.2300 
G01 Z-2.000000
G01 Z2.560000
G00 X97.7900 Y62.2300 
G01 Z-2.000000
G01 Z2.560000
G00 X97.7900 Y64.7700 
G01 Z-2.000000
G01 Z2.560000
G00 X97.7900 Y38.1000 
G01 Z-2.000000
G01 Z2.560000
G00 X100.3300 Y38.1000 
G01 Z-2.000000
G01 Z2.560000
G00 X102.8700 Y38.1000 
G01 Z-2.000000
G01 Z2.560000
G00 X105.4100 Y38.1000 
G01 Z-2.000000
G01 Z2.560000
G00 X95.2500 Y38.1000 
G01 Z-2.000000
G01 Z2.560000
G00 X92.7100 Y38.1000 
G01 Z-2.000000
G01 Z2.560000
G00 X90.1700 Y38.1000 
G01 Z-2.000000
G01 Z2.560000
G00 X87.6300 Y38.1000 
G01 Z-2.000000
G01 Z2.560000
G00 X85.0900 Y38.1000 
G01 Z-2.000000
G01 Z2.560000
G00 X82.5500 Y38.1000 
G01 Z-2.000000
G01 Z2.560000
G00 X80.0100 Y38.1000 
G01 Z-2.000000
G01 Z2.560000
G00 X77.4700 Y38.1000 
G01 Z-2.000000
G01 Z2.560000
G00 X90.1700 Y15.2400 
G01 Z-2.000000
G01 Z2.560000
G00 X90.1700 Y12.7000 
G01 Z-2.000000
G01 Z2.560000
G00 X97.7900 Y12.7000 
G01 Z-2.000000
G01 Z2.560000
G00 X97.7900 Y15.2400 
G01 Z-2.000000
G01 Z2.560000
G00 X140.9700 Y38.1000 
G01 Z-2.000000
G01 Z2.560000
G00 X143.5100 Y38.1000 
G01 Z-2.000000
G01 Z2.560000
G00 X146.0500 Y38.1000 
G01 Z-2.000000
G01 Z2.560000
G00 X148.5900 Y38.1000 
G01 Z-2.000000
G01 Z2.560000
G00 X151.1300 Y38.1000 
G01 Z-2.000000
G01 Z2.560000
G00 X153.6700 Y38.1000 
G01 Z-2.000000
G01 Z2.560000
G00 X156.2100 Y38.1000 
G01 Z-2.000000
G01 Z2.560000
G00 X158.7500 Y38.1000 
G01 Z-2.000000
G01 Z2.560000
G00 X161.2900 Y38.1000 
G01 Z-2.000000
G01 Z2.560000
G00 X163.8300 Y38.1000 
G01 Z-2.000000
G01 Z2.560000
G00 X166.3700 Y38.1000 
G01 Z-2.000000
G01 Z2.560000
G00 X168.9100 Y38.1000 
G01 Z-2.000000
G01 Z2.560000
G00 X161.2900 Y15.2400 
G01 Z-2.000000
G01 Z2.560000
G00 X161.2900 Y12.7000 
G01 Z-2.000000
G01 Z2.560000
G00 X153.6700 Y12.7000 
G01 Z-2.000000
G01 Z2.560000
G00 X153.6700 Y15.2400 
G01 Z-2.000000
G01 Z2.560000
G00 X153.6700 Y62.2300 
G01 Z-2.000000
G01 Z2.560000
G00 X153.6700 Y64.7700 
G01 Z-2.000000
G01 Z2.560000
G00 X161.2900 Y64.7700 
G01 Z-2.000000
G01 Z2.560000
G00 X161.2900 Y62.2300 
G01 Z-2.000000
G01 Z2.560000
G00 X161.2900 Y87.6300 
G01 Z-2.000000
G01 Z2.560000
G00 X158.7500 Y87.6300 
G01 Z-2.000000
G01 Z2.560000
G00 X156.2100 Y87.6300 
G01 Z-2.000000
G01 Z2.560000
G00 X153.6700 Y87.6300 
G01 Z-2.000000
G01 Z2.560000
G00 X151.1300 Y87.6300 
G01 Z-2.000000
G01 Z2.560000
G00 X148.5900 Y87.6300 
G01 Z-2.000000
G01 Z2.560000
G00 X146.0500 Y87.6300 
G01 Z-2.000000
G01 Z2.560000
G00 X143.5100 Y87.6300 
G01 Z-2.000000
G01 Z2.560000
G00 X140.9700 Y87.6300 
G01 Z-2.000000
G01 Z2.560000
G00 X163.8300 Y87.6300 
G01 Z-2.000000
G01 Z2.560000
G00 X166.3700 Y87.6300 
G01 Z-2.000000
G01 Z2.560000
G00 X168.9100 Y87.6300 
G01 Z-2.000000
G01 Z2.560000
G00 X161.2900 Y111.7600 
G01 Z-2.000000
G01 Z2.560000
G00 X161.2900 Y114.3000 
G01 Z-2.000000
G01 Z2.560000
G00 X153.6700 Y114.3000 
G01 Z-2.000000
G01 Z2.560000
G00 X153.6700 Y111.7600 
G01 Z-2.000000
G01 Z2.560000
G00 X153.6700 Y137.1600 
G01 Z-2.000000
G01 Z2.560000
G00 X151.1300 Y137.1600 
G01 Z-2.000000
G01 Z2.560000
G00 X148.5900 Y137.1600 
G01 Z-2.000000
G01 Z2.560000
G00 X146.0500 Y137.1600 
G01 Z-2.000000
G01 Z2.560000
G00 X143.5100 Y137.1600 
G01 Z-2.000000
G01 Z2.560000
G00 X140.9700 Y137.1600 
G01 Z-2.000000
G01 Z2.560000
G00 X156.2100 Y137.1600 
G01 Z-2.000000
G01 Z2.560000
G00 X158.7500 Y137.1600 
G01 Z-2.000000
G01 Z2.560000
G00 X161.2900 Y137.1600 
G01 Z-2.000000
G01 Z2.560000
G00 X163.8300 Y137.1600 
G01 Z-2.000000
G01 Z2.560000
G00 X166.3700 Y137.1600 
G01 Z-2.000000
G01 Z2.560000
G00 X168.9100 Y137.1600 
G01 Z-2.000000
G01 Z2.560000
G00 X161.2900 Y161.2900 
G01 Z-2.000000
G01 Z2.560000
G00 X161.2900 Y163.8300 
G01 Z-2.000000
G01 Z2.560000
G00 X153.6700 Y163.8300 
G01 Z-2.000000
G01 Z2.560000
G00 X153.6700 Y161.2900 
G01 Z-2.000000
G01 Z2.560000
G00 X153.6700 Y186.6900 
G01 Z-2.000000
G01 Z2.560000
G00 X151.1300 Y186.6900 
G01 Z-2.000000
G01 Z2.560000
G00 X148.5900 Y186.6900 
G01 Z-2.000000
G01 Z2.560000
G00 X146.0500 Y186.6900 
G01 Z-2.000000
G01 Z2.560000
G00 X143.5100 Y186.6900 
G01 Z-2.000000
G01 Z2.560000
G00 X140.9700 Y186.6900 
G01 Z-2.000000
G01 Z2.560000
G00 X156.2100 Y186.6900 
G01 Z-2.000000
G01 Z2.560000
G00 X158.7500 Y186.6900 
G01 Z-2.000000
G01 Z2.560000
G00 X161.2900 Y186.6900 
G01 Z-2.000000
G01 Z2.560000
G00 X163.8300 Y186.6900 
G01 Z-2.000000
G01 Z2.560000
G00 X166.3700 Y186.6900 
G01 Z-2.000000
G01 Z2.560000
G00 X168.9100 Y186.6900 
G01 Z-2.000000
G01 Z2.560000
G00 X214.6300 Y186.6900 
G01 Z-2.000000
G01 Z2.560000
G00 X217.1700 Y186.6900 
G01 Z-2.000000
G01 Z2.560000
G00 X219.7100 Y186.6900 
G01 Z-2.000000
G01 Z2.560000
G00 X222.2500 Y186.6900 
G01 Z-2.000000
G01 Z2.560000
G00 X224.7900 Y186.6900 
G01 Z-2.000000
G01 Z2.560000
G00 X227.3300 Y186.6900 
G01 Z-2.000000
G01 Z2.560000
G00 X229.8700 Y186.6900 
G01 Z-2.000000
G01 Z2.560000
G00 X232.4100 Y186.6900 
G01 Z-2.000000
G01 Z2.560000
G00 X234.9500 Y186.6900 
G01 Z-2.000000
G01 Z2.560000
G00 X237.4900 Y186.6900 
G01 Z-2.000000
G01 Z2.560000
G00 X240.0300 Y186.6900 
G01 Z-2.000000
G01 Z2.560000
G00 X242.5700 Y186.6900 
G01 Z-2.000000
G01 Z2.560000
G00 X234.9500 Y163.8300 
G01 Z-2.000000
G01 Z2.560000
G00 X234.9500 Y161.2900 
G01 Z-2.000000
G01 Z2.560000
G00 X227.3300 Y161.2900 
G01 Z-2.000000
G01 Z2.560000
G00 X227.3300 Y163.8300 
G01 Z-2.000000
G01 Z2.560000
G00 X227.3300 Y137.1600 
G01 Z-2.000000
G01 Z2.560000
G00 X229.8700 Y137.1600 
G01 Z-2.000000
G01 Z2.560000
G00 X232.4100 Y137.1600 
G01 Z-2.000000
G01 Z2.560000
G00 X234.9500 Y137.1600 
G01 Z-2.000000
G01 Z2.560000
G00 X237.4900 Y137.1600 
G01 Z-2.000000
G01 Z2.560000
G00 X240.0300 Y137.1600 
G01 Z-2.000000
G01 Z2.560000
G00 X242.5700 Y137.1600 
G01 Z-2.000000
G01 Z2.560000
G00 X224.7900 Y137.1600 
G01 Z-2.000000
G01 Z2.560000
G00 X222.2500 Y137.1600 
G01 Z-2.000000
G01 Z2.560000
G00 X219.7100 Y137.1600 
G01 Z-2.000000
G01 Z2.560000
G00 X217.1700 Y137.1600 
G01 Z-2.000000
G01 Z2.560000
G00 X214.6300 Y137.1600 
G01 Z-2.000000
G01 Z2.560000
G00 X227.3300 Y114.3000 
G01 Z-2.000000
G01 Z2.560000
G00 X227.3300 Y111.7600 
G01 Z-2.000000
G01 Z2.560000
G00 X234.9500 Y111.7600 
G01 Z-2.000000
G01 Z2.560000
G00 X234.9500 Y114.3000 
G01 Z-2.000000
G01 Z2.560000
G00 X234.9500 Y87.6300 
G01 Z-2.000000
G01 Z2.560000
G00 X232.4100 Y87.6300 
G01 Z-2.000000
G01 Z2.560000
G00 X229.8700 Y87.6300 
G01 Z-2.000000
G01 Z2.560000
G00 X227.3300 Y87.6300 
G01 Z-2.000000
G01 Z2.560000
G00 X224.7900 Y87.6300 
G01 Z-2.000000
G01 Z2.560000
G00 X222.2500 Y87.6300 
G01 Z-2.000000
G01 Z2.560000
G00 X219.7100 Y87.6300 
G01 Z-2.000000
G01 Z2.560000
G00 X217.1700 Y87.6300 
G01 Z-2.000000
G01 Z2.560000
G00 X214.6300 Y87.6300 
G01 Z-2.000000
G01 Z2.560000
G00 X237.4900 Y87.6300 
G01 Z-2.000000
G01 Z2.560000
G00 X240.0300 Y87.6300 
G01 Z-2.000000
G01 Z2.560000
G00 X242.5700 Y87.6300 
G01 Z-2.000000
G01 Z2.560000
G00 X234.9500 Y64.7700 
G01 Z-2.000000
G01 Z2.560000
G00 X234.9500 Y62.2300 
G01 Z-2.000000
G01 Z2.560000
G00 X227.3300 Y62.2300 
G01 Z-2.000000
G01 Z2.560000
G00 X227.3300 Y64.7700 
G01 Z-2.000000
G01 Z2.560000
G00 X227.3300 Y38.1000 
G01 Z-2.000000
G01 Z2.560000
G00 X229.8700 Y38.1000 
G01 Z-2.000000
G01 Z2.560000
G00 X232.4100 Y38.1000 
G01 Z-2.000000
G01 Z2.560000
G00 X234.9500 Y38.1000 
G01 Z-2.000000
G01 Z2.560000
G00 X237.4900 Y38.1000 
G01 Z-2.000000
G01 Z2.560000
G00 X240.0300 Y38.1000 
G01 Z-2.000000
G01 Z2.560000
G00 X242.5700 Y38.1000 
G01 Z-2.000000
G01 Z2.560000
G00 X224.7900 Y38.1000 
G01 Z-2.000000
G01 Z2.560000
G00 X222.2500 Y38.1000 
G01 Z-2.000000
G01 Z2.560000
G00 X219.7100 Y38.1000 
G01 Z-2.000000
G01 Z2.560000
G00 X217.1700 Y38.1000 
G01 Z-2.000000
G01 Z2.560000
G00 X214.6300 Y38.1000 
G01 Z-2.000000
G01 Z2.560000
G00 X227.3300 Y15.2400 
G01 Z-2.000000
G01 Z2.560000
G00 X227.3300 Y12.7000 
G01 Z-2.000000
G01 Z2.560000
G00 X234.9500 Y12.7000 
G01 Z-2.000000
G01 Z2.560000
G00 X234.9500 Y15.2400 
G01 Z-2.000000
G01 Z2.560000
(Top Drill End)
(End of all Drill Files)
(End of every top file)
(End of every file)
T01 
G00 Z120.7000 
M05
M02
